/* XPM */
static char *result[] = {
/* columns rows colors chars-per-pixel */
"256 256 256 2 ",
"   c #030201",
".  c #0C0101",
"X  c #010A01",
"o  c #01010B",
"O  c #080709",
"+  c #130101",
"@  c #170607",
"#  c #1B0100",
"$  c #100D0E",
"%  c #040415",
"&  c #240102",
"*  c #30050D",
"=  c #372E11",
"-  c #22172A",
";  c #3A2929",
":  c #3A372A",
">  c #382B35",
",  c #2C3334",
"<  c #3A3334",
"1  c #393737",
"2  c #4E1A13",
"3  c #4A2B08",
"4  c #562907",
"5  c #483606",
"6  c #583606",
"7  c #492918",
"8  c #582919",
"9  c #493619",
"0  c #573519",
"q  c #643011",
"w  c #4B1D29",
"e  c #681E22",
"r  c #472928",
"t  c #4B2B2C",
"y  c #552A28",
"u  c #47352A",
"i  c #573528",
"p  c #462A36",
"a  c #4B2C33",
"s  c #562B36",
"d  c #473537",
"f  c #563537",
"g  c #652727",
"h  c #792D2F",
"j  c #653329",
"k  c #652B35",
"l  c #673837",
"z  c #773638",
"x  c #384615",
"c  c #324530",
"v  c #394637",
"b  c #4D4510",
"n  c #795112",
"m  c #474328",
"M  c #46433A",
"N  c #584832",
"B  c #794B28",
"V  c #79552A",
"C  c #684638",
"Z  c #774838",
"A  c #695335",
"S  c #795537",
"D  c #72622B",
"F  c #173D51",
"G  c #343347",
"H  c #383945",
"J  c #482B44",
"K  c #483845",
"L  c #4F334F",
"P  c #553945",
"I  c #693945",
"U  c #71374C",
"Y  c #5A3B63",
"T  c #394545",
"R  c #334A4E",
"E  c #395E64",
"W  c #3A6B6F",
"Q  c #474545",
"!  c #5A4446",
"~  c #514F53",
"^  c #684847",
"/  c #774847",
"(  c #785546",
")  c #6E5152",
"_  c #685659",
"`  c #5D6259",
"'  c #54596C",
"]  c #6E586A",
"[  c #4F696F",
"{  c #6E6472",
"}  c #811E31",
"|  c #893436",
" . c #B13934",
".. c #8B500E",
"X. c #88531A",
"o. c #965F17",
"O. c #874A28",
"+. c #954D2F",
"@. c #855428",
"#. c #864B37",
"$. c #875735",
"%. c #A9483B",
"&. c #B14E36",
"*. c #B7493B",
"=. c #AA533C",
"-. c #C84B37",
";. c #8D374A",
":. c #AA3A4C",
">. c #BD3662",
",. c #864748",
"<. c #984749",
"1. c #875646",
"2. c #9A564A",
"3. c #894C58",
"4. c #984856",
"5. c #895658",
"6. c #995657",
"7. c #A94A47",
"8. c #B44C44",
"9. c #BA4D43",
"0. c #B34D4B",
"q. c #B9484A",
"w. c #A95348",
"e. c #B65348",
"r. c #A74956",
"t. c #B64A53",
"y. c #A75657",
"u. c #B65656",
"i. c #916255",
"p. c #AC614C",
"a. c #965963",
"s. c #91556E",
"d. c #AE4D64",
"f. c #A65A64",
"g. c #906569",
"h. c #B06B6B",
"j. c #C7534E",
"k. c #EB5C54",
"l. c #D06F59",
"z. c #DA6B5A",
"x. c #DC765C",
"c. c #E76856",
"v. c #E46C5C",
"b. c #EC6D5D",
"n. c #F66B5A",
"m. c #F26B5D",
"M. c #E67356",
"N. c #ED7254",
"B. c #E4725D",
"V. c #EA725C",
"C. c #CD6C6C",
"Z. c #DA6B66",
"A. c #CA766B",
"S. c #DA7667",
"D. c #DC736C",
"F. c #C87976",
"G. c #D87874",
"H. c #E76B67",
"J. c #EB6D63",
"K. c #F46A65",
"L. c #E47263",
"P. c #EA7263",
"I. c #E3736B",
"U. c #E9786A",
"Y. c #F47467",
"T. c #E67573",
"R. c #F27274",
"E. c #BA9A02",
"W. c #B39115",
"Q. c #B4A611",
"!. c #B3912F",
"~. c #A99C30",
"^. c #B79738",
"/. c #C79903",
"(. c #C69716",
"). c #CB9210",
"_. c #C9A30C",
"`. c #C8942F",
"'. c #C9A42F",
"]. c #B2964B",
"[. c #B29961",
"{. c #C89749",
"}. c #C6A14C",
"|. c #D08B73",
" X c #C89A79",
".X c #D69A79",
"XX c #EB8877",
"oX c #D7A56C",
"OX c #CBA578",
"+X c #D6A478",
"@X c #E4A477",
"#X c #396A84",
"$X c #4B6989",
"%X c #586386",
"&X c #AA7685",
"*X c #D47E83",
"=X c #968B99",
"-X c #B89389",
";X c #BBA68F",
":X c #A898A5",
">X c #B4ACB0",
",X c #B7A9B8",
"<X c #C89B89",
"1X c #D4968E",
"2X c #C9A588",
"3X c #D7A787",
"4X c #C8A797",
"5X c #D4AC94",
"6X c #E5A994",
"7X c #DC98A0",
"8X c #C8A9B8",
"9X c #D0ADB2",
"0X c #EFB1B2",
"qX c #B0C0B8",
"wX c #F7C9A9",
"eX c #ECD8AC",
"rX c #F0D2AB",
"tX c #EACBB8",
"yX c #FBC9BA",
"uX c #E9D3BA",
"iX c #F9D6B7",
"pX c #B9B4C7",
"aX c #B4B4D0",
"sX c #B5BBE3",
"dX c #CDB4CD",
"fX c #C4B8CA",
"gX c #E7AFC2",
"hX c #B5C2E3",
"jX c #CDC7D0",
"kX c #EECFCD",
"lX c #FCCCC5",
"zX c #E8D6C7",
"xX c #FAD5C6",
"cX c #FBD9D5",
"vX c #FBEED8",
"bX c #D3D4EB",
"nX c #FDDCE5",
"mX c #E9DAF1",
"MX c #DCEDF7",
"NX c #EAE9E9",
"BX c #FCE7E7",
"VX c #EAF8EB",
"CX c #F9F8E9",
"ZX c #FEFDEC",
"AX c #EBE9F8",
"SX c #FAEBF8",
"DX c #EBF9F6",
"FX c #EDFEFE",
"GX c #F4F5F4",
"HX c #FCF4F4",
"JX c #F4FDF5",
"KX c #FDFDF4",
"LX c #F5F4FC",
"PX c #FEF5FD",
"IX c #F5FEFD",
"UX c #FFFFFF",
/* pixels */
"UXUXUXUXUXUXUXUXUXUXUXUXUXUXUXUXIXIXIXIXIXUXUXUXUXUXUXUXUXUXPXPXPXPXPXPXPXPXPXUXUXUXUXUXKXUXKXUXUXUXUXUXUXUXUXUXUXUXUXUXUXUXUXUXUXUXUXUXUXUXUXUXUXUXUXUXUXUXUXUXIXIXIXUXIXUXUXUXUXUXUXUXUXUXUXUXUXUXIXUXUXUXUXIXUXIXUXKXKXKXKXKXUXUXUXUXUXUXUXUXUXUXUXUXUXUXUXUXUXUXUXUXUXUXUXUXUXUXUXUXUXUXUXUXIXIXIXIXIXUXIXUXUXUXUXUXUXUXPXUXLXPXPXPXPXPXPXUXPXUXUXUXUXKXUXKXUXUXUXUXUXUXUXUXUXUXUXUXUXUXUXUXUXUXUXUXUXUXUXUXUXUXUXUXUXUXUXUXIXIXIXIXIXUXUXUXUXUXUXUXUXUXUXUXUXUXUXUXUXIXUXUXIXIXUXKXUXKXKXIXUXUXUXUXUXUXUXUXUXUXUXUXUXUXUXUX",
"UXUXUXUXUXUXUXUXUXUXUXUXUXUXUXUXUXUXIXUXIXUXUXUXUXUXUXUXUXUXUXUXUXUXPXUXUXUXUXUXUXUXUXUXUXUXIXUXUXUXUXUXUXUXUXUXUXUXUXUXUXUXUXUXUXUXUXUXUXUXUXUXUXUXUXUXUXUXUXUXUXIXIXUXUXUXUXUXUXUXUXUXUXUXUXUXUXUXUXUXUXUXUXUXUXIXIXKXIXUXKXIXUXUXUXUXUXUXUXUXUXUXUXUXUXUXUXUXUXUXUXUXUXUXUXUXUXUXUXUXUXUXUXUXUXUXUXIXIXUXUXUXUXUXUXUXUXUXPXUXUXUXPXUXUXUXUXUXUXUXUXUXUXUXUXUXUXUXUXUXUXUXUXUXUXUXUXUXUXUXUXUXUXUXUXUXUXUXUXUXUXUXUXUXUXUXUXUXIXUXUXUXUXUXUXUXUXUXUXUXUXUXUXUXUXUXUXUXUXUXIXUXUXKXKXIXIXKXKXIXUXUXUXUXUXUXUXUXUXUXUXUXUXUXUXUX",
"UXUXUXUXUXUXUXUXUXUXUXUXUXUXUXUXUXUXUXUXUXUXUXUXUXUXUXUXUXUXUXUXUXIXUXIXUXUXUXUXUXUXUXUXUXUXUXUXUXUXUXUXUXUXUXUXUXUXUXUXUXUXUXUXUXUXUXUXUXUXUXUXUXUXUXUXUXUXUXUXUXUXUXUXUXUXUXUXUXUXUXUXUXUXUXUXUXUXUXUXUXUXUXUXUXUXUXKXUXUXUXIXUXUXUXUXUXUXUXUXUXUXUXUXUXUXUXUXUXUXUXUXUXUXUXUXUXUXUXUXUXUXUXUXUXUXUXUXPXUXUXUXUXUXUXUXUXUXUXUXIXUXUXIXUXUXUXUXUXUXUXUXUXUXUXUXUXUXUXUXUXUXUXUXUXUXUXUXUXUXUXUXUXUXUXUXUXUXUXUXUXUXUXUXUXUXUXUXUXUXUXUXUXUXUXUXUXUXUXUXUXUXUXUXUXUXUXUXUXUXUXUXUXUXUXUXUXUXKXUXUXUXUXUXUXUXUXUXUXUXUXUXUXUXUXUX",
"UXUXUXUXUXUXUXUXUXUXUXUXUXUXUXUXUXPXPXPXUXUXPXUXUXKXUXIXKXIXKXKXIXIXIXIXIXIXIXIXUXIXUXUXUXUXUXUXUXUXUXUXUXUXUXUXUXUXUXUXUXUXUXUXUXUXUXUXUXUXUXUXUXUXUXUXUXUXUXUXUXUXKXUXUXUXUXUXUXUXUXUXUXUXUXUXPXUXKXUXUXKXUXUXUXUXUXUXUXUXUXUXUXUXUXUXUXUXUXUXUXUXUXUXUXUXUXUXUXUXUXUXUXUXUXUXUXUXUXUXUXUXUXUXPXUXPXUXUXUXUXUXUXIXUXKXKXIXKXIXIXIXIXIXIXIXIXIXIXUXUXUXUXUXUXUXUXUXUXUXUXUXUXUXUXUXUXUXUXUXUXUXUXUXUXUXUXUXUXUXUXUXUXUXUXUXUXUXPXUXKXUXUXUXUXUXUXUXUXUXUXIXUXUXUXKXUXPXUXUXUXUXUXUXUXUXUXUXUXUXUXUXUXUXUXUXUXUXUXUXUXUXUXUXUXUX",
"UXUXUXUXUXUXUXUXUXUXUXUXUXUXUXUXUXUXUXUXUXUXUXUXUXIXKXKXIXJXJXIXJXJXJXIXIXIXKXIXUXIXUXUXUXUXKXUXUXUXUXUXUXUXUXUXUXUXUXUXUXUXUXUXUXUXUXUXUXUXUXUXUXUXUXUXUXUXUXUXUXPXPXKXUXUXUXUXUXUXIXUXIXUXUXUXUXKXUXKXKXUXIXUXUXUXUXUXUXUXUXUXUXUXUXUXUXUXUXUXUXUXUXUXUXUXUXUXUXUXUXUXUXUXUXUXUXUXUXUXUXUXUXUXUXUXUXUXPXUXUXUXUXKXIXKXKXKXJXJXJXIXJXIXIXKXUXIXUXIXUXUXUXUXUXUXUXUXUXUXUXUXUXUXUXUXUXUXUXUXUXUXUXUXUXUXUXUXUXUXUXUXUXUXUXUXUXUXPXPXPXPXKXUXUXUXUXUXIXUXIXUXUXUXUXKXKXUXKXKXUXUXUXUXUXUXUXUXUXUXUXUXUXUXUXUXUXUXUXUXUXUXUXUXUXUX",
"UXUXUXUXUXUXUXUXUXUXUXUXUXUXUXUXUXUXUXUXUXUXUXUXKXUXIXIXIXKXJXHXJXKXKXKXJXIXUXUXUXUXUXUXUXUXUXUXUXUXUXUXUXUXUXUXUXUXUXUXUXUXUXUXUXUXUXUXUXUXUXUXUXUXUXUXUXUXUXUXPXKXPXUXHXUXUXUXUXIXUXIXUXIXUXUXUXUXKXIXKXUXUXUXUXUXUXUXUXUXUXUXUXUXUXUXUXUXUXUXUXUXUXUXUXUXUXUXUXUXUXUXUXUXUXUXUXUXUXUXUXUXUXUXUXUXUXUXUXUXUXUXIXUXIXIXJXIXIXKXKXKXJXKXKXIXKXIXIXUXUXUXUXUXPXUXUXUXUXUXUXUXUXUXUXUXUXUXUXUXUXUXUXUXUXUXUXUXUXUXUXUXUXUXUXUXUXUXUXKXKXUXUXKXUXUXUXIXUXIXIXUXUXUXKXUXKXIXUXUXUXKXUXUXUXUXUXUXUXUXUXUXUXUXUXUXUXUXUXUXUXUXUXUXUXUX",
"UXUXUXUXUXUXUXUXUXUXUXUXUXUXUXUXUXIXUXIXIXUXUXUXUXUXUXUXUXUXUXUXUXKXUXKXKXUXUXUXUXUXUXUXUXUXUXUXUXUXUXUXUXUXUXUXUXUXUXUXUXUXUXUXUXUXUXUXUXUXUXUXUXUXUXUXUXUXUXUXUXUXUXUXKXUXIXIXUXUXUXUXUXUXUXPXKXUXUXUXUXUXUXUXUXUXUXUXUXUXUXUXUXUXUXUXUXUXUXUXUXUXUXUXUXUXUXUXUXUXUXUXUXUXUXUXUXUXUXUXUXUXUXUXUXIXUXIXUXIXUXUXUXUXUXUXUXUXUXKXKXKXKXUXUXUXUXUXUXUXUXUXUXUXUXUXUXUXUXUXUXUXUXUXUXUXUXUXUXUXUXUXUXUXUXUXUXUXUXUXUXUXUXUXUXUXUXUXUXUXUXUXUXIXUXIXIXUXUXUXUXUXPXUXUXUXUXUXUXUXUXUXUXUXUXUXUXUXUXUXUXUXUXUXUXUXUXUXUXUXUXUXUXUXUXUX",
"UXUXUXUXUXUXUXUXUXUXUXUXUXUXUXUXUXIXUXUXUXUXUXUXUXUXUXUXUXUXKXUXUXKXPXUXPXUXKXUXUXPXUXUXUXUXUXUXUXUXUXUXUXUXUXUXUXUXUXUXUXUXUXUXUXUXUXUXUXUXUXUXUXUXUXUXUXUXUXUXUXUXIXUXIXIXUXIXIXUXUXUXUXPXPXPXUXUXUXUXUXUXUXUXUXUXUXUXUXUXUXUXUXUXUXUXUXUXUXUXUXUXUXUXUXUXUXUXUXUXUXUXUXUXUXUXUXUXUXUXUXUXUXUXUXUXUXUXUXUXUXUXUXUXUXPXUXUXUXUXUXPXUXPXUXKXUXUXUXUXUXUXUXUXUXUXUXUXUXUXUXUXUXUXUXUXUXUXUXUXUXUXUXUXUXUXUXUXUXUXUXUXUXUXUXUXUXUXUXIXIXUXIXUXIXIXUXUXUXUXUXPXPXUXUXUXUXIXUXUXUXUXUXUXUXUXUXUXUXUXUXUXUXUXUXUXUXUXUXUXUXUXUXUXUXUX",
"UXUXUXUXUXUXUXUXUXUXUXUXUXUXUXUXUXUXPXUXPXUXUXUXPXUXPXUXUXPXPXPXPXPXUXPXPXUXSXUXUXUXUXUXUXHXKXUXUXUXUXUXUXUXUXUXUXUXUXUXUXUXUXUXUXUXUXUXUXUXUXUXUXUXUXUXUXUXUXUXUXUXUXLXUXJXUXUXIXUXUXUXUXUXUXUXUXLXIXIXLXUXIXUXUXUXIXUXUXGXUXLXUXUXUXUXUXUXUXUXUXUXUXUXUXUXUXUXUXUXUXUXUXUXUXUXUXUXUXUXUXUXUXUXPXUXPXUXPXUXPXUXUXPXUXPXUXPXUXPXPXPXPXPXPXUXSXUXPXUXUXUXUXHXKXUXUXUXUXUXUXUXUXUXUXUXUXUXUXUXUXUXUXUXUXUXUXUXUXUXUXUXUXUXUXUXUXUXUXUXUXIXUXDXUXUXIXUXUXUXUXUXUXUXUXFXUXIXIXUXIXUXIXUXIXUXUXGXUXLXUXUXUXUXUXUXUXUXUXUXUXUXUXUXUXUX",
"UXUXUXUXUXUXUXUXUXUXUXUXUXUXUXUXPXUXUXUXSXPXPXUXPXUXPXPXPXPXUXUXPXPXPXUXUXLXUXAXUXUXUXHXUXKXKXUXUXUXUXUXUXUXUXUXUXUXUXUXUXUXUXUXUXUXUXUXUXUXUXUXUXUXUXUXUXUXUXUXGXPXSXUXUXUXGXUXUXUXUXUXUXUXUXUXUXUXUXUXUXUXUXUXUXUXUXUXUXUXDXUXUXUXUXUXUXUXUXUXUXUXUXUXUXUXUXUXUXUXUXUXUXUXUXUXUXUXUXUXUXUXUXUXUXUXUXUXSXPXUXPXPXUXPXPXPXPXUXPXUXPXPXUXUXLXUXAXUXUXUXHXUXUXKXUXUXUXUXUXUXUXUXUXUXUXUXUXUXUXUXUXUXUXUXUXUXUXUXUXUXUXUXUXUXUXUXUXSXPXSXUXUXUXKXUXUXUXUXUXUXUXUXUXUXUXUXUXUXUXPXUXUXUXUXUXUXUXDXUXUXUXUXUXUXUXUXUXUXUXUXUXUXUXUXUX",
"UXUXUXUXUXUXUXUXUXUXUXUXUXUXUXUXUXHXHXUXKXUXUXLXUXUXUXUXUXIXIXUXIXIXUXFXIXIXDXUXLXIXUXUXUXUXBXKXUXUXUXUXUXUXUXUXUXUXUXUXUXUXUXUXUXUXUXUXUXUXUXUXUXUXUXUXUXUXUXUXUXPXUXPXPXHXKXKX< u < u r d < p d J d ; < > KXUXUXUXHXUXGXUXUXUXUXUXUXUXUXUXUXUXUXUXUXUXUXUXUXUXUXUXUXUXUXUXUXUXUXUXUXUXUXUXUXUXUXHXHXUXKXUXUXIXUXUXIXUXUXIXUXIXIXIXIXLXIXIXLXIXIXIXUXUXKXKXHXKXUXUXUXUXUXUXUXUXUXUXUXUXUXUXUXUXUXUXUXUXUXUXUXUXUXUXUXUXUXUXUXUXUXUXPXLXPXHXUXHXu < r r u < < p d d p > 1 > PXUXUXUXGXUXGXUXUXUXUXUXUXUXUXUXUXUXUXUXUXUXUXUXUXUX",
"UXUXUXUXUXUXUXUXUXUXUXUXUXUXUXUXUXUXUXUXUXGXUXUXIXIXIXIXIXIXIXIXUXIXUXUXIXLXIXIXUXIXUXUXGXKXKXUXUXUXUXUXUXUXUXUXUXUXUXUXUXUXUXUXUXUXUXUXUXUXUXUXUXUXUXUXUXUXUXUXUXUXUXPXPXPXHXHXy y y y 8 y y y r r s a I a PXKXSXKXUXHXUXUXLXUXUXUXUXUXUXUXUXUXUXUXUXUXUXUXUXUXUXUXUXUXUXUXUXUXUXUXUXUXUXUXUXUXUXUXUXUXUXGXUXUXIXUXIXIXIXIXIXIXUXIXUXIXUXIXFXIXIXUXUXUXGXKXHXKXUXUXUXUXUXUXUXUXUXUXUXUXUXUXUXUXUXUXUXUXUXUXUXUXUXUXUXUXUXUXUXUXPXUXUXUXPXPXHXHXy y y y y y e y y w s a I t PXKXHXUXUXHXUXUXIXUXUXUXUXUXUXUXUXUXUXUXUXUXUXUXUXUX",
"UXUXUXUXUXUXUXUXUXUXUXUXUXUXUXUXIXIXIXDXUXUXUXUX1 1 : 1 : 1 u u d u r < d ; UXGXUXIXGXUXUXUXUXCXUXUXUXUXUXUXUXUXUXUXUXUXUXUXUXUXUXUXUXUXUXUXUXUXUXUXUXUXUXUXUXUXFXFXIXUX; d 2 y F.F.F.G.G.G.G.G.*X|.*Xh.h.&Xk y f d PXUXGXUXLXUXUXUXUXUXUXUXUXUXUXUXUXUXUXUXUXUXUXUXUXUXUXUXUXUXUXUXUXUXUXUXUXUXIXIXIXDXUXIXUXUX: < : 1 < : d : d r u u d ; UXLXUXIXGXUXUXUXKXCXUXUXUXUXUXUXUXUXUXUXUXUXUXUXUXUXUXUXUXUXUXUXUXUXUXUXUXUXUXUXUXUXFXFXFXUX: a 7 g |.F.G.G.G.G.G.G.*XF.F.F.h.h.g y s a PXKXGXUXGXIXUXUXUXUXUXUXUXUXUXUXUXUXUXUXUXUX",
"UXUXUXUXUXUXUXUXUXUXUXUXUXUXUXUXIXIXUXIXLXUXKXHXu t y i 8 y i 8 8 8 y 2 r r HXUXUXGXUXUXGXGXIXUXUXUXUXUXUXUXUXUXUXUXUXUXUXUXUXUXUXUXUXUXUXUXUXUXUXUXUXUXUXUXUXUXFXFXIXKXd y g e A.S.Z.H.H.H.K.H.H.Z.Z.G.C.|.e g y y BXKXUXLXUXIXUXUXUXUXUXUXUXUXUXUXUXUXUXUXUXUXUXUXUXUXUXUXUXUXUXUXUXUXUXUXUXUXUXIXUXUXKXUXKXPXd u i y y 8 y 8 8 8 8 r r t HXUXUXSXUXUXIXGXUXIXUXUXUXUXUXUXUXUXUXUXUXUXUXUXUXUXUXUXUXUXUXUXUXUXUXUXUXUXUXUXUXUXIXFXIXUXu i g e C.C.D.D.H.H.H.H.U.Z.Z.S.G.1Xe y k t HXUXUXPXUXIXUXUXUXUXUXUXUXUXUXUXUXUXUXUXUXUX",
"UXUXUXUXUXUXUXUXUXUXUXUXUXUXUXUXLXUXUXSXK u r k <Xh.F.A.G.D.I.D.Z.G.G.1X<Xh.s t r K NXUXUXIXIXIXUXUXUXUXUXUXUXUXUXUXUXUXUXUXUXUXUXUXUXUXUXUXUXUXUXUXUXUXUXUXUXUXUXPXP r 5.6.h.XXD.I.J.J.K.J.L.P.n.n.Y.Y.P.Z.|.A.6.g.a P UXLXIXUXUXUXUXUXUXUXUXUXUXUXUXUXUXUXUXUXUXUXUXUXUXUXUXUXUXUXUXUXUXUXUXUXLXIXUXSXd < r k |.&XF.F.G.D.I.D.D.G.G.*X<Xh.y y ; P NXUXUXIXIXIXUXUXUXUXUXUXUXUXUXUXUXUXUXUXUXUXUXUXUXUXUXUXUXUXUXUXUXUXUXUXUXUXPXPXP t 3.y.h.T.I.I.H.J.P.V.J.H.m.n.Y.Y.I.l.G.F.1.g.f f PXPXIXUXUXUXUXUXUXUXUXUXUXUXUXUXUXUXUXUX",
"UXUXUXUXUXUXUXUXUXUXUXUXUXUXUXUXUXUXPXPX; k g e F.G.G.I.H.K.J.P.K.Z.U.Z.C.G.e h s t UXUXFXIXIXUXUXUXUXUXUXUXUXUXUXUXUXUXUXUXUXUXUXUXUXUXUXUXUXUXUXUXUXUXUXUXUXUXPXPX; f 6.u.T.L.I.J.V.V.B.B.L.b.n.n.n.m.P.L.Z.G.y.6.r d PXUXUXUXUXUXUXUXUXUXUXUXUXUXUXUXUXUXUXUXUXUXUXUXUXUXUXUXUXUXUXUXUXUXUXUXUXUXPXPXw k g e F.G.D.I.J.Y.J.J.P.H.I.Z.G.*Xe g s t UXUXFXIXJXUXUXUXUXUXUXUXUXUXUXUXUXUXUXUXUXUXUXUXUXUXUXUXUXUXUXUXUXUXUXUXUXUXUXPX; f 6.y.D.S.H.L.J.V.V.v.L.K.n.K.n.k.P.U.Z.G.y.6.r d PXUXUXUXUXUXUXUXUXUXUXUXUXUXUXUXUXUXUXUX",
"UXUXUXUXKXUXUXUXUXUXUXUXUXUXUXIXIXUX> t 6.2.T.T.S.L.l.B.V.Y.z.B.c.b.P.R.I.I.L.D.r.6.f H FXFXUXKXUXUXUXUXUXUXUXUXUXUXUXUXUXUXUXUXUXUXUXUXUXUXUXUXUXUXUXUXUXUXUXUXKXUX, J f.7.T.L.J.V.z.M.M.b.H.H.K.K.c.M.V.U.b.P.0.6.a > UXUXGXUXUXUXUXUXUXUXUXUXUXUXUXUXUXUXUXUXKXUXKXUXUXUXUXUXUXUXUXUXUXUXUXUXIXUXd t 5.y.D.H.S.S.l.B.V.Y.M.z.v.b.U.R.I.S.L.D.0.f.p 1 FXFXUXKXUXUXUXUXUXUXUXUXUXUXUXUXUXUXUXUXUXUXUXUXUXUXUXUXUXUXUXUXUXUXUXUXKXKX, d f.:.R.v.L.P.z.M.M.M.H.H.K.K.N.M.L.U.c.Y.e.6.d , UXKXSXUXUXUXUXUXUXUXUXUXUXUXUXUXUXUXUXUX",
"KXUXUXKXUXUXUXUXUXUXUXUXUXIXUXUXUXUXu y 6.w.H.v.V.L.x.B.N.m.z.v.V.b.b.v.x.B.J.P.j.r.p > IXIXUXHXUXUXUXUXUXUXUXUXUXUXUXUXUXUXUXUXUXUXUXUXUXUXUXUXUXUXUXUXUXUXUXUXKXHX1 p F.T.v.Y.Y.V.M.M.M.U.H.R.R.R.P.V.x.v.c.K.Z.C.d 1 HXKXUXUXUXUXUXUXUXUXUXUXUXUXUXUXUXUXUXUXUXUXUXUXUXUXUXUXUXUXUXUXUXIXUXIXIXUXp i 6.0.I.Y.V.U.x.B.c.m.z.B.B.J.m.v.v.v.V.Y.q.d.p 1 IXFXHXKXUXUXUXUXUXUXUXUXUXUXUXUXUXUXUXUXUXUXUXUXUXUXUXUXUXUXUXUXUXUXUXUXKXCX1 p F.*Xv.Y.Y.H.M.M.M.M.H.R.R.R.Y.N.B.v.c.m.H.F.a H HXKXUXIXUXUXUXUXUXUXUXUXUXUXUXUXUXUXUXUX",
"UXUXUXUXUXUXUXUXUXUXUXUXUXUXIXIXIXIX< y 6.j.H.K.c.b.b.Y.m.K.Y.Y.Y.Y.K.K.L.L.V.v.j.r.d H UXUXKXKXUXUXUXUXUXUXUXUXUXUXUXUXUXUXUXUXUXUXUXUXUXUXUXUXUXUXUXUXUXUXUXUXKXPXw s *X*Xc.c.z.c.K.n.N.P.Z.D.T.R.Z.c.P.V.n.Y.T.<Xw P UXPXUXAXUXUXUXUXUXUXUXUXUXUXUXUXUXUXUXUXUXUXKXUXUXUXUXUXUXUXUXUXUXUXUXUXIXUX; t 4.0.H.K.c.c.b.Y.m.K.Y.Y.K.K.K.K.L.B.B.v.*.r.f , LXUXHXPXUXUXUXUXUXUXUXUXUXUXUXUXUXUXUXUXUXUXUXUXUXUXUXUXUXUXUXUXUXUXUXUXUXKXr s *XR.v.c.c.c.K.c.N.U.Z.T.T.T.B.z.L.P.m.Y.I.1Xw f KXPXUXAXUXUXUXUXUXUXUXUXUXUXUXUXUXUXUXUX",
"UXKXUXUXUXUXUXUXUXUXUXUXUXUXUXUXLXUXd f F.D.H.K.K.m.n.K.c.H.K.K.z.v.K.J.L.x.M.B.Z.A.f > UXUXSXHXUXUXUXUXUXUXUXUXUXUXUXUXUXUXUXUXUXUXUXUXUXUXUXUXUXUXUXUXUXUXUXUXHXSXk h C.K.Y.P.U.Y.R.c.L.z.D.|.G.G.Z.Z.P.v.b.c.Z.A.y i HXUXGXUXUXUXUXUXUXUXUXUXUXUXUXUXUXUXUXUXUXKXUXUXUXUXUXUXUXUXUXUXUXIXUXIXIXUXu f F.I.H.Y.Y.m.m.K.J.K.K.c.c.v.K.K.S.x.B.V.H.*Xr H UXPXKXHXUXUXUXUXUXUXUXUXUXUXUXUXUXUXUXUXUXUXUXUXUXUXUXUXUXUXUXUXUXUXUXUXPXSXk h C.H.U.K.Y.Y.Y.k.P.l.S.|.G.G.Z.x.P.b.b.v.l.C.j a PXUXLXUXUXUXUXUXUXUXUXUXUXUXUXUXUXUXUXUX",
"UXKXUXUXUXUXUXUXUXUXUXUXUXUXUXUXUXUX; 8 *XT.H.J.J.K.K.H.I.I.R.H.U.I.K.K.x.x.x.M.L.G.i > PXPXPXUXUXUXUXUXUXUXUXUXUXUXUXUXUXUXUXUXUXUXUXUXUXUXUXUXUXUXUXUXUXUXUXUXo @ 2 h A.I.v.P.l.L.Z.Z.1XC.A.A.*X*XG.D.Y.B.U.U.T.G.g r .   UXUXUXUXUXUXUXUXUXUXUXUXUXUXUXUXUXUXUXUXUXKXUXUXUXUXUXUXUXUXUXUXUXUXUXUXt y G.R.k.c.K.J.K.J.H.D.R.H.U.U.K.K.S.x.M.B.S.C.y d PXPXPXKXUXUXUXUXUXUXUXUXUXUXUXUXUXUXUXUXUXUXUXUXUXUXUXUXUXUXUXUXUXUXUXUXo @ 2 h C.I.B.P.l.L.Z.z.1XF.|.A.F.*XG.T.Y.b.U.U.T.G.g 2 .   UXUXUXUXUXUXUXUXUXUXUXUXUXUXUXUXUXUX",
"UXUXUXUXUXUXUXUXUXUXUXUXUXUXUXUXUXSXf g T.R.J.v.c.Y.K.Z.F.C.C.T.D.D.R.R.U.S.x.M.U.A.2 ! PXPXUXNXUXUXUXUXUXUXUXUXUXUXUXUXUXUXUXUXUXUXUXUXUXUXUXUXUXUXUXUXUXUXUXUXK d f.:.p.p.Z.P.U.S.D.1XlXcXcXxXcXlX*XG.v.v.v.l.8.0.w.6.P T LXUXUXUXUXUXUXUXUXUXUXUXUXUXUXUXUXUXUXUXUXUXUXUXUXUXUXUXUXUXUXUXUXUXUXAX^ y C.R.m.XXc.J.K.Z.A.A.C.T.G.D.R.R.L.x.x.M.J.|.i a PXPXHXUXUXUXUXUXUXUXUXUXUXUXUXUXUXUXUXUXUXUXUXUXUXUXUXUXUXUXUXUXUXUXUXUXK p f.7.u.w.L.L.I.S.G.1XlXcXxXxXcXlX*XT.v.v.z.l.7.0.y.6.K Q GXUXUXUXUXUXUXUXUXUXUXUXUXUXUXUXUXUX",
"UXUXUXUXUXUXUXUXUXUXUXUXUXUXUXUXH d w g l.B.U.P.v.U.D.h.<X|.F.|.F.C.Z.H.D.I.M.M.B.C.z w p K NXUXUXUXUXUXUXUXUXUXUXUXUXUXUXUXUXUXUXUXUXUXUXUXUXUXUXUXUXUXUXUXUXUX, p 6.w.p.+.I.H.D.l.F.-XnXSXcXcXnXcX*X*Xl.P.U.T.e.7.w.6.; H UXUXUXUXUXUXUXUXUXUXUXUXUXUXUXUXUXUXUXUXUXUXUXUXUXUXUXUXUXUXUXUXUXUXo @ w h D.H.B.l.v.U.G.A.<X|.F.G.|.C.Z.H.D.I.B.B.P.l.2 s @ . UXGXUXUXUXUXUXUXUXUXUXUXUXUXUXUXUXUXUXUXUXUXUXUXUXUXUXUXUXUXUXUXUXUX, G 6.p.w.=.I.L.U.C.*X&XcXSXcXcXnXcX&X*Xl.P.U.T.j.7.w.6.; H UXUXUXUXUXUXUXUXUXUXUXUXUXUXUXUXUXUX",
"UXUXUXUXUXUXUXUXUXUXUXUXUXUXUXUX< > f.r.7.j.z.B.x.G.A.|.xXcXxXcXBXlX*XT.D.I.L.M.*.j.2.5.f < UXIXUXUXUXUXUXUXUXUXUXUXUXUXUXUXUXUXUXUXUXUXUXUXUXUXUXUXUXUXUXUXUXUX% @ 2.2.=.e.%.j.q.0.9X8XSXcXf.3.lXSX9X9Xu.9.9.9.8.w.p.6.. o PXUXUXUXUXUXUXUXUXUXUXUXUXUXUXUXUXUXUXUXUXUXUXUXUXUXUXUXUXUXUXUXUXUX1 p a.r.0.*.U.B.B.G.h.|.xXcXcXcXcX0X7XG.D.S.x.M.*.j.y.6.s 1 GXUXUXUXUXUXUXUXUXUXUXUXUXUXUXUXUXUXUXUXUXUXUXUXUXUXUXUXUXUXUXUXUXUX% @ 6.$.=.p. .j.j.w.9X8XSXcXf.4.lXSX9X9Xu.9.9.e.0.w.w.i.+ o KXUXUXUXUXUXUXUXUXUXUXUXUXUXUXUXUXUX",
"UXUXUXUXUXUXUXUXUXUXGXUXUXUXUXUX> d y.t.9.*.M.XXU.A.h. XcXnXcXcXcXcX-X*XG.T.H.z.-.9.t.f.p , UXIXUXUXUXUXUXUXUXUXUXUXUXUXUXUXUXUXUXUXUXUXUXUXUXUXUXGXUXUXUXUXUXUX% O y.=.w.%.j.t.t.y.8XdXSXnXd.4.nXkXfXfX6.u.q.j.t.w.y.1.+ . UXUXUXUXUXUXUXUXUXUXUXUXUXUXUXUXUXUXUXUXUXUXUXUXUXUXUXUXGXUXUXUXUXUX, f 6.u.e.*.B.z.U.A.A.[.cXvXcXcXvXcXF.1XT.T.L.z.-.*.y.f.< 1 UXIXUXUXUXUXUXUXUXUXUXUXUXUXUXUXUXUXUXUXUXUXUXUXUXUXUXGXUXUXUXUXUXUXo . 6.w.e.%.j.t.q.y.9XdXmXnXd.4.nXnXjX8Xi.u.q.j.u.<.p.i.. . PXUXUXUXUXUXUXUXUXUXUXUXUXUXUXUXUXUX",
"UXUXUXUXUXUXUXUXUXUXUXUXGXUXUXUXo # 6.r.e.&.*.*.&.w.0X9XBXnX6.i.cXBX0X7Xd.:.9.j.*.9.7.4.. X VXIXUXUXUXUXUXUXUXUXUXUXUXUXUXUXUXUXUXUXUXUXUXUXUXUXUXUXUXGXUXGXUXGXo   1.w.e.9.u.r.t.a.dX,X%Xs.4.d.s.&XpXpX( <.t.t.r.y.i.i.# . UXUXUXUXUXUXUXUXUXUXUXUXUXUXUXUXUXUXUXUXUXUXUXUXUXUXUXUXUXUXGXUXUXUXo # 4.e.e.*.*.*.8.w.0X9XSXcX5.6.cXBX9X7Xd.:.8.j.*.j.7.4.. X DXIXUXUXUXUXUXUXUXUXUXUXUXUXUXUXUXUXUXUXUXUXUXUXUXUXUXUXUXGXUXLXUXDXo . 1.w.e.0.t.r.d.f.fX,X%Xs.s.d.s.&XpXfX( <.t.t.r.y.2.i.@ . UXUXUXUXUXUXUXUXUXUXUXUXUXUXUXUXUXUX",
"UXUXUXUXUXUXUXUXUXGXUXUXUXUXUXHXO + y.7.w.e.%.j.u.4.0X9XgXnXa.a.BXzXjX9Xf.d.0.w.9.j.t.f.  X IXUXUXUXUXUXUXUXUXUXUXUXUXUXUXUXUXUXUXUXUXUXUXUXUXUXGXUXUXUXUXLXUXUXX O 1.<.u.q.f.4.4.g.jXjX&Xs.&Xs.s.{ pXfXg.g.d.d.d.w.p.A     HXKXUXUXUXUXUXUXUXUXUXUXUXUXUXUXUXUXUXUXUXUXUXUXUXUXUXGXUXUXUXUXUXHXO + y.7.=.e.*.j.u.r.gX9XkXnX6.a.BXkXgX8Xd.d.r.7.9.j.t.f.  X JXUXUXUXUXUXUXUXUXUXUXUXUXUXUXUXUXUXUXUXUXUXUXUXUXUXGXUXUXUXUXKXUXUXX X 1.2.u.0.f.6.6.s.jXfX&X] s.a.] ] aXpXg.a.f.d.u.r.i.A .   HXKXUXUXUXUXUXUXUXUXUXUXUXUXUXUXUXUX",
"UXUXUXUXUXUXUXUXUXKXUXGXKXUXUXUX  . a.2.w.e.8.0.r.4.9XdX&Xh.4.a.g.{ 8XdX&Xd.y.w.8.8.r.a.  X JXKXUXUXUXUXUXUXUXUXUXUXUXUXUXUXUXUXUXUXUXUXUXUXUXUXUXUXUXGXUXUXNXGXX   i y r.d.9X9XdXdXaXpX8XdX8XdXfXpXjXpXfXdX9X7Xr.y.j u     PXHXUXUXUXUXUXUXUXUXUXUXUXUXUXUXUXUXUXUXUXUXUXUXUXUXUXKXIXHXUXUXUXUX  . g.w.p.e.8.t.4.3.gXdX&Xh.a.a.g.{ ,XdX&Xd.r.y.8.q.r.6.  X KXKXUXUXUXUXUXUXUXUXUXUXUXUXUXUXUXUXUXUXUXUXUXUXUXUXUXUXUXGXUXUXNXJXX   y g r.f.7X9XdXfXpXaXdXdXgXdXdXdXdXpXpXfX7XgXy.u.g u X   HXPXUXUXUXUXUXUXUXUXUXUXUXUXUXUXUXUX",
"UXUXUXUXUXUXUXUXGXUXUXUXUXHXHXUX  @ 5.1.y.7.>.r.s.&XdXdX%Xs.s.s.] { aXdX&Xs.3.4.w.u.y.5.X X KXKXUXUXUXUXUXUXUXUXUXUXUXUXUXUXUXUXUXUXUXUXUXUXUXUXUXUXUXUXUXGXQ 1 X   r y a.s.dXjXdXsXaXaXjXjXpXpXpXpXfXfXdXsXdX9Xf.4.y 7   X f ; UXUXUXUXUXUXUXUXUXUXUXUXUXUXUXUXIXUXUXUXUXUXUXUXGXUXUXUXUXHXKXUXo + 5.1.y.<.t.r.s.&XaXdX] s.s.s.] &XaXdX&Xs.3.2.w.r.y.5.  X KXKXUXUXUXUXUXUXUXUXUXUXUXUXUXUXUXUXUXUXUXUXUXUXUXUXUXUXUXUXUXGXQ d X   u y a.a.dXdXfXjXaXaXdXdXfXpXaXfXpXfXhXaXfX9Xf.4.y r X   f r UXUXUXUXUXUXUXUXUXUXUXUXUXUXUXUX",
"UXIXUXIXUXUXUXUXUXUXGXGXUXUXGXUX    d j 6.y.0XgXdXaXsXsXdXgX8XgXgX8XsXdX:XdXdXgX6.<.k 7   X BXKXUXUXUXUXUXUXUXUXUXUXUXUXUXUXUXUXUXUXUXUXUXUXUXUXUXKXGXUXPXUX, : + @ ; P g.g.8X,XaXaXsXfXaXpXfXsXjXaXaXdXaXsXfXdXa.g.f 9 . . ; f UXUXUXUXUXUXUXUXUXUXUXUXUXUXUXUXUXUXUXIXUXUXUXUXUXUXGXHXUXKXGXUX  . a f 4.d.0XgXdXdXaXsXdXdX8XgXgX,XaXsX,XdXgX0Xy.<.g r X X BXKXUXUXUXUXUXUXUXUXUXUXUXUXUXUXUXUXUXUXUXUXUXUXUXUXUXKXLXUXIXUX, : + # ; d g.g.8XpXaXaXsXdXpXaXaXsXfXaXfXfXaXaXjXgXa.g.i r .   ; f KXUXUXUXUXUXUXUXUXUXUXUXUXUXUXUX",
"UXIXUXUXUXUXUXUXUXUXUXUXUXNXM , $ O d u 4.6.0X8XaXhXsXsXsXsX,XdXdXdXdXsXsXdX8X9X6.6.i f X   C r UXUXUXUXUXUXUXUXUXUXUXUXUXUXUXUXUXUXUXUXUXUXUXUXGXUXUXUXKXGXo . <X X) ~ p > L L sXsXmXSXbXAXAXAXAXmXAXIXaXaXL ; a ; ) ] <X<X@   UXUXUXUXUXUXUXUXUXUXUXUXUXUXUXUXUXUXUXUXUXUXUXUXUXUXUXUXUXNXM , O O d u 4.4.7X8XaXsXsXsXsXsX8XdXdXgXdXsXsXaX8X9X6.2.i f X   C r KXUXUXUXUXUXUXUXUXUXUXUXUXUXUXUXUXUXUXUXUXUXUXUXGXUXUXUXKXGX  . <X X) ~ G > L L hXsXAXSXmXMXDXMXAXMXAXIXsXsXL > p r ! g.-X<X@   UXUXUXUXUXUXUXUXUXUXUXUXUXUXUXUX",
"UXUXUXUXUXUXUXUXUXGXUXKXUXUX< u + . d r 5.f.gXdXaXsXsXsXsXaXsXdXdXgXsXaXsXaXdXgXg.6.7 u + + r r UXUXUXUXUXUXUXUXUXUXUXUXUXUXUXUXUXUXUXUXUXUXUXUXUXUXKXUXUXGX$ + .X.X) ] > K J J aXdXSXAXNXDXmXmXAXAXAXMXaXhXG L d p _ ) <X<X.   UXUXUXUXUXUXUXUXUXUXUXUXUXUXUXUXIXUXUXUXUXUXUXUXUXGXUXKXUXUX1 p + + d u 3.&XgXdXaXsXsXsXsXaXsXdX8XdXsXaXsXaXdXdXg.a.7 u . + r r UXUXUXUXUXUXUXUXUXUXUXUXUXUXUXUXUXUXUXUXUXUXUXUXUXUXHXUXUXGXO + 1X.X) ] > L J p aXaXSXSXNXAXAXAXmXAXMXmXaXsX> L d : _ ) <X<X. X UXUXUXUXUXUXUXUXUXUXUXUXUXUXUXUX",
"UXUXUXUXUXUXUXUXUXUXUXUXUXUX  . 3X|.) ^ i y L J pXaXAXAXMXMXMXAXnXSXmXAXaXhXG J r y ( Z <X X. O UXUXUXUXUXUXUXUXUXUXUXUXUXUXUXUXKXUXUXUXUXUXUXUXUXGXUXUXLXUX  @  X.Xy L ~ _ ) ( ) ) _ ] 1 , L J L > _ _ ~ _ ] ^ ^ _ p y  X3X  o UXUXUXUXUXUXUXUXUXUXUXUXUXUXUXUXUXUXUXUXUXUXUXUXUXUXUXUXUXUXo . +X X( ) t s L J pXaXAXAXMXMXMXAXBXSXMXAXaXsXJ L w a ( / +X.X. O UXUXUXUXUXUXUXUXUXUXUXUXUXUXUXUXUXUXUXUXUXUXUXUXUXGXUXUXGXUX  +  X2X; H ~ _ ^ ) ~ ` U ] K > M < L > ` ` ^ ^ ] ) _ _ < r  X5X    UXUXUXUXUXUXUXUXUXUXUXUXUXUXUXUX",
"UXUXUXUXUXUXUXUXUXUXUXUXKXUX  . |.@X) _ u ; J J dXdXmXSXMXMXLXNXAXkXAXLXaXaXY w : 9 ^ $.@X3X  o IXUXUXUXUXUXUXUXUXUXUXUXUXUXUXUXUXUXUXKXUXUXUXUXUXPXUXUXUXGX$ .  X3Xa r ) ( A ( Z ( ) ^ 9 u ; L p f _ ] ) ) ( ) ! g.s t  X[.  $ UXUXUXUXUXUXUXUXUXUXUXUXUXUXUXUXUXUXUXUXUXUXUXUXUXUXUXUXKXUX  . |..X) _ u ; G J dXpXmXSXMXMXDXmXSXkXAXAXaXaXY w < r ^ Z @X3X  o UXUXUXUXUXUXUXUXUXUXUXUXUXUXUXUXUXUXUXUXUXUXUXUXUXGXUXUXUXGX$ .  X5Xd , ( ( A ( D ^ s.U s t = u ; K ^ ) ` ( ] 3.C { r u <X[.X O IXUXUXUXUXUXUXUXUXUXUXUXUXUXUXUX",
"UXUXUXUXUXUXUXUXGXUXUXUXUXUX  @ OX Xd L _ ] ) ` _ ] ) ^ M , > K H H _ _ ] ] Y ] ` ` u 0 |.|.  % UXUXUXUXUXUXUXUXUXUXUXUXUXUXUXUXKXUXKXUXUXUXUXUXUXUXUXHXUXUXAXUXX X , d  X<Xs.) ;X;Xt f 3X X4X4X<X;XK G :X:X) ( 4X-X; f . $ KXGXUXUXUXUXUXUXUXUXUXUXUXUXUXUXUXUXUXUXUXUXUXUXUXUXKXUXUXUXUXUX  @ 3X Xs G _ ] _ ` _ s.3.^ d : , K 1 H _ ] _ ] Y ] ) ` x 0 |. X. % UXUXUXUXUXUXUXUXUXUXUXUXUXUXUXUXUXUXUXUXUXUXUXUXUXUXUXKXUXUXNXUX. + ; f 1X1X5.A ;X2Xa I 7X<X4X4X<X<Xd K =X:XU 3.3X X; K @ @ KXVXUXUXUXUXUXUXUXUXUXUXUXUXUXUXUXUX",
"UXUXUXUXUXUXUXUXUXUXGXUXUXGXO . -X4XJ G _ N ` ` ) / Z Z 0 = f ; p < _ _ Y ) ] ) A A 9 u 3X<X  o UXUXUXUXUXUXUXUXUXUXUXUXUXUXUXUXUXUXUXUXKXUXUXUXUXUXUXUXUXGXUXIXo O , i .X.X3.^ >X;Xr 8 .X@X4X2XOX4X, G >X>X( B 5X;XM K X X KXKXUXUXUXUXUXUXUXUXUXUXUXUXUXUXUXUXUXUXUXUXUXUXUXUXUXUXGXUXUXGXO . -X4XK G ) N ` ( ^ / Z / 0 = f r d > _ _ ) ) ] ) A A : 7 <X<X  % UXUXUXUXUXUXUXUXUXUXUXUXUXUXUXUXUXUXUXUXUXUXUXUXUXUXUXUXUXGXUXUX  . u f 7X1X#.A ;X;Xp p 1X3X3X3X3X5Xr 1 aX>X] Z 3XOXK Y . . UXKXUXUXUXUXUXUXUXUXUXUXUXUXUXUXUXUX",
"UXUXUXUXUXUXUXUXGXUXUXUXUXUXGXUX. + G d 2X2X) ! 4X4Xy i 4X5X1X<X4X>Xd d ,X:X( ( OX2X: d # + UXIXUXUXUXUXUXUXUXUXUXUXUXUXUXUXUXUXUXUXUXUXUXUXUXUXUXUXDXUXUXUXUXDXUXPX$ . OX+X<X4XVXNXX + wXwXwXiXwXiX.   NXNX;XOX[.9X. o IXVXUXUXUXUXUXUXUXUXUXUXUXUXUXUXUXUXUXUXUXUXUXUXUXUXUXUXGXUXUXUXUXUXGXUX+ . G K 2X2XD ~ 4X4Xy i 2X5X1X<X4X:Xd K >X:X) S OX5X; d + + UXIXUXUXUXUXUXUXUXUXUXUXUXUXUXUXUXUXUXUXUXUXUXUXUXUXUXUXGXUXUXUXUXAXUXIX+ + 2X3X X2XvXNX@ # wXwXwXrXwXyX+ o AXvX<X+X}.5XO % PXPXUXUXUXUXUXUXUXUXUXUXUXUXUXUXUXUXUXUX",
"UXUXUXUXUXUXUXUXUXUXKXUXUXGXUXGX% % H r +XoXA A <X4X7 r <X X6X3X1X5Xa p :X:X( #.OX[.M < o . PXUXUXUXUXUXUXUXUXUXUXUXUXUXUXUXUXUXUXUXUXUXUXUXUXUXGXLXUXUXGXIXUXGXLXUX  + 2X5X<X2XvXNX  + wXyXyXyXxXlX# . BXBXOX+X5X9X$ % IXKXKXKXUXUXUXUXUXUXUXUXUXUXUXUXUXUXUXUXUXUXUXUXUXUXUXUXUXUXKXUXUXHXUXGX% % p r OXOXA ( ;X;X7 u <X<X6X3X1X5Xu p >X:X) V OX[.d >   . UXUXUXUXUXUXUXUXUXUXUXUXUXUXUXUXUXUXUXUXUXUXUXUXUXUXKXUXUXUXUXKXUXDXFXIX. + ;X5XoXOXNXNX. + rXwXrXiXxXxX# . NXcX.X@X+X;X% % PXUXPXPXUXUXUXUXUXUXUXUXUXUXUXUXUXUXUXUX",
"UXUXUXUXUXUXUXUXUXUXUXUXUXKXUXUXUXLX+ & +XoX5X XvXvX@ . iXyXwXyXyXwX+ . mXGX;X3X+X5X. % UXIXKXKXUXUXUXUXUXUXUXUXUXUXUXUXUXUXUXUXUXUXUXUXUXUXUXUXUXUXIXJXUXUXIXUXKXPXKXKX+ # OX3XxXtXzXkXyXxXiXwX0XyXrXeXxXtX+X X# + SXUXUXUXUXKXUXUXUXUXUXUXUXUXUXUXUXUXUXUXUXUXUXUXUXUXUXUXUXUXUXUXUXUXUXLXUXUXUXLX. & +XoX+XOXcXcX@ + xXiXwXyXyXyX# . mXGX<X3XOX5X. % UXIXGXKXUXUXUXUXUXUXUXUXUXUXUXUXUXUXUXUXUXUXUXUXUXUXUXUXUXUXGXGXUXUXUXIXJXJXUXUXX   OXOXzXuXeXeXwXiXiXtXtXtXuXuXxXwX3X X+ . DXIXUXUXUXPXUXUXUXUXUXUXUXUXUXUXUXUXUXUXUXUX",
"UXUXUXUXUXUXUXUXUXUXKXUXUXUXGXUXHXUX. # OX+XOX2XcXcX@ + iXrXyXyXyXwX# . BXBX<X XOX-X. o FXIXKXUXUXUXUXUXUXUXUXUXUXUXUXUXUXUXUXUXUXUXUXUXUXUXUXIXIXUXIXGXUXGXUXUXUXUXJXJX. + 2X.XyXiXyXxXtXxXrXiXlXyXiXrXwXiX X5X# + ZXHXPXPXUXLXUXUXUXUXUXUXUXUXUXUXUXUXUXUXUXUXUXUXUXUXUXUXUXUXUXUXKXIXUXUXGXUXHXUX. # 3X+X X2XcXBX@ . iXrXyXyXiXwX# + NXnX2X XOXOXO o FXIXKXUXUXUXUXUXUXUXUXUXUXUXUXUXUXUXUXUXUXUXUXUXUXUXUXUXKXUXUXGXUXGXUXKXJXIXLXLXO X OXOXiXeXeXeXwXiXwXxXuXuXxXrXrXiX X5X+   IXIXUXKXUXPXUXUXUXUXUXUXUXUXUXUXUXUXUXUXUXUX",
"UXUXUXUXUXUXUXUXUXUXUXUXUXUXUXUXZXZXHXHX# # 2X2XzXkXtXrXrXrXxXlXiXeXrXwXxXyX5X<X@ + GXIXJXIXKXUXUXUXUXUXUXUXUXUXUXUXUXUXUXUXUXUXUXUXUXUXUXUXUXUXUXIXUXUXHXUXUXUXUXIX% X X . S #.+X+XxXyXiXwX+X+XiXyXxXuXOX3XB 1..   ZXZXKXPXUXDXUXUXUXUXUXUXUXUXUXUXUXUXUXUXUXUXUXUXUXUXUXUXUXUXUXUXUXUXUXUXUXUXCXZXZXHX+ # OX2XkXkXiXrXrXrXxXlXiXeXrXwXxXlX4X4X. @ GXIXJXJXUXUXUXUXUXUXUXUXUXUXUXUXUXUXUXUXUXUXUXUXUXUXUXUXUXUXUXUXUXUXUXUXUXUXZXKXUXLXo . Z #.@X@XrXeXiXyX6XoXrXrXeXrX4X4X^ (       o IXKXIXKXUXUXUXUXUXUXUXUXUXUXUXUXUXUXUXUX",
"UXUXUXUXUXUXUXUXUXUXUXUXUXUXUXKXCXZXHXUXO . 4X2XxXuXiXiXeXiXiXxXtXiXrXwXyX0X1X5X+ o UXIXVXZXNXUXUXUXUXUXUXUXUXUXUXUXUXUXUXUXUXUXUXUXUXUXUXUXIXUXUXUXGXUXUXKXUXLXUXIX% o X $ V V |.6XwXlXiXwX+XoXwXwXzXzX4XOX$.B @ X ZXCXHXUXFXIXUXUXUXUXUXUXUXUXUXUXUXUXUXUXUXUXUXUXUXUXUXUXUXUXUXUXUXUXUXUXUXKXCXCXHXKXO . 4X5XiXtXiXiXrXiXuXyXrXiXrXwXyX0X1X5X+ X UXDXDXZXNXKXUXUXUXUXUXUXUXUXUXUXUXUXUXUXUXUXUXUXUXUXUXUXUXUXUXUXUXUXUXUXUXUXUXUXPXUX  . $.O.@X3XwXuXxXyX3X|.wXrXeXiX4X<X( C . . o . ZXZXZXUXUXUXUXUXUXUXUXUXUXUXUXUXUXUXUXUX",
"UXUXUXUXUXUXUXUXUXUXUXUXUXUXUXIXVXVXUXLXo   / #.<X3XtXrXiXrXoX3XrXrXeXiX1X6XB S . o IXIXJXCXKXPXUXUXUXUXUXUXUXUXUXUXUXUXUXUXUXUXUXUXUXUXUXIXUXUXIXUXUXUXUXGXUXPX^ _ R G c = p.{.B 3.p r 4XOX.X@XoX2X: d _ ( ~.^.  O IXIXKXUXFXIXUXUXUXUXUXUXUXUXUXUXUXUXUXUXUXUXUXUXUXUXUXUXUXUXUXUXUXUXUXUXUXIXJXJXUXIX% o / Z  X5XrXtXiXiX X3XeXrXiXiX1X6XO.S . o IXUXJXZXUXKXUXUXUXUXUXUXUXUXUXUXUXUXUXUXUXUXUXUXUXUXUXUXUXUXUXUXUXUXUXUXUXUXIXIXPXPX  . ^.`.O.z s r ;X;X.X@X.X<XM p 3.1.{.}.x c , G ) N KXSXUXUXUXUXUXUXUXUXUXUXUXUXUXUXUXUX",
"UXUXUXUXUXUXUXUXUXUXUXUXUXUXUXUXIXIXUXFX%   1.#.3X3XtXxXiXrX+X+XiXeXiXiX1X1XX.V . o UXUXKXZXUXKXUXUXUXUXUXUXUXUXUXUXUXUXUXUXUXUXUXUXUXUXUXUXUXIXIXUXKXHXPXUXHXHXl i G ' : D !.`.2.3.J p >X;X3X XOX;Xd d ^ D ~.].+ o IXVXDXIXJXIXIXUXUXUXUXUXUXUXUXUXUXUXUXUXUXUXUXUXUXUXUXUXUXUXUXUXUXUXUXUXUXUXIXIXIXFX%   ( +.3X2XxXiXeXrX3X+XiXrXuXyX1X3XX.V . o KXUXKXKXKXKXUXUXUXUXUXUXUXUXUXUXUXUXUXUXUXUXUXUXUXUXUXUXUXUXUXUXUXUXUXUXUXUXUXIXUXKX  . {.].$./ P p >X;X2X.X3X4XK G ,. .`.(.x , ' ~ f Z SXPXUXUXUXUXUXUXUXUXUXUXUXUXUXUXUXUX",
"UXUXUXUXUXUXUXUXUXUXUXUXUXUXUXUXIXIX% $ G c ^.l.| Z r u ;X5X+X.X X2X; r 5.$.!.].m u % % UXKXKXKXUXUXUXUXUXUXUXUXUXUXUXUXUXUXUXUXUXUXUXUXIXUXIXUXLXIXUXUXKXSX_ C oX6Xp H M 5 (.`. .;.8XdX> , d a < p 8X0X~.~.b u K K 1 c CXVXIXUXUXUXUXUXUXUXUXUXUXUXUXUXUXUXUXUXUXUXUXUXUXUXUXUXUXUXUXUXUXUXUXUXIXIXo $ G u `.{.+.U r u ;X5XoX+X X5X; r 1.#.^.^.N < % % KXKXKXUXUXUXUXUXUXUXUXUXUXUXUXUXUXUXUXUXUXUXUXUXUXUXUXUXUXUXUXUXUXUXUXUXIXFX1 x u N m 6 ].].4X,Xd < 9 9 y d dXdX4. .)._.x c G , 5X1X/ ) UXUXUXUXUXUXUXUXUXUXUXUXUXUXUXUX",
"UXUXUXUXUXUXUXUXUXUXUXUXUXUXUXUXUXGX  O , x '.(.+.,.d K ;X2X2X+X5X4XJ J / | '.W.= M % % PXUXHXUXUXUXUXUXUXUXUXUXUXUXUXUXUXUXUXUXUXUXUXUXUXUXUXUXUXHXUXKXHXPX^ C +XoXi d M = }.`.*.d.0X9XG G , 1 H G 7X6X!.^.b 1 L P u u vXCXPXPXUXUXUXUXUXUXUXUXUXUXUXUXUXUXUXUXUXUXUXUXUXUXUXUXUXUXUXUXUXUXUXUXUXAX  o , b {.`.+.,.d Q :X<XOXOX3X;XK K U O.`.!.= Q % % UXKXHXUXUXUXUXUXUXUXUXUXUXUXUXUXUXUXUXUXUXUXUXUXUXUXUXUXUXUXUXUXUXUXUXUXIXUXN = N u , m ^.}.7XgXL H ; : > s 8X9X:. .o.'.x v K i 5X1Xz I PXUXUXUXUXUXUXUXUXUXUXUXUXUXUXUX",
"UXUXUXUXUXUXUXUXUXUXUXUXUXUXUXUX^ 5.1 v c m W.`.-.+.8XpXG ; N = = < ,X8X4.+.).W.x c c L ! ! UXPXUXUXUXUXUXUXUXUXUXUXUXUXUXUXUXUXUXUXIXUXUXUXUXUXUXUXUXPXHXPXI ^ <X1X3X5XX X X # *. .%.#.>XaX~ 1 ,X,Xr.*...X.: Q ;X4XC S ZXCXPXUXUXUXUXUXUXUXUXUXUXUXUXUXUXUXUXUXUXUXUXUXUXUXUXUXUXUXUXUXUXUXUXUX^ 5.v v c b o.).&.+.8XpXH ; N = r < ,X8X4.+.Q.Q.b c G L P ^ PXLXUXUXUXUXUXUXUXUXUXUXUXUXUXUXUXUXUXUXUXUXUXUXUXUXUXUXUXUXUXUXUXUXUXPXN A ;X;XM c V X.:.:.dX,XR v pX8X2.%.q. .* . X X 5X3X+X3X#./ KXUXUXUXUXUXUXUXUXUXUXUXUXUXUXUX",
"UXUXUXUXUXUXUXUXUXUXUXUXUXUXUXHX/ z i m c x ^.`...%.7XdXJ > < > 1 d dXgX:.&.`.~.x c M M ^ / SXPXUXUXUXUXUXUXUXUXUXUXUXUXUXUXUXUXUXUXUXUXUXUXUXUXUXUXPXHXUXPX~ ^ 1X5X1X<XX X X . | -. .+.8XpXG T pXfX;.8. .$.m c 4X5Xh z ZXKXPXUXUXUXUXUXUXUXUXUXUXUXUXUXUXUXUXUXUXUXUXUXUXUXUXUXUXUXUXUXUXUXUXPXZ Z i m c m ^.`...%.7XfXJ 1 1 , , J 8XgX .&.`.~.x c M P ^ ^ SXPXUXUXUXUXUXUXUXUXUXUXUXUXUXUXUXUXUXUXUXUXUXUXUXUXUXUXUXUXUXUXUXUXPXPX^ A 2X;Xm m Z O.7.>.8XpXG R ,X8X+.%.:.:.#   X @ 1X.X3X XZ C UXUXUXUXUXUXUXUXUXUXUXUXUXUXUXUX",
"UXUXUXUXIXUXUXUXUXUXPXHXUXPX^ ^ yXxX<X4Xm c D V %.*.:.r.8X,XQ G aXpX;.q. .%.@.D m u 4X2XrXyXU U UXUXUXUXUXUXUXUXUXUXUXUXUXUXUXUXUXUXUXUXUXUXUXUXUXUXUXUXUXUXUXUXZ / z ^ KXDXX . O.| 8.<.9XpXG L ,XdX5.r.;.C . . zXlXlXlXU ) GXUXIXUXUXUXUXUXUXUXUXUXUXUXUXUXUXUXUXUXUXUXUXUXUXUXUXUXKXPXUXPX_ I lXiX4X4X: x D V &. . .r.9X,XL G aX,X:.:.:. .@.V m u 2X2XrXlXU U UXUXUXUXUXUXUXUXUXUXUXUXUXUXUXUXUXUXUXUXUXUXUXUXUXUXUXUXUXUXUXKXU #.yXtXzXuX  + Z z :.d.9X,XT c >X9X;.%.| ,.. X IXUXz Z z C ZXKXUXUXUXUXUXUXUXUXUXUXUXUXUXUXUXUX",
"UXUXUXUXUXUXUXUXUXUXUXPXHXPX! ^ tXiX5X<Xm u A ( %. . .7.7X>XH E aX8Xt. .-.%.( _ u = 2XOXrXiX3./ PXUXUXUXUXUXUXUXUXUXUXUXUXUXUXUXUXUXUXUXUXUXUXUXUXUXUXUXUXUXUXKX^ ) I ) VXDXX   #.z ,.5.>X>X~ K 8X9X) 3./ C @   zXyXlXgX;.l KXJXUXUXUXUXUXUXUXUXUXUXUXUXUXUXUXUXUXUXUXUXUXUXUXIXUXUXUXPXHXPX! ^ iXtX7X1Xm u ~ 1.:.q.*.:.7X,XG ' aX,Xd. .-.%.S _ d 7 2XOXrXiX3./ UXUXUXUXUXUXUXUXUXUXUXUXUXUXUXUXUXUXUXUXUXUXUXUXUXUXUXUXUXUXUXPX| | lXlXzXzX  + I ,.s.U gX>XT Q qX8Xa.5.;.l .   IXKX^ / / C UXIXUXUXUXUXUXUXUXUXUXUXUXUXUXUXUXUX",
"UXUXUXUXUXUXUXUXUXIXUXUXHXUX! ^ xXiX0XlX# .   + z  .:.r.0XjXG H aXdXr.:. .| . X $ + iXiXrXiXl / UXUXUXUXUXUXUXUXUXUXUXUXUXUXUXUXUXUXUXUXUXUXUXUXUXUXUXUXUXUXUXUXHXHXHXPX@ X ~ 1   .   .       o . + # & a N . . zXxXyXlX/ ^ KXJXUXUXUXUXUXUXUXUXUXUXUXUXUXUXUXUXUXUXUXUXUXIXUXUXUXHXPXUXHXPX^ ^ xXiXyXlX+ . X + | | :.<.9XjX, R aXfX7. . .#.+   O @ xXiXrXiXl / PXUXUXUXUXUXUXUXUXUXUXUXUXUXUXUXUXUXUXUXUXUXUXUXUXUXUXUXUXUXUXKXZ / yXkXzXzX. # f i + + +     o O . $ O . O , T     UXBXKXKXNXJXUXUXUXUXUXUXUXUXUXUXUXUXUXUXUXUX",
"UXUXUXUXUXIXUXIXLXGXUXKXPXHX_ ! tXyXlXcX+ . O   U ;.;.3.>X,XR H pX8X4.7.z l O % % + kXxXuXtX5.f KXUXUXUXUXUXUXUXUXUXUXUXUXUXUXUXUXUXUXUXUXUXUXUXUXUXUXUXUXUXUXUXPXKXKXUX    H F % % % % o o     o $ . + ! d     zXkXcXlXl ^ ZXUXUXUXUXUXUXUXUXUXUXUXUXUXUXUXUXUXUXUXUXUXUXUXUXIXKXGXUXUXPXHX_ N uXtXyXlX+ X O . / ;.;.4.8X>XT H pX8X4.r.z l o o % . tXxXiXtX( f UXUXUXUXUXUXUXUXUXUXUXUXUXUXUXUXUXUXUXUXUXUXUXUXUXUXUXUXUXUXUXUX) N cXlXzXzX+ . d Q         . o o % % % % % R T     PXUXUXUXKXKXUXUXUXUXUXUXUXUXUXUXUXUXUXUXUXUX",
"UXUXUXUXUXUXUXUXUXUXUXGXKXPXHXHXZ Z | l @ o [ [ @ @ & @ X $ o % % @ + + + . ` { % @ U / h Z CXKXUXUXUXUXUXUXUXUXUXUXUXUXUXUXUXUXUXUXUXUXUXUXUXUXUXUXUXUXUXUXUXUXUXPXPXUXo % [ $X$X$X$X$X[ [ v v 1 1 T T     KXKXd ^ ^ ) PXHXUXKXUXUXUXUXUXUXUXUXUXUXUXUXUXUXUXUXUXUXUXUXUXIXUXUXUXUXKXGXKXPXHXHXC Z ;.l @ o [ ' @ + & + . O o % % $ @ X + . ' { % @ U / j Z HXKXUXUXUXUXUXUXUXUXUXUXUXUXUXUXUXUXUXUXUXUXUXUXUXUXUXUXUXUXUXUXUXUXCXKXN ^ ) ) HXKXo X T , c T ; Q [ $X#XW #XW W [ O o PXPXPXPXKXVXUXUXUXUXUXUXUXUXUXUXUXUXUXUXUXUX",
"UXUXUXUXUXUXIXUXIXUXUXUXUXHXUXKXC Z / ^ o % [ [ o o @ X X X o o % % X X   X ' ' % O I / / ) HXGXUXUXUXUXUXUXUXUXUXUXUXUXUXUXUXUXUXUXUXUXUXUXUXUXUXUXUXUXUXUXUXUXUXUXPXPX% % [ $X$X#X#X$XW [ v M Q v ~ c X X KXKX_ N / ) BXPXUXKXUXUXUXUXUXUXUXUXUXUXUXUXUXUXUXUXUXUXUXUXUXUXUXIXIXUXUXUXUXHXUXKXZ Z / ^ o o [ [ o X o O     O % % O X X X   ` [ % O ^ / / ( HXGXUXUXUXUXUXUXUXUXUXUXUXUXUXUXUXUXUXUXUXUXUXUXUXUXUXUXUXUXUXUXUXUXJXKXQ ^ ^ l PXHX  X c R , T K K [ ' $X#X#X#XW [ X $ PXPXPXPXUXKXUXUXUXUXUXUXUXUXUXUXUXUXUXUXUXUX",
"UXUXUXUXUXUXIXUXIXUXGXUXUXPXUXHXZXCXKXUXO O R R H H E W W E ~ R W #XE [ c c Q H o O KXKXCXVXUXUXUXUXUXUXUXUXUXUXUXUXUXUXUXUXUXUXUXUXUXUXUXUXUXUXUXUXUXUXUXUXUXUXIXGXUXPX% % G R $X$X$X$X% %     o   X X FXIXKXKXKXKXHXHXKXUXHXPXUXUXUXUXUXUXUXUXUXUXUXUXUXUXUXUXUXUXUXUXUXUXIXUXIXUXGXUXUXUXUXHXCXCXZXUX$ O R R v T ` W W [ ~ F W #XE ` c : ~ H o O KXZXKXNXUXUXUXUXUXUXUXUXUXUXUXUXUXUXUXUXUXUXUXUXUXUXUXUXUXUXUXUXUXUXUXUXUXUXIXKXKXPXPXUXPXUXIXJXX X X     O % % $X$X$X[ R Q o o PXUXUXIXKXKXKXUXUXUXUXUXUXUXUXUXUXUXUXUXUXUX",
"UXUXUXUXUXUXUXIXIXUXUXUXKXUXUXKXKXKXKXFXX O , L f K ` W W W c R #XW W ~ M u f f   X JXDXIXUXPXPXUXUXUXUXUXUXUXUXUXUXUXUXUXUXUXUXUXUXUXUXUXUXUXUXUXUXUXUXUXUXUXUXIXIXGXUX% % Y G $XE #X[ o   .   o   O X DXDXUXUXUXHXUXKXUXUXUXPXUXUXUXUXUXUXUXUXUXUXUXUXUXUXUXUXUXUXUXUXUXIXUXUXUXUXUXUXGXUXUXUXKXZXIXFXX O > Q M v ` E W W G R #X#X[ E M u f f   X JXDXIXUXPXPXUXUXUXUXUXUXUXUXUXUXUXUXUXUXUXUXUXUXUXUXUXUXUXUXUXUXUXUXUXUXUXUXKXUXPXUXKXPXUXHXIXUXX   X     o % % %X' $X[ Q H   o IXDXIXDXIXIXUXUXUXUXUXUXUXUXUXUXUXUXUXUXUXUX",
"UXUXUXUXUXUXUXUXUXUXUXIXUXUXIXUXIXIXIXUX. & 4.:.:.4.#   X O % % $ % o . 3.4.r.4.+ X IXVXUXUXPXUXUXUXUXUXUXUXUXUXUXUXUXUXUXUXUXUXUXUXUXUXUXUXUXUXUXUXUXUXUXUXUXUXDXDXIXUXUXUX% o Q T , T v c UXUXPXUXIXFXIXIXUXUXPXUXUXIXIXIXUXUXUXUXUXUXUXUXUXUXUXUXUXUXUXUXUXUXUXUXUXUXUXUXUXUXIXIXUXUXUXUXUXIXUXDXUXUX+ & 4.:.4.4.@ o X O o % % % o o 3.4.r.4.@   IXVXKXUXPXUXUXUXUXUXUXUXUXUXUXUXUXUXUXUXUXUXUXUXUXUXUXUXUXUXUXUXUXUXUXUXUXUXUXUXUXUXUXUXUXUXUXUXUXUXUXUXUXUXH F R , T v o o IXIXIXIXIXIXUXUXUXUXUXUXUXUXUXUXUXUXUXUXUXUXUXUX",
"UXUXUXUXUXUXUXUXUXIXUXIXUXUXUXIXFXIXUXUX+ & 4.r.r.4.#     o % % % $   . 5.4.:.3.+ $ VXIXKXPXUXUXUXUXUXUXUXUXUXUXUXUXUXUXUXUXUXUXUXUXUXUXUXUXUXUXUXUXUXUXUXUXUXIXDXDXUXPXIXUX    f f ! ; T R SXPXPXUXUXIXIXUXUXPXUXPXUXIXIXUXUXUXUXUXUXUXUXUXUXUXUXUXUXUXUXUXUXUXUXUXUXUXUXUXUXUXUXUXUXIXIXUXIXUXFXIXIXUX+ & 4.r.r.4.#   o o % % % $   . 5.4.r.3.+ $ VXIXKXPXPXUXUXUXUXUXUXUXUXUXUXUXUXUXUXUXUXUXUXUXUXUXUXUXUXUXUXUXUXUXUXUXUXUXUXUXUXUXUXUXUXUXUXUXUXUXUXUXUXUXT H ! u f d . o IXIXIXJXKXIXUXUXUXUXUXUXUXUXUXUXUXUXUXUXUXUXUXUX",
"UXUXUXUXUXUXUXUXUXUXIXUXIXUXUXIXIXLXPXUXHXZX. . . + ZXHXUXUXSXPXIXUXKXUX. + @ @ UXAXUXUXHXKXKXJXUXUXUXUXUXUXUXUXUXUXUXUXUXUXUXUXUXUXUXUXUXUXUXUXUXUXUXUXUXUXUXIXVXKXPXPXUXUX  # <.;.<.5.X   PXPXPXUXUXUXIXUXUXPXPXUXUXIXFXUXUXUXUXUXUXUXUXUXUXUXUXUXUXUXUXUXUXUXUXUXUXUXUXUXUXUXUXUXUXUXUXUXUXUXUXLXUXUXHXKX. . . + KXHXUXUXSXPXPXPXKXKX. + # + UXAXUXUXJXKXIXKXUXUXUXUXUXUXUXUXUXUXUXUXUXUXUXUXUXUXUXUXUXUXUXUXUXUXUXUXUXUXUXUXUXUXUXUXUXUXPXUXUXUXUXUXUXUXUXPX+ # ,.<.7.4.# . UXUXKXKXZXKXUXUXUXUXUXUXUXUXUXUXUXUXUXUXUXUXUXUX",
"UXKXUXIXUXUXUXUXUXUXUXUXUXUXUXUXUXUXUXUXUXCXX X X X KXHXUXPXPXPXKXUXKXGX    o o UXIXLXUXUXKXZXZXUXUXUXUXUXUXUXUXUXUXUXUXUXUXUXUXUXUXUXUXUXUXUXUXUXUXUXUXUXUXUXUXUXKXHXPXUXGXX + <.7.7.,.+   PXPXPXPXUXUXUXUXPXUXUXUXIXIXIXIXUXUXUXUXUXUXUXUXUXUXUXUXUXUXUXUXUXUXUXKXUXUXUXUXUXUXUXUXIXUXIXUXUXIXIXUXPXUXKXCXX X X X KXHXPXPXPXPXPXKXKXKX    o o UXUXFXUXUXKXZXZXUXUXUXUXUXUXUXUXUXUXUXUXUXUXUXUXUXUXUXUXUXUXUXUXUXUXUXUXUXUXUXUXUXUXUXUXPXUXUXUXUXIXIXUXUXUXUXPX. & <.<.7.4.& @ UXUXKXKXKXKXUXIXUXUXUXUXUXUXUXUXUXUXUXUXUXUXUXUX",
"UXUXUXKXUXUXUXUXUXUXUXUXUXUXUXIXIXIXAXUXHXKXZXJXJXKXKXKXKXUXUXIXUXKXJXKXUXUXUXUXDXFXIXUXPXHXZXKXUXUXUXUXUXUXUXUXUXUXUXUXUXUXUXUXUXUXUXUXUXUXUXUXUXUXUXUXUXUXUXUXVXIXUXUXUXIXVXZX+ # # + KXUXUXUXUXUXUXUXUXUXPXPXUXUXUXIXIXIXUXUXUXUXUXUXUXUXUXUXUXUXUXUXUXUXUXUXUXKXUXUXUXUXUXUXUXUXUXUXUXUXUXUXIXIXGXUXHXKXKXZXJXKXKXPXKXUXUXUXKXKXJXIXUXUXUXUXDXFXUXPXUXBXZXKXUXUXUXUXUXUXUXUXUXUXUXUXUXUXUXUXUXUXUXUXUXUXUXUXUXUXUXUXUXUXUXUXIXUXUXUXUXPXUXUXUXUXIXIXUXUXUXUXIXCX# # # & BXUXIXIXIXJXKXIXUXUXUXUXUXUXUXUXUXUXUXUXUXUXUXUXUXUX",
"UXUXUXUXKXUXUXUXUXUXUXUXUXUXUXUXIXIXUXKXKXUXJXIXIXIXUXPXHXUXNXIXJXIXVXIXGXUXUXGXFXIXLXPXPXPXKXHXKXUXUXUXUXUXUXUXUXUXUXUXUXUXUXUXUXUXUXUXUXUXUXUXUXUXUXUXUXUXUXUXIXIXFXIXIXJXHXCX    .   IXUXGXUXUXUXUXUXUXUXUXUXUXUXUXIXUXUXUXUXUXUXUXUXUXUXUXUXUXUXUXUXUXUXUXUXUXUXKXUXUXUXUXUXUXUXUXUXUXUXUXUXIXIXUXKXKXPXHXIXJXIXUXPXHXUXVXDXIXIXVXIXGXUXUXLXFXFXIXPXPXPXKXHXKXUXUXUXUXUXUXUXUXUXUXUXUXUXUXUXUXUXUXUXUXUXUXUXUXUXUXUXUXUXUXUXUXIXUXUXPXUXUXUXUXUXUXUXUXUXUXUXJXIXX   . . UXIXJXIXUXUXUXUXIXUXUXUXUXUXUXUXUXUXUXUXUXUXUXUXUXUX",
"UXKXUXKXUXUXUXUXUXUXUXUXUXUXUXUXUXGXUXUXUXUXUXLXUXLXUXUXUXKXJXJXIXUXUXPXUXKXKXKXKXUXUXPXPXPXIXIXUXUXUXUXUXUXUXUXUXUXUXUXUXUXUXUXUXUXUXUXUXUXUXUXUXUXUXUXUXUXUXUXUXUXUXUXKXDXIXUXUXUXSXPXUXGXKXVXIXUXUXUXUXUXUXUXUXUXUXIXUXUXUXUXUXUXUXUXUXUXUXUXUXUXUXUXUXUXUXUXUXUXKXUXKXUXUXUXUXUXUXUXUXUXUXUXUXGXUXUXUXUXUXLXUXLXUXUXPXKXJXJXIXUXUXPXUXKXKXKXUXUXPXPXPXPXIXIXUXUXUXUXUXUXUXUXUXUXUXUXUXUXUXUXUXUXUXUXUXUXUXUXUXUXUXUXUXUXUXUXUXUXUXUXUXUXUXUXUXUXUXUXUXUXUXUXIXIXUXPXPXUXGXKXUXUXUXPXUXUXIXIXUXUXUXUXUXUXUXUXUXUXUXUXUXUXUXUX",
"UXUXUXUXUXUXUXUXUXUXUXUXUXUXUXUXUXUXUXHXPXUXLXUXUXUXUXLXIXKXVXIXIXIXUXUXKXKXKXKXKXUXSXUXPXUXIXFXUXUXUXUXUXUXUXUXUXUXUXUXUXUXUXUXUXUXUXUXUXUXUXUXUXUXUXUXUXUXUXUXPXPXKXKXIXIXJXIXPXPXUXPXUXUXHXUXUXUXUXUXUXUXUXUXUXIXUXIXUXUXUXUXUXUXUXUXUXUXUXUXUXUXUXUXUXUXUXUXUXUXUXUXUXUXUXUXUXUXUXUXUXUXUXUXUXUXUXLXPXUXLXUXUXUXUXGXKXUXVXJXIXKXUXUXKXKXKXKXKXUXSXUXPXUXIXFXUXUXUXUXUXUXUXUXUXUXUXUXUXUXUXUXUXUXUXUXUXUXUXUXUXUXUXUXUXUXUXUXUXUXIXUXUXUXUXIXUXUXUXUXUXUXUXUXJXUXPXPXPXLXUXIXIXUXPXPXPXUXJXIXUXUXUXUXUXUXUXUXUXUXUXUXUXUXUXUX",
"UXUXUXUXUXUXUXUXUXUXUXUXUXUXUXUXUXUXUXUXUXUXUXUXUXUXIXUXUXUXIXIXUXIXUXUXUXUXKXUXUXKXUXUXUXUXUXUXUXUXUXUXUXUXUXUXUXUXUXUXUXUXUXUXUXUXUXUXUXUXUXUXUXUXUXUXUXUXUXUXUXUXUXKXLXIXIXUXIXUXUXUXUXUXPXUXUXUXUXPXUXUXUXUXUXUXIXIXIXIXIXIXUXUXUXUXUXUXUXUXUXUXUXUXUXUXUXUXUXUXUXUXUXUXUXUXUXUXUXUXUXUXUXUXUXUXUXUXUXUXUXUXUXUXUXUXUXUXIXIXUXUXUXUXUXUXUXUXKXUXUXUXUXUXUXUXUXUXUXUXUXUXUXUXUXUXUXUXUXUXUXUXUXUXUXUXUXUXUXUXUXUXUXUXUXUXUXUXUXKXUXUXKXUXIXUXUXUXUXUXUXUXPXUXUXUXKXUXPXUXUXUXIXUXUXUXIXUXIXUXUXUXUXUXUXUXUXUXUXUXUXUXUXUXUXUX",
"UXUXUXUXUXUXUXUXUXUXUXUXUXUXUXUXUXUXUXUXUXUXUXUXUXUXUXUXUXIXUXUXUXKXUXIXUXUXUXUXUXUXUXUXUXKXUXUXUXUXUXUXUXUXUXUXUXUXUXUXUXUXUXUXUXUXUXUXUXUXUXUXUXUXUXUXUXUXUXUXUXKXUXUXUXUXUXUXIXUXUXUXPXUXUXPXUXUXUXUXUXUXUXUXUXUXUXUXUXUXUXUXUXUXUXUXUXUXUXUXUXUXUXUXUXUXUXUXUXUXUXUXUXUXUXUXUXUXUXUXUXUXUXUXUXUXUXUXUXUXUXUXUXIXUXIXIXUXUXIXUXIXUXKXUXKXUXKXUXUXUXUXUXUXKXUXUXUXUXUXUXUXUXUXUXUXUXUXUXUXUXUXUXUXUXUXUXUXUXUXUXUXUXUXUXUXUXUXUXUXKXUXUXIXUXIXUXIXUXUXKXUXUXPXUXPXUXUXUXUXUXUXUXUXUXUXUXIXIXUXUXUXUXUXUXUXUXUXUXUXUXUXUXUXUXUX",
"UXUXUXUXUXUXUXUXUXUXUXUXUXUXUXUXUXUXUXUXUXUXUXUXUXUXUXUXUXUXUXIXUXUXUXUXKXUXUXUXUXUXUXUXUXUXKXUXUXUXUXUXUXUXUXUXUXUXUXUXUXUXUXUXUXUXUXUXUXUXUXUXUXUXUXUXUXUXUXUXUXKXKXUXKXUXUXUXUXIXUXUXUXUXUXUXUXUXUXUXUXUXUXUXUXPXUXUXPXUXUXUXUXUXUXUXUXUXUXUXUXUXUXUXUXUXUXUXUXUXUXUXUXUXUXUXUXUXUXUXUXUXUXUXUXUXUXUXUXUXUXUXUXUXUXUXUXUXUXUXUXIXIXUXUXKXUXUXUXUXKXUXUXUXUXUXUXUXUXUXUXUXUXUXUXUXUXUXUXUXUXUXUXUXUXUXUXUXUXUXUXUXUXUXUXUXUXUXKXPXPXUXUXUXKXUXIXUXUXIXUXUXUXUXUXUXUXUXUXUXUXUXUXUXUXUXUXUXUXUXUXUXUXUXUXUXUXUXUXUXUXUXUXUXUXUX",
"UXUXUXUXUXUXUXUXUXUXUXUXUXUXUXUXUXUXUXUXUXUXUXUXUXIXUXIXUXIXUXUXIXUXUXKXUXUXUXKXUXUXKXUXUXUXUXUXUXUXUXUXUXUXUXUXUXUXUXUXUXUXUXUXUXUXUXUXUXUXUXUXUXUXUXUXUXUXUXUXPXUXPXUXUXUXUXUXUXUXUXKXIXKXUXIXKXIXKXKXUXUXKXUXUXUXUXUXUXUXPXPXUXUXUXUXUXUXUXUXUXUXUXUXUXUXUXUXUXUXUXUXUXUXUXUXUXUXUXUXUXUXUXUXUXUXUXUXUXUXUXUXUXIXUXUXIXUXIXUXUXUXUXUXUXUXUXUXUXUXUXUXUXUXUXUXUXUXUXUXUXUXUXUXUXUXUXUXUXUXUXUXUXUXUXUXUXUXUXUXUXUXUXUXUXUXUXUXUXPXUXUXUXUXUXUXUXUXUXIXUXIXKXIXIXKXKXUXKXUXUXUXUXPXUXUXUXPXPXUXUXUXUXUXUXUXUXUXUXUXUXUXUXUXUXUX",
"UXUXUXUXUXUXUXUXUXUXUXUXUXUXUXUXUXUXUXUXUXUXUXUXUXUXUXUXIXUXIXUXUXUXUXUXUXUXUXUXUXUXUXUXUXUXUXUXUXUXUXUXUXUXUXUXUXUXUXUXUXUXUXUXUXUXUXUXUXUXUXUXUXUXUXUXUXUXUXUXUXUXUXUXPXUXUXKXKXUXUXKXKXKXKXJXJXKXJXKXKXIXIXKXUXUXUXUXUXUXUXUXUXUXUXUXUXUXUXUXUXUXUXUXUXUXUXUXUXUXUXUXUXUXUXUXUXUXUXUXUXUXUXUXUXUXUXUXUXUXUXUXUXUXUXUXIXUXUXUXIXUXUXKXUXUXUXKXKXUXUXUXUXUXKXUXUXUXUXUXUXUXUXUXUXUXUXUXUXUXUXUXUXUXUXUXUXUXUXUXUXUXUXUXUXUXUXUXUXUXPXUXUXUXUXKXKXUXKXUXKXKXKXJXKXJXJXLXJXKXIXUXUXUXUXUXUXPXUXUXUXUXUXUXUXUXUXUXUXUXUXUXUXUXUXUX",
"UXUXUXUXUXUXUXUXUXUXUXUXUXUXUXUXUXUXUXUXUXUXUXUXUXUXUXUXUXUXUXUXUXUXUXIXUXUXUXUXKXUXUXUXUXUXUXUXUXUXUXUXUXUXUXUXUXUXUXUXUXUXUXUXUXUXUXUXUXUXUXUXUXUXUXUXUXUXUXUXUXUXUXUXUXUXUXPXUXUXKXKXKXKXKXKXJXKXIXIXIXIXUXUXUXUXUXUXUXUXUXUXUXUXUXUXUXUXUXUXUXUXUXUXUXUXUXUXUXUXUXUXUXUXUXUXUXUXUXUXUXUXUXUXUXUXUXUXUXUXUXUXUXUXUXUXUXUXUXIXUXUXUXUXUXUXUXUXUXUXUXUXUXUXUXUXUXUXUXUXUXUXUXUXUXUXUXUXUXUXUXUXUXUXUXUXUXUXUXUXUXUXUXUXUXUXUXUXUXUXUXUXUXPXUXUXUXKXUXKXKXKXKXKXJXIXKXKXIXUXUXIXUXUXUXUXUXUXUXUXUXUXUXUXUXUXUXUXUXUXUXUXUXUXUXUX",
"UXUXUXUXUXUXUXUXUXUXUXUXUXUXUXUXUXUXUXUXUXUXUXUXUXUXUXUXUXIXUXUXUXUXUXUXUXUXUXUXUXUXUXUXUXUXUXUXUXUXUXUXUXUXUXUXUXUXUXUXUXUXUXUXUXUXUXUXUXUXUXUXUXUXUXUXUXUXUXUXIXIXIXUXUXUXUXUXUXUXUXUXUXKXKXKXUXUXUXKXUXUXUXUXUXIXUXIXUXIXIXUXUXUXUXUXUXUXUXUXUXUXUXUXUXUXUXUXUXUXUXUXUXUXUXUXUXUXUXUXUXUXUXUXUXUXUXUXUXUXUXUXUXUXUXUXUXUXUXUXUXUXUXUXUXUXUXUXUXUXUXUXUXUXUXUXUXUXUXUXUXUXUXUXUXUXUXUXUXUXUXUXUXUXUXUXUXUXUXUXUXUXUXUXUXUXUXUXIXIXIXUXUXUXUXUXUXKXUXKXUXKXKXKXUXUXUXUXUXUXUXUXUXIXUXUXIXUXUXUXUXUXUXUXUXUXUXUXUXUXUXUXUXUXUXUX",
"UXUXUXUXUXUXUXUXUXUXUXUXUXUXUXUXUXUXUXUXUXUXUXUXUXUXUXUXUXUXUXUXUXUXUXUXUXUXUXPXUXUXUXUXUXUXUXUXUXUXUXUXUXUXUXUXUXUXUXUXUXUXUXUXUXUXUXUXUXUXUXUXUXUXUXUXUXUXUXUXIXIXIXIXUXUXUXUXUXKXKXUXUXUXUXUXUXPXUXUXUXUXUXUXUXUXUXUXUXUXUXUXUXUXUXUXUXUXUXUXUXUXUXUXUXUXUXUXUXUXUXUXUXUXUXUXUXUXUXUXUXUXUXUXUXUXUXUXUXUXUXUXUXUXUXUXUXUXUXUXUXUXUXUXUXUXUXUXUXUXUXUXUXUXUXUXUXUXUXUXUXUXUXUXUXUXUXUXUXUXUXUXUXUXUXUXUXUXUXUXUXUXUXUXUXUXUXUXIXIXIXIXIXUXUXUXUXUXUXUXUXUXUXUXKXUXUXUXKXUXUXUXUXUXUXIXUXUXUXUXUXUXUXUXUXUXUXUXUXUXUXUXUXUXUXUX",
"UXUXUXUXUXUXUXUXUXUXUXUXUXUXUXUXUXUXUXUXUXUXUXUXUXUXUXUXUXUXHXUXUXUXUXUXUXUXUXUXUXUXUXPXUXUXUXUXUXUXUXUXUXUXUXUXUXUXUXUXUXUXUXUXUXUXUXUXUXUXUXUXUXUXUXUXUXUXUXUXIXJXIXIXUXUXUXUXUXAXUXPXUXUXUXUXUXPXPXPXUXPXUXUXUXPXUXUXPXUXUXUXUXUXUXUXUXUXUXUXUXUXUXUXUXUXUXUXUXUXUXUXUXUXUXUXUXUXUXUXUXUXUXUXUXUXUXUXUXUXUXUXUXUXUXUXUXUXHXUXUXUXUXUXUXUXUXUXUXUXUXUXPXUXUXUXUXUXUXUXUXUXUXUXUXUXUXUXUXUXUXUXUXUXUXUXUXUXUXUXUXUXUXUXUXUXUXUXIXIXIXIXUXUXUXPXUXAXUXPXUXUXUXUXPXPXUXPXUXPXUXUXUXUXUXPXUXPXUXPXUXUXUXUXUXUXUXUXUXUXUXUXUXUXUXUX",
"UXUXUXUXUXUXUXUXUXUXUXUXUXUXUXUXUXUXUXUXUXUXUXUXLXUXUXUXKXUXUXUXUXPXUXUXUXUXUXUXUXUXUXUXUXUXUXUXUXUXUXUXUXUXUXUXUXUXUXUXUXUXUXUXUXUXUXUXUXUXUXUXUXUXUXUXUXUXUXUXUXIXIXUXUXUXUXUXPXUXAXPXUXUXUXUXPXUXUXPXUXPXPXPXPXUXPXSXUXUXPXUXUXUXUXUXUXUXUXUXUXUXUXUXUXUXUXUXUXUXUXUXUXUXUXUXUXUXUXUXUXUXUXUXUXUXUXUXUXUXUXUXHXUXUXUXUXKXUXUXUXUXUXUXUXUXUXUXUXUXUXUXUXUXUXUXUXUXUXUXUXUXUXUXUXUXUXUXUXUXUXUXUXUXUXUXUXUXUXUXUXUXUXUXUXUXUXUXIXKXKXUXUXUXUXUXUXUXAXPXUXUXUXUXUXPXUXPXPXKXPXPXPXPXUXSXUXUXUXUXUXUXUXUXUXUXUXUXUXUXUXUXUXUXUXUX",
"UXUXUXUXUXUXUXUXUXUXUXUXUXUXUXUXUXUXUXUXUXUXUXUXUXUXGXPXUXHXUXPXUXUXPXUXUXUXUXUXUXUXUXUXUXUXUXUXUXUXUXUXUXUXUXUXUXUXUXUXUXUXUXUXUXUXUXUXUXUXUXUXUXUXUXUXUXUXUXUXKXKXKXUXUXUXPXUXUXLXUXUXIXLXUXLXIXIXUXIXUXUXUXUXUXUXUXHXUXHXHXUXUXUXUXUXUXUXUXUXUXUXUXUXUXUXUXUXUXUXUXUXUXUXUXUXUXUXUXUXUXUXUXUXUXUXUXUXUXUXUXUXUXUXAXUXPXHXUXUXUXUXUXUXUXUXPXUXUXUXUXUXUXUXUXUXUXUXUXUXUXUXUXUXUXUXUXUXUXUXUXUXUXUXUXUXUXUXUXUXUXUXUXUXUXUXUXUXUXKXKXUXUXUXUXUXUXLXUXUXIXLXUXLXUXIXUXIXIXUXUXUXUXUXUXHXUXHXHXUXUXUXUXUXUXUXUXUXUXUXUXUXUXUXUXUX",
"UXUXUXUXUXUXUXUXUXUXUXUXUXUXUXUXUXUXUXUXUXUXUXUXUXIXKXUXUXUXUXHXUXUXUXUXUXPXUXUXUXUXUXUXUXUXUXUXUXUXUXUXUXUXUXUXUXUXUXUXUXUXUXUXUXUXUXUXUXUXUXUXUXUXUXUXUXUXUXUXUXKXUXPXUXPXUXUXUXPXPXUXPXUXUXUXIXIXIXIXIXIXIXIXUXUXGXUXUXUXUXUXUXUXUXUXUXUXUXUXUXUXUXUXUXUXUXUXUXUXUXUXUXUXUXUXUXUXUXUXUXUXUXUXUXUXUXUXUXUXUXUXUXUXKXUXUXUXUXGXUXUXUXPXPXUXUXUXUXUXUXUXUXUXUXUXUXUXUXUXUXUXUXUXUXUXUXUXUXUXUXUXUXUXUXUXUXUXUXUXUXUXUXUXUXUXUXUXPXUXPXUXUXUXPXUXUXPXLXUXPXUXUXUXIXIXIXIXIXIXIXUXIXUXGXUXUXUXUXUXUXUXUXUXUXUXUXUXUXUXUXUXUXUXUXUX",
"UXUXUXUXUXUXUXUXUXUXUXUXUXUXUXUXUXUXUXUXUXUXUXUXHXUXUXKXGXHXLXUXPXUXUXUXPXUXPXUXUXUXUXUXUXUXUXUXUXUXUXUXUXUXUXUXUXUXUXUXUXUXUXUXUXUXUXUXUXUXUXUXUXUXUXUXUXUXUXUXUXUXPXUXPXUXUXUXSXUX; d p a r t d u : u 1 : 1 1 UXUXUXIXDXIXIXIXUXUXUXUXUXUXUXUXUXUXUXUXUXUXUXUXUXUXUXUXUXUXUXUXUXUXUXUXUXUXUXUXUXUXUXUXUXUXUXUXKXUXUXKXGXGXPXUXUXPXPXUXUXPXUXPXUXUXUXPXUXUXUXUXUXUXUXUXUXUXUXUXUXUXUXUXUXUXUXUXUXUXUXUXUXUXUXUXUXUXUXUXUXUXUXUXUXPXUXPXUXPXUXUXPXPX> p a r r t u < 1 : d : 1 1 UXUXUXUXGXDXIXIXUXUXUXUXUXUXUXUXUXUXUXUXUXUXUXUX",
"UXUXUXUXUXUXUXUXUXUXUXUXUXUXUXUXUXUXUXUXUXUXUXUXUXUXGXUXUXUXPXUXUXUXPXUXUXUXUXUXPXUXUXUXUXUXUXUXUXUXUXUXUXUXUXUXUXUXUXUXUXUXUXUXUXUXUXUXUXUXUXUXUXUXUXUXUXUXUXUXUXPXUXUXUXUXUXPXUXHX! t i g 8 g 8 y y y y i u a GXUXUXKXUXIXIXIXUXUXUXUXUXUXUXUXUXUXUXUXUXUXUXUXUXUXUXUXUXUXUXUXUXUXUXUXUXUXUXUXUXUXUXUXUXUXUXUXKXUXSXUXUXUXHXUXUXUXUXUXUXUXUXUXUXUXUXUXUXUXUXUXUXUXUXUXUXUXUXUXUXUXUXUXUXUXUXUXUXUXUXUXUXUXUXUXUXUXUXUXUXUXUXUXUXUXUXUXUXUXUXPXPXHX! y j g y g 8 y 8 y i t t r KXKXUXPXIXUXIXIXUXUXUXUXUXUXUXUXUXUXUXUXUXUXUXUX",
"UXUXUXUXUXUXUXUXUXUXUXUXUXUXUXUXUXUXUXUXUXUXUXUXUXAXQ < < > > < < < < < > < < < UXUXUXUXUXUXUXUXUXUXUXUXUXUXUXUXUXUXUXUXUXUXUXUXUXUXUXUXUXUXUXUXUXUXUXUXUXUXUXUXUXUXUXUXUXUXUXUXf r i.,.F.F.D.D.D.D.D.D.A.F.h.-Xy r p K SXUXUXIXUXUXUXUXUXUXUXUXUXUXUXUXUXUXUXUXUXUXUXUXUXUXUXUXUXUXUXUXUXUXUXUXUXUXUXUXUXUXUXUXUXAXQ , < < ; < > < < < < 1 > < UXUXUXUXUXUXUXUXUXUXUXUXUXUXUXUXUXUXUXUXUXUXUXUXUXUXUXUXUXUXUXUXUXUXUXUXUXUXUXUXUXUXIXUXUXUXUXUXd r 5.1.F.F.C.D.I.D.D.G.A.F.F.-Xs r r K LXUXUXLXUXUXUXUXUXUXUXUXUXUXUXUXUXUXUXUX",
"UXUXUXUXUXUXUXUXUXUXUXUXUXUXUXUXUXUXUXUXUXUXKXUXUXKX; r i r i y t t t s y t t t PXUXPXUXUXUXUXUXUXUXUXUXUXUXUXUXUXUXUXUXUXUXUXUXUXUXUXUXUXUXUXUXUXUXUXUXUXUXUXUXIXIXIXIXUXUXUXPXt g f.w.G.U.Z.H.K.K.H.U.I.T.D.G.e g k w UXSXUXUXUXUXUXUXUXUXUXUXUXUXUXUXUXUXUXUXUXUXUXUXUXUXUXUXUXUXUXUXUXUXUXUXUXUXUXUXUXUXUXUXPXUXt r i r f t t t t s y t t a PXUXPXUXUXUXUXUXUXUXUXUXUXUXUXUXUXUXUXUXUXUXUXUXUXUXUXUXUXUXUXUXUXUXUXUXUXUXUXUXIXIXIXIXUXUXUXUXy g y.w.G.I.L.U.J.K.K.I.I.T.F.F.e g k w PXPXUXUXUXUXUXUXUXUXUXUXUXUXUXUXUXUXUXUX",
"UXUXUXUXUXUXUXUXUXUXUXUXUXUXUXUXHXUXUXUXUXUXZXKXd a 5.2.|.G.D.D.A.A.G.D.D.D.F.|.y y r < PXPXUXLXUXUXUXUXUXUXUXUXUXUXUXUXUXUXUXUXUXUXUXUXUXUXUXUXUXUXUXUXUXUXUXUXIXFXLXUXPXUXp s y.t.T.S.x.v.L.P.L.J.J.J.J.P.S.S.XXZ.7.r.t Q PXUXUXUXUXUXUXUXUXUXUXUXUXUXUXUXUXUXUXUXUXUXUXUXUXUXUXUXUXUXUXUXUXUXKXUXUXUXIXUXZXKXd a 6.2.A.|.I.D.G.A.G.D.I.D.F.|.y s r < UXPXUXHXUXUXUXUXUXUXUXUXUXUXUXUXUXUXUXUXUXUXUXUXUXUXUXUXUXUXUXUXUXUXUXUXIXIXLXUXLXUXp s y.r.G.S.B.v.P.P.L.P.J.J.J.L.S.S.T.Z.7.r.t d UXUXUXUXUXUXUXUXUXUXUXUXUXUXUXUXUXUX",
"UXUXUXUXUXUXUXUXUXUXUXUXUXUXUXUXUXKXGXIXAXUXHXCXw y w.%.z.b.m.J.S.B.m.m.m.K.I.A.e y y f SXUXUXUXUXUXUXUXUXUXUXUXUXUXUXUXUXUXUXUXUXUXUXUXUXUXUXUXUXUXUXUXUXUXUXUXJXVXIXUXPXPX> y 7.*.Z.z.V.V.P.L.L.L.v.b.m.P.x.x.z.P.j.w.j r GXUXUXUXUXUXUXUXUXUXUXUXUXUXUXUXUXUXUXUXUXUXUXUXUXUXUXUXUXUXUXUXUXUXUXKXGXUXLXUXKXBXr r 2.=.z.b.K.K.S.B.b.n.n.J.I.A.e y s f HXPXUXUXUXUXUXUXUXUXUXUXUXUXUXUXUXUXUXUXUXUXUXUXUXUXUXUXUXUXUXUXUXUXUXUXDXVXIXUXPXPXr s 7.*.Z.v.V.V.P.L.B.L.b.J.J.V.x.x.z.K.j.8.l ; LXUXUXUXUXUXUXUXUXUXUXUXUXUXUXUXUXUX",
"UXUXUXUXUXUXUXUXUXUXUXUXUXUXUXUXUXGXUXIXIXUXp s g.6.|.H.Y.b.c.z.S.B.J.m.m.J.L.S.A.<X5.3.s ; UXUXUXUXUXUXUXUXUXUXUXUXUXUXUXUXUXUXUXUXUXUXUXUXUXUXUXUXUXUXUXUXUXUXIXUXIXUXPXPXJ k 1XZ.T.R.V.V.V.J.B.B.b.J.m.b.B.B.P.v.v.Z.g r UXLXUXUXUXUXUXUXUXUXUXUXUXUXUXUXUXUXUXUXUXUXUXUXUXUXUXUXUXUXUXUXUXUXUXGXUXIXIXUXp s g.6.XXZ.Y.B.c.v.S.L.V.K.m.J.I.A.A.|.3.5.f ; UXUXUXUXUXUXUXUXUXUXUXUXUXUXUXUXUXUXUXUXUXUXUXUXUXUXUXUXUXUXUXUXUXUXKXIXUXUXPXPXJ k |.D.R.I.V.N.b.J.B.L.J.b.m.V.B.B.V.b.H.C.j r UXPXUXUXUXUXUXUXUXUXUXUXUXUXUXUXUXUX",
"UXUXUXUXUXUXUXUXUXUXUXUXUXUXUXUXUXUXGXDXUXUXJ s 1.w.D.Z.U.V.M.U.L.L.J.m.m.V.L.S.C.A.f.f.s p UXUXUXUXUXUXUXUXUXUXUXUXUXUXUXUXUXUXUXUXUXUXUXUXUXUXUXUXUXUXUXUXUXUXJXGXUXUXUXPXp s C.z.D.Z.c.N.P.P.L.B.P.b.J.V.B.B.P.H.R.T.g s HXUXUXUXUXUXUXUXUXUXUXUXUXUXUXUXUXUXUXUXUXUXUXUXUXUXUXUXUXUXUXUXUXUXUXPXGXDXIXUXJ s 1.w.Z.Z.P.V.B.M.B.L.b.m.m.V.B.S.A.A.f.a.s p UXUXUXUXUXUXUXUXUXUXUXUXUXUXUXUXUXUXUXUXUXUXUXUXUXUXUXUXUXUXUXUXUXUXJXJXUXUXPXPX> s F.Z.D.Z.z.M.P.P.L.B.V.J.J.b.B.B.P.v.XXT.e s HXUXUXUXUXUXUXUXUXUXUXUXUXUXUXUXUXUX",
"UXUXUXUXUXUXUXUXUXUXUXUXUXUXUXUXPXUXUXUXUXPXG s G.H.R.R.U.v.M.z.B.L.J.m.b.V.B.x.S.G.G.F.e p PXIXUXUXUXUXUXUXUXUXUXUXUXUXUXUXUXUXUXUXUXUXUXUXUXUXUXUXUXUXUXUXUXUXIXUXUXUX> K ,X9XF.T.D.XXL.V.v.v.L.B.J.J.P.b.V.V.b.L.z.D.u.3.! , UXUXUXUXUXUXUXUXUXUXUXUXUXUXUXUXUXUXUXUXUXUXUXUXUXUXUXUXUXUXUXUXLXUXUXUXUXPXG s G.H.R.R.R.v.x.x.L.L.b.m.b.b.B.x.G.D.G.F.k p PXUXUXUXUXUXUXUXUXUXUXUXUXUXUXUXUXUXUXUXUXUXUXUXUXUXUXUXUXUXUXUXUXUXUXUXUXUXp L ,X8XC.I.D.U.U.V.v.v.V.B.J.J.J.b.B.V.b.L.z.D.u.3.K < UXUXUXUXUXUXUXUXUXUXUXUXUXUXUXUX",
"UXUXUXUXUXUXUXUXUXUXUXUXUXUXUXUXUXUXPXKXKXUXG s D.K.H.H.J.L.M.M.L.L.J.m.V.c.V.B.v.S.T.*Xe s UXUXUXUXUXUXUXUXUXUXUXUXUXUXUXUXUXUXUXUXUXUXUXUXUXUXUXUXUXUXUXUXUXUXKXNXUXUX> G fX9X*XG.l.z.B.P.J.J.b.B.J.V.V.V.J.m.b.P.I.D.t.a.; 1 UXUXUXUXUXUXUXUXUXUXUXUXUXUXUXUXUXUXUXUXUXUXUXUXUXUXUXUXUXUXUXUXUXUXGXUXUXPXH J T.K.H.H.L.P.M.B.L.J.J.J.b.V.M.B.B.Z.T.*Xe w PXUXUXUXUXUXUXUXUXUXUXUXUXUXUXUXUXUXUXUXUXUXUXUXUXUXUXUXUXUXUXUXUXUXLXNXUXUX> G 8X9X1XG.l.Z.v.J.J.P.J.B.P.b.V.b.b.b.b.P.T.I.r.f.; 1 UXUXUXUXUXUXUXUXUXUXUXUXUXUXUXUX",
"UXUXUXUXUXUXUXUXUXUXUXUXUXUXUXUXIXUXUXPXK 1 >XdXT.K.J.I.U.V.M.M.J.H.J.J.V.N.M.M.V.c.R.Z.d.5.> > UXUXUXUXUXUXUXUXUXUXUXUXUXUXUXUXUXUXUXUXUXUXUXUXUXUXUXUXUXUXUXUXUXPX, , %X] s.3.cXlXXXN.K.H.J.x.B.J.v.b.L.B.m.m.Y.z.I.T.t.d.a < UXUXUXUXUXUXUXUXUXUXUXUXUXUXUXUXUXUXUXUXUXUXUXUXUXUXUXUXUXUXUXUXUXUXUXPXd H ,X8XT.K.H.I.P.L.M.N.b.P.J.b.N.M.M.c.J.b.R.Z.y.s.< > UXUXUXUXUXUXUXUXUXUXUXUXUXUXUXUXUXUXUXUXUXUXUXUXUXUXUXUXUXUXUXUXUXUX, , %X] g.5.BXlXXXm.J.J.v.v.B.v.b.L.L.B.m.m.Y.z.H.T.t.f.d 1 UXUXUXUXUXUXUXUXUXUXUXUXUXUXUXUX",
"UXUXUXUXUXUXUXUXUXUXUXUXUXUXUXUXUXLXUXPX> K ,X8XF.T.Z.I.B.V.M.B.P.J.J.v.V.V.M.M.N.n.K.T.r.a.d H UXUXUXUXUXUXUXUXUXUXUXUXUXUXUXUXUXUXUXUXUXUXUXUXUXUXUXUXUXUXUXUXPXPX1 1 ' { s.y.SXcXS.c.K.R.H.x.B.L.P.L.L.J.J.m.z.P.I.Z.j.4.a 1 UXUXUXUXUXUXUXUXUXUXUXUXUXUXUXUXUXUXUXUXUXUXUXUXUXUXUXUXUXUXUXUXUXLXUXUX> K ,X9XF.T.Z.H.L.V.V.M.J.H.J.P.V.V.M.M.c.n.J.R.r.a.d 1 UXUXUXUXUXUXUXUXUXUXUXUXUXUXUXUXUXUXUXUXUXUXUXUXUXUXUXUXUXUXUXUXUXSX1 G $X] f.2.BXcXS.c.K.R.L.x.L.P.P.v.B.P.J.J.c.L.I.C.j.r.r 1 UXUXUXUXUXUXUXUXUXUXUXUXUXUXUXUX",
"UXUXUXUXUXUXUXUXUXUXUXUXUXUXUXUXUXIXG G ' ] g.6.nXlX|.P.c.P.V.V.J.H.P.P.L.V.M.M.n.n.K.K.r.6.p H UXUXUXUXUXUXUXUXUXUXUXUXUXUXUXUXUXUXUXUXUXUXUXUXUXUXUXUXUXUXUXUXp K mXMXMXSXa.r.nXBX=.-.Y.H.I.z.L.P.P.L.L.L.J.J.P.S.9.t.j.r.f : UXUXUXUXUXUXUXUXUXUXUXUXUXUXUXUXUXUXUXUXUXUXUXUXUXUXUXUXUXUXUXUXUXPXG , ' ] g.5.nXlXG.U.c.Y.V.V.J.J.J.P.B.B.M.M.N.n.n.R.7.a.a 1 UXUXUXUXUXUXUXUXUXUXUXUXUXUXUXUXUXUXUXUXUXUXUXUXUXUXUXUXUXUXUXUXp K NXMXMXmXd.f.nXBX=.-.K.H.I.z.L.P.P.L.I.L.J.J.P.Z.9.j.t.r.f ; UXUXUXUXUXUXUXUXUXUXUXUXUXUXUXUX",
"UXUXUXUXUXUXUXUXUXUXUXUXUXUXUXUXUXIXH G { ~ g.5.cXBXA.B.c.N.c.b.J.L.I.H.I.L.B.M.c.n.k.K.u.f.a > UXUXUXUXUXUXUXUXUXUXUXUXUXUXUXUXUXUXUXUXUXUXUXUXUXUXUXUXUXUXUXUXJ > NXAXMXmXs.s.BXcXe.*.J.H.T.U.L.L.L.L.S.S.P.P.P.L.9.8.:.4.f < UXUXUXUXUXUXUXUXUXUXUXUXUXUXUXUXUXUXUXUXUXUXUXUXUXUXUXUXUXUXUXUXPXPXH G { ~ g.2.vXvXA.x.c.c.b.v.P.I.H.L.I.L.B.V.c.n.k.K.t.f.p 1 UXUXUXUXUXUXUXUXUXUXUXUXUXUXUXUXUXUXUXUXUXUXUXUXUXUXUXUXUXUXUXUXJ < NXAXmXmXs.s.BXcX8.-.H.H.T.XXS.L.P.L.S.L.P.J.P.S.9.8.q.r.i < UXUXUXUXUXUXUXUXUXUXUXUXUXUXUXUX",
"UXUXUXUXUXUXUXUXUXUXUXUXUXUXUXUX1 > AXAXMXPX6.i.BXBX2.&.V.P.K.R.H.L.I.I.S.L.S.V.n.n.j.j.7.f.p d UXUXUXUXUXUXUXUXUXUXUXUXUXUXUXUXUXUXUXUXUXUXUXUXUXUXUXUXUXUXUXUX, K mXmXSXSX:XgX4.f.%.e.j.9.*.%.9.*.*.9.9.9.*.*.*.9.9.q.j.f.t < UXUXUXUXUXUXUXUXUXUXUXUXUXUXUXUXUXUXUXUXUXUXUXUXUXUXUXUXUXUXUXUXH , AXAXMXPX5.g.BXBX2.&.B.V.K.R.L.L.H.I.I.S.B.B.n.m.j.j.0.a.a p UXUXUXUXUXUXUXUXUXUXUXUXUXUXUXUXUXUXUXUXUXUXUXUXUXUXUXUXUXUXUXUX> K mXmXSXSX:XgX6.u.%.w.j.&.*.%.*.*.9.9.e.*.*.9.*.9.9.0.u.f.a < UXUXUXUXUXUXUXUXUXUXUXUXUXUXUXUX",
"UXUXUXUXUXUXUXUXUXUXUXUXUXUXUXUX> H AXSXAXmX5.5.nXnXw.=.B.J.z.z.L.L.I.U.I.D.L.S.v.b.-.*.7.6.r d UXUXUXUXUXUXUXUXUXUXUXUXUXUXUXUXUXUXUXUXUXUXUXUXUXUXUXUXUXUXUXUXK H mXSXmXSXpX8X4.0.0.w.%.&.e.j.e.9.9.q.9.8.e.8.e.9.q.8.r.a.r < UXUXUXUXUXUXUXUXUXUXUXUXUXUXUXUXUXUXUXUXUXUXUXUXUXUXUXUXUXUXUXUX1 H AXLXAXmXi.5.nXcXp.=.x.P.z.v.L.I.L.I.I.S.S.S.V.c.-.-.7.y.r K UXUXUXUXUXUXUXUXUXUXUXUXUXUXUXUXUXUXUXUXUXUXUXUXUXUXUXUXUXUXUXUXH G SXAXmXSXaX8X4.0.w.w.%.%.j.j.9.9.9.9.9.8.e.8.9.8.9.8.r.6.r d UXUXUXUXUXUXUXUXUXUXUXUXUXUXUXUX",
"UXUXUXUXUXUXUXUXUXUXUXUXUXUXUXUXH H AXmXmXSX>X9Xa.f.%.%.e.e.9.j.*.9.9.9.0.0.8.8.*.j.*.*.u.a.y d UXUXUXUXUXUXUXUXUXUXUXUXUXUXUXUXUXUXUXUXUXUXUXUXUXUXUXUXUXUXUXUX< > aXpXSXSXY Y f.7.u.0.=.e.*.%.8.8.8.8.8.8.w.=.e.9.j.0.y.6.r d UXUXUXUXUXUXUXUXUXUXUXUXUXUXUXUXUXUXUXUXUXUXUXUXUXUXUXUXUXUXUXUXH T mXmXmXSX>X9Xa.f.<.%.*.e.9.j.*.*.e.9.0.0.e.8.&.j.*.9.u.f.t p UXUXUXUXUXUXUXUXUXUXUXUXUXUXUXUXUXUXUXUXUXUXUXUXUXUXUXUXUXUXUXUX, > aXaXSXSXY U h.7.u.u.w.e.w.%.8.9.8.8.8.8.w.w.e.e.q.0.6.i.r p UXUXUXUXUXUXUXUXUXUXUXUXUXUXUXUX",
"UXUXUXUXUXUXUXUXUXUXUXUXUXUXUXUX1 G AXPXSXPX8X9Xy.r.u.u.w.&.%.*.=.=.e.q.t.0.0.0.&.*.*.9.w.6.y p UXUXUXUXUXUXUXUXUXUXUXUXUXUXUXUXUXUXUXUXUXUXUXUXUXUXUXUXUXUXUXUXQ , dXpXmXmXL U f.<.u.0.=.=.w.8.w.e.e.e.e.w.w.p.%.%.q.u.1.5.d u UXUXUXUXUXUXUXUXUXUXUXUXUXUXUXUXUXUXUXUXUXUXUXUXUXUXUXUXUXUXUXUXG G AXPXSXSX8X8Xr.t.u.e.w.e.%.=.=.8.9.0.q.t.0.0.&.*.*.9.w.6.y p UXUXUXUXUXUXUXUXUXUXUXUXUXUXUXUXUXUXUXUXUXUXUXUXUXUXUXUXUXUXUXUXQ > dXaXmXSXL Y y.;.u.0.=.&.w.8.w.e.0.e.e.e.w.w.%.%.q.u.2.5.d u UXUXUXUXUXUXUXUXUXUXUXUXUXUXUXUX",
"UXUXUXUXUXUXUXUXUXUXUXUXUXUXUXUXG K pX:XmXnXY U u.q.q.q.e.e.w.p.=.*.e.0.t.t.u.w.e.w.e.=.7.6.s a UXUXUXUXUXUXUXUXUXUXUXUXUXUXUXUXUXUXUXUXUXUXUXUXUXUXUXUXUXUXUXUXPXPXG L dXdXdX8Xh | u.w.8.=.e.e.w.8.w.0.0.w.2.2.u.e.q.7.j t r ; UXUXUXUXUXUXUXUXUXUXUXUXUXUXUXUXUXUXUXUXUXUXUXUXUXUXUXUXUXUXUXUXG K ,X,XnXAXL U t.j.q.t.e.e.w.p.=.*.9.t.t.t.0.w.e.e.e.=.7.6.s a UXUXUXUXUXUXUXUXUXUXUXUXUXUXUXUXUXUXUXUXUXUXUXUXUXUXUXUXUXUXUXUXIXPXG L dXdXdX8X| } u.w.=.=.w.e.8.w.w.0.0.w.2.2.u.e.0.7.j t r < UXUXUXUXUXUXUXUXUXUXUXUXUXUXUXUX",
"UXUXUXUXUXUXUXUXUXUXUXUXUXUXUXUXG 1 pXpXAXSXY U r.j.t.t.u.<.w.w.=.=.e.0.t.t.w.e.w.=.e.u.6.6.s r UXUXUXUXUXUXUXUXUXUXUXUXUXUXUXUXUXUXUXUXUXUXUXUXUXUXUXUXUXUXUXUXUXPXG G 8X8X8X8XI | 6.y.y.2.i.2.2.y.y.y.y.6.6.i.2.r.w.w.0 9 u u UXUXUXUXUXUXUXUXUXUXUXUXUXUXUXUXUXUXUXUXUXUXUXUXUXUXUXUXUXUXUXUX, > pXfXAXSXY U r.j.t.t.u.<.w.w.=.=.e.0.t.t.y.w.8.=.w.u.6.5.s t UXUXUXUXUXUXUXUXUXUXUXUXUXUXUXUXUXUXUXUXUXUXUXUXUXUXUXUXUXUXUXUXUXUX> G ,X8X8X8XI z y.r.y.w.6.2.2.y.y.y.y.6.i.i.2.r.0.y.i 7 u u UXUXUXUXUXUXUXUXUXUXUXUXUXUXUXUX",
"UXUXUXUXUXUXUXUXUXUXUXUXUXUXUXUXIXIXp > fX,XfX8Xk } :.d.2.y.u.0.e.w.7.e.0.u.8.7.8.u.7.y.s s t u UXUXUXUXUXUXUXUXUXUXUXUXUXUXUXUXUXUXUXUXUXUXUXUXUXUXUXUXUXUXUXUXUXLXUXUXr p p p L J L J s k ; u r f t s a d p p p s y i V D = x KXUXUXUXUXUXUXUXUXUXUXUXUXUXUXUXUXUXUXUXUXUXUXUXUXUXUXUXUXUXUXUXIXIXd > fX,XfX8Xk } r.u.6.w.u.t.e.=.7.e.0.u.8.8.w.u.7.y.k s t u UXUXUXUXUXUXUXUXUXUXUXUXUXUXUXUXUXUXUXUXUXUXUXUXUXUXUXUXUXUXUXUXUXLXUXPXp d p > K J J P s s ; u r f r i J J G J p s y k A ( 9 = KXUXUXUXUXUXUXUXUXUXUXUXUXUXUXUX",
"UXUXUXUXUXUXUXUXUXUXUXUXUXUXUXUXIXUXK J ,XfX>XdXI ;.6.f.6.5.r.r.2.2.f.f.4.y.y.u.y.6.f.a.w y r d KXUXUXUXUXUXUXUXUXUXUXUXUXUXUXUXUXUXUXUXUXUXUXUXUXUXUXUXUXUXUXUXUXUXUXPXr s a J G ~ G J J p < u a t t d r < P d p p y 3 V D 5 x KXUXUXUXUXUXUXUXUXUXUXUXUXUXUXUXUXUXUXUXUXUXUXUXUXUXUXUXUXUXUXUXIXUXK J pXfX,XdXI ;.6.a.6.5.r.r.y.2.6.f.6.y.y.y.y.6.f.a.w y r u UXUXUXUXUXUXUXUXUXUXUXUXUXUXUXUXUXUXUXUXUXUXUXUXUXUXUXUXUXUXUXUXUXUXUXKXr a a K G Y G G J p u d d y r t p p P J a r y 7 ( A 9 u IXUXUXUXUXUXUXUXUXUXUXUXUXUXUXUX",
"UXUXUXUXUXUXUXUXUXUXUXUXUXUXUXUXUXKXPXPXG > L > J P a r u i y y s p a a G p p w s t s a ( 1.0 9 UXUXUXUXUXUXUXUXUXUXUXUXUXUXUXUXUXUXUXUXUXUXUXUXUXUXUXUXUXUXUXUXLXUXKXKX^ / ^ ^ . % =X:XI ^ u 9 S $.8 8 $.S Z #.#.+.#.$.g t HXPXUXUXUXUXUXUXUXUXUXUXUXUXUXUXUXUXUXUXUXUXUXUXUXUXUXUXUXUXUXUXUXUXUXUXPXPX> > L > J J s r u i r y s a s p J J p r s r s s ( 1.4 0 KXUXUXUXUXUXUXUXUXUXUXUXUXUXUXUXUXUXUXUXUXUXUXUXUXUXUXUXUXUXUXUXLXPXHXUX^ / ^ ^ o o =X:XU / u 9 S $.8 4 $.V Z #.+.2.#.$.f t PXPXUXUXUXUXUXUXUXUXUXUXUXUXUXUXUXUX",
"UXUXUXUXUXUXUXUXUXUXUXUXUXUXUXUXGXUXUXUXd K 1 L Q p Q d ; a u f a f a a K > K ! i r t r 1.#.0 9 KXUXUXUXUXUXUXUXUXUXUXUXUXUXUXUXUXUXUXUXUXUXUXUXUXUXUXUXUXUXUXUXUXUXUXKX^ C ( ^ . + :X=X) ^ 7 3 B $.q 4 #.$.O.$.+.+.O.Z y w PXPXUXUXUXUXUXUXUXUXUXUXUXUXUXUXUXUXUXUXUXUXUXUXUXUXUXUXUXUXUXUXUXUXGXUXUXPXd K G J P 1 P d ; a u f p s a p K > d P t r r r 1.S i 9 KXUXUXUXUXUXUXUXUXUXUXUXUXUXUXUXUXUXUXUXUXUXUXUXUXUXUXUXUXUXUXUXUXUXKXKX^ C ) ^ .   :X=X/ / 7 3 B $.q 6 X.X.X.+.X.O.O.#.y a PXPXUXUXUXUXUXUXUXUXUXUXUXUXUXUXUXUX",
"UXUXUXUXUXUXUXUXUXUXUXUXUXUXUXUXUXUXUXHXP ^ I ~ O $ =X=X^ I t 7 ,.#.8 8 V @.B B @.@.2.$.3 9 vXCXKXUXUXUXUXUXUXUXUXUXUXUXUXUXUXUXUXUXUXUXUXUXUXUXUXUXUXUXUXUXUXUXUXGXKXZXC Z <X4X@ + zXNX4X Xq q 3XOX X<X0 q @.X.X.O.j f + @ PXUXUXUXUXUXUXUXUXUXUXUXUXUXUXUXUXUXUXUXUXUXUXUXUXUXUXUXUXUXUXUXUXUXUXUXUXHXM ^ I ) o % &X=X) I t 7 ,.#.8 0 @.@.B B @.V 2.$.3 9 vXCXUXUXUXUXUXUXUXUXUXUXUXUXUXUXUXUXUXUXUXUXUXUXUXUXUXUXUXUXUXUXUXUXUXHXKXKXC Z -X4X# + zXNX4X Xj 4 5XOX X X6 q X.n X.O.j i + + ZXUXUXUXUXUXUXUXUXUXUXUXUXUXUXUXUXUX",
"UXUXUXUXUXUXUXUXUXUXUXUXUXUXUXUXPXUXIXKX] ) U ^ O o :X:XU 3.y 8 #.$.4 q ..X.@.@.@.V n V 9 u ZXvXUXUXUXUXUXUXUXUXUXUXUXUXUXUXUXUXUXUXUXUXUXUXUXUXUXUXUXUXUXUXUXUXUXCXKXZXC ( 1X7X# + vXvX;X2Xq 4 OXOX3X5X4 4 @.@.@.$.4 7 . o IXIXUXUXUXUXUXUXUXUXUXUXUXUXUXUXUXUXUXUXUXUXUXUXUXUXUXUXUXUXUXUXUXUXPXPXIXKX) / ) U   o :X:XU 3.y i #.$.4 q X.X.@.@.@.O.n S 9 u CXCXKXUXUXUXUXUXUXUXUXUXUXUXUXUXUXUXUXUXUXUXUXUXUXUXUXUXUXUXUXUXUXUXPXHXJXZXZ ,.4X4X# # vXvX<X3Xq 4 <X2X3X5X4 4 @.@.@.S 3 7 .   ZXIXUXUXUXUXUXUXUXUXUXUXUXUXUXUXUXUX",
"UXUXUXUXUXUXUXUXUXUXUXUXUXUXUXUXUXUXKXZXj Z 1X7X+ O mXnX1X1Xj 4 <X6X XOX0 4 V S C 5.9 9 + . CXUXUXUXUXUXUXUXUXUXUXUXUXUXUXUXUXUXUXUXUXUXUXUXUXUXUXUXUXUXUXUXUXUXUXUXKXKX;X<XlXyXlXxXuXuXiXwX+X@XoXoXOX Xg 8 B X.V n 6 u PXUXUXIXUXUXUXUXUXUXUXUXUXUXUXUXUXUXUXUXUXUXUXUXUXUXUXUXUXUXUXUXUXUXUXUXUXUXHXZXC l 1X4X+ O mXnX7X1Xq 4 .X6XOX X0 4 V S A 1.9 5 @ . CXIXUXUXUXUXUXUXUXUXUXUXUXUXUXUXUXUXUXUXUXUXUXUXUXUXUXUXUXUXUXUXUXUXUXUXJXZX<X<XxXiXiXxXuXuXiXwX@X@X.X3X3X<Xq 6 n X.V Z 9 u ZXUXIXKXUXUXUXUXUXUXUXUXUXUXUXUXUXUXUXUX",
"UXUXUXUXUXUXUXUXUXUXUXUXUXUXUXUXUXUXCXZXC Z 6X<X+ . nXcX7X1X4 q 2X3X X3X8 7 S V ( ( 9 9     IXFXUXUXUXUXUXUXUXUXUXUXUXUXUXUXUXUXUXUXUXUXUXUXUXUXUXUXUXUXUXUXUXUXGXUXKXHX4X4XyXlXlXiXuXuXrXwX3X@X+X|.+X3X8 2 1.V S D = = KXKXIXUXUXUXUXUXUXUXUXUXUXUXUXUXUXUXUXUXUXUXUXUXUXUXUXUXUXUXUXUXUXUXUXUXUXUXKXZXC Z 6X<X+ + BXcX7X1X4 q <X2XOX3X7 7 $.V 1.^ 9 u   X IXFXUXUXUXUXUXUXUXUXUXUXUXUXUXUXUXUXUXUXUXUXUXUXUXUXUXUXUXUXUXUXUXUXHXUXVXZX9X1XyXlXlXuXuXuXrXwX6XXX3X X7X1X4 3 $.V ( ( u ; UXHXJXIXUXUXUXUXUXUXUXUXUXUXUXUXUXUXUXUX",
"UXUXUXUXUXUXUXUXUXUXUXUXUXUXUXUXUXHXKXvX4X<XyXiXzXzXzXxXrXiXoXOX2X<X+X+Xq q X.+.+.O.y 7 KXKXIXFXUXUXUXUXUXUXUXUXUXUXUXUXUXUXUXUXUXUXUXUXUXUXUXUXUXUXUXUXUXUXUXUXUXUXUXKXZXHXZ Z yXyXxXuXOX3X|.6X@X.X4 q Z ( * @ . . ZXKXZXZXIXUXUXUXUXUXUXUXUXUXUXUXUXUXUXUXUXUXUXUXUXUXUXUXUXUXUXUXUXUXUXUXUXUXUXPXKXvX2X<XyXtXkXzXzXxXtXiXoXOXOX<X3X+Xq 4 +.O.+.#.8 r KXKXIXFXUXUXUXUXUXUXUXUXUXUXUXUXUXUXUXUXUXUXUXUXUXUXUXUXUXUXUXUXUXUXUXUXUXUXJXKXHXCXZ C lXlXtXiX;XOX.X@XoX.X8 l Z S # + + . PXUXUXGXKXKXUXUXUXUXUXUXUXUXUXUXUXUXUXUXUXUX",
"UXUXUXUXUXUXUXUXUXUXUXUXUXUXUXUXPXUXKXZX2X2XiXrXtXzXzXuXiXiX[.+XOX+X3X+Xq q O.$.+.B y f KXUXIXFXIXUXUXUXUXUXUXUXUXUXUXUXUXUXUXUXUXUXUXUXUXUXUXUXUXUXUXUXUXUXUXUXPXUXUXKXHXvX/ l cXyXxXuX2X X6X.X|.3Xq 4 1.C . @ +   UXGXZXKXGXUXUXUXUXUXUXUXUXUXUXUXUXUXUXUXUXUXUXUXUXUXUXUXUXUXUXUXUXUXUXUXUXUXPXUXKXCX2X2XiXiXtXzXuXtXiXiX[.oXoX+X.X.Xq q O.+.+.O.i f KXUXIXFXIXUXUXUXUXUXUXUXUXUXUXUXUXUXUXUXUXUXUXUXUXUXUXUXUXUXUXUXUXUXUXUXPXKXIXIXHXnX^ C lXxXyXtX5X2X.X6X.X.X8 e ( S & + @   UXSXUXKXGXUXUXUXUXUXUXUXUXUXUXUXUXUXUXUXUXUX",
"UXUXUXUXUXUXUXUXUXUXUXUXUXUXUXUXUXPXHXZXCXvXS C xXlXiXyXOXOXoXoXoXoX8 j q @.+ . . . UXPXUXUXIXKXUXUXUXUXUXUXUXUXUXUXUXUXUXUXUXUXUXUXUXUXUXUXUXUXUXUXUXUXUXUXUXUXUXPXPXHXKXKXBXHXl Z Z C ^ A 4X5Xq 8 g j 8 6 ^.~.= : ZXUXUXUXKXKXUXUXUXUXUXUXUXUXUXUXUXUXUXUXUXUXUXUXUXUXUXUXUXUXUXUXUXUXUXUXUXUXUXPXCXZXZXvXS C xXlXlXiXOXOXoXoXoXoX4 j n S # + . . PXPXUXIXKXUXUXUXUXUXUXUXUXUXUXUXUXUXUXUXUXUXUXUXUXUXUXUXUXUXUXUXUXUXUXUXUXUXUXUXIXGXPXPXBXZX/ j ,.z N N 4X1X4 q 8 8 4 6 ~.~.= c UXUXUXUXUXUXUXUXUXUXUXUXUXUXUXUXUXUXUXUXUXUX",
"UXUXUXUXUXUXUXUXUXUXUXUXUXUXUXUXUXUXKXHXZXZXN A yXyXyX0X6X+X.XoX@X}.4 7 ( S @ X X + UXPXUXUXKXKXUXUXUXUXUXUXUXUXUXUXUXUXUXUXUXUXUXUXUXUXUXUXUXUXUXUXUXUXUXUXUXUXUXUXUXUXUXUXCXHX/ 3.z / C f 5X2X4 3 4 4 4 b E.Q.b 5 ZXGXLXUXKXKXUXUXUXUXUXUXUXUXUXUXUXUXUXUXUXUXUXUXUXUXUXUXUXUXUXUXUXUXUXUXUXUXUXUXKXCXZXZXN C yXyXyX0X6X+X@XoXoXoX6 7 Z A @   X . PXPXPXUXKXZXUXUXUXUXUXUXUXUXUXUXUXUXUXUXUXUXUXUXUXUXUXUXUXUXUXUXUXUXUXUXUXUXUXUXUXUXUXKXCXHX^ / z ;.) A 4X4X6 4 6 q 4 6 E.Q.b 5 vXCXGXKXUXUXUXUXUXUXUXUXUXUXUXUXUXUXUXUXUXUX",
"UXUXUXUXUXUXUXUXUXUXUXUXUXUXUXUXDXUXUXKXKXKXZXHXU ;.<.| | z 3X6X4 6 5 0 ; u ].~.5 3 CXHXPXPXKXZXUXUXUXUXUXUXUXUXUXUXUXUXUXUXUXUXUXUXUXUXUXUXUXUXUXUXUXUXUXUXUXUXUXUXUXUXIXJXIXIXHXBX,./ 9X8X9XOX^.^.$.O.`.)././.E.].i J PXKXBXKXUXUXUXUXUXUXUXUXUXUXUXUXUXUXUXUXUXUXUXUXUXUXUXUXUXUXUXUXUXUXUXUXGXUXUXKXKXKXZXCX,.| ;.| | h 1X6X6 6 6 0 = : ].].5 3 ZXKXPXPXKXZXKXUXUXUXUXUXUXUXUXUXUXUXUXUXUXUXUXUXUXUXUXUXUXUXUXUXUXUXUXUXUXUXUXUXUXIXIXKXUXKXPXBX| e >X>X8X5X^.!.n ..(./././.W.^.0 9 ZXZXBXKXUXUXUXUXUXUXUXUXUXUXUXUXUXUXUXUX",
"UXUXUXUXUXUXUXUXUXUXUXUXUXUXUXUXUXUXKXUXIXGXKXHX,.z h z ,./ 7X2X6 6 4 3 9 0 ~.W.b b vXCXPXPXKXKXUXUXUXUXUXUXUXUXUXUXUXUXUXUXUXUXUXUXUXUXUXUXUXUXUXUXUXUXUXUXUXUXGXUXPXUXIXIXDXJXHXBX,.U 9X8X>XqX~.~.@.@.`./././.).].i p KXZXKXUXUXUXUXUXUXUXUXUXUXUXUXUXUXUXUXUXUXUXUXUXUXUXUXUXUXUXUXUXUXUXUXUXUXUXLXUXIXGXUXHX/ U | z / / 7X<Xb 6 4 3 9 5 ~.Q.b 6 vXCXPXPXKXKXUXUXUXUXUXUXUXUXUXUXUXUXUXUXUXUXUXUXUXUXUXUXUXUXUXUXUXUXUXUXUXUXHXUXUXUXIXIXIXKXUXBX;.;.;XqXqX;X].}.B @.`./././.'.!.0 7 ZXKXPXUXUXUXUXUXUXUXUXUXUXUXUXUXUXUXUXUX",
"UXUXUXUXUXUXUXUXUXUXUXUXUXUXUXUXUXHXUXDXIXIXDXPXPXSX3.I 9X>XqX4X].`.o...`.(./._./.W.3 i PXUXIXIXUXUXUXUXUXUXUXUXUXUXUXUXUXUXUXUXUXUXUXUXUXUXUXUXUXUXUXUXUXUXUXUXUXUXPXUXFXFXDXFXP I 3.3.# . Q c c x . # !./././...$.+ + CXVXUXIXUXUXUXUXUXUXUXUXUXUXUXUXUXUXUXUXUXUXUXUXUXUXUXUXUXUXUXUXUXUXUXUXUXKXUXDXFXIXLXUXPXSX/ U 9X8XfX4Xp.`.o...{.W._./.E.W.6 9 PXUXIXIXUXUXUXUXUXUXUXUXUXUXUXUXUXUXUXUXUXUXUXUXUXUXUXUXUXUXUXUXUXUXUXUXUXUXIXIXIXFXJXIX, l :.d.Q v T Q x : . & n ..)./...X.@ + KXVXUXIXUXUXUXUXUXUXUXUXUXUXUXUXUXUXUXUX",
"UXUXUXUXUXUXUXUXUXUXUXUXUXUXUXUXKXUXUXIXFXFXUXUXPXSXI I 8X8XqX>X].`.....`./././.E.'.5 t UXUXIXIXUXUXUXUXUXUXUXUXUXUXUXUXUXUXUXUXUXUXUXUXUXUXUXUXUXUXUXUXUXUXUXUXKXUXKXUXFXFXDXDXd s 3.3.@ o T T v v . + ].(./.(.X.#.# . KXJXFXFXUXUXUXUXUXUXUXUXUXUXUXUXUXUXUXUXUXUXUXUXUXUXUXUXUXUXUXUXUXUXUXUXUXUXUXIXFXFXIXPXPXPXl ^ 9XqX>XqX{.`.....`.)./.E.E.'.6 t UXIXIXIXUXUXUXUXUXUXUXUXUXUXUXUXUXUXUXUXUXUXUXUXUXUXUXUXUXUXUXUXUXUXUXUXUXKXHXUXFXFXJXKXT p d.:.P Q 1 H T T o . / X.(.(...X.+ X UXIXFXIXUXUXUXUXUXUXUXUXUXUXUXUXUXUXUXUX",
"UXUXUXUXUXUXUXUXUXUXUXUXUXUXUXUXPXKXUXUXIXUXUXUXJ d 3.3.+ o M m 0 0 # & `.E./.E...n @ @ KXUXUXKXUXUXUXUXUXUXUXUXUXUXUXUXUXUXUXUXUXUXUXUXUXUXUXUXUXUXUXUXUXUXUXUXUXUXUXIXFXFXFXIXv Q     d 1 f 1 1 v   # $.....n !.}.+ O PXPXFXFXIXUXUXUXUXUXUXUXUXUXUXUXUXUXUXUXUXUXUXUXUXUXUXUXUXUXUXUXUXUXUXUXLXPXUXUXIXUXUXPXd s 3.3.. . M m m b # & ^._././...n $ $ PXUXUXKXUXUXUXUXUXUXUXUXUXUXUXUXUXUXUXUXUXUXUXUXUXUXUXUXUXUXUXUXUXUXUXUXUXSXUXUXFXDXKXUXv a d.>.;.U . o Q 1 H T O @ ..o.(.^.. % UXIXUXPXUXUXUXUXUXUXUXUXUXUXUXUXUXUXUXUX",
"UXUXUXUXUXUXUXUXUXUXUXUXUXUXUXUXPXUXIXUXIXUXUXPX! a 3.5..   m u : v X # ].!.Q._.n n @ O PXUXNXKXIXUXUXUXUXUXUXUXUXUXUXUXUXUXUXUXUXUXUXUXUXUXUXUXUXUXUXUXUXUXUXUXUXUXGXIXIXUXDXIXM ,   X 1 M M M M v O . S @.n n ^.!.+ . PXUXUXGXUXUXUXUXUXUXUXUXUXUXUXUXUXUXUXUXUXUXUXUXUXUXUXUXUXUXUXUXUXUXUXUXPXKXUXUXIXUXUXUXQ d 3.3.. X m : c v . # ].!.)._.n n @ $ SXUXNXKXUXUXUXUXUXUXUXUXUXUXUXUXUXUXUXUXUXUXUXUXUXUXUXUXUXUXUXUXUXUXUXUXUXPXPXGXDXJXKXHX1 d s.:.U ^ o o < d Q c X X ..o.).].  % KXGXUXUXUXUXUXUXUXUXUXUXUXUXUXUXUXUXUXUX",
"UXUXUXUXUXUXUXUXUXUXUXUXUXUXUXUXUXUXIXUXIXUXUXUXv , @ + zXuXuXzXT T   + O.X.....`.^.# + PXLXIXJXUXUXUXUXUXUXUXUXUXUXUXUXUXUXUXUXUXUXUXUXUXUXUXUXUXUXUXUXUXUXUXUXUXGXUXUXPXPXQ Q   . jXkXkXzX, 1 X X X X + + }.~...@.+ . GXUXHXKXUXUXUXUXUXUXUXUXUXUXUXUXUXUXUXUXUXUXUXUXUXUXUXUXUXUXUXUXUXUXUXUXIXUXIXIXIXUXUXUXH , # + uXuXiXzXQ 1   + B X.....`.`.& @ UXLXIXVXIXUXUXUXUXUXUXUXUXUXUXUXUXUXUXUXUXUXUXUXUXUXUXUXUXUXUXUXUXUXUXUXSXUXUXUXIXKXKXHX_ ^ _ _ ` [ o . BXkXuXzXX @ ].o...@.X   IXUXPXHXUXUXUXUXUXUXUXUXUXUXUXUXUXUXUXUX",
"UXUXUXUXUXUXUXUXUXUXUXUXUXUXUXUXIXIXIXUXUXUXIXIXT v X . xXcX0XxXH ~   . 1.O.+...`.^.# . UXIXDXJXIXUXUXUXUXUXUXUXUXUXUXUXUXUXUXUXUXUXUXUXUXUXUXUXUXUXUXUXUXUXUXUXFXKXUXPXKXKX; r . + kXcXzXcXc v X O % % X . ].^.@.$.+   UXKXKXHXUXUXUXUXUXUXUXUXUXUXUXUXUXUXUXUXUXUXUXUXUXUXUXUXUXUXUXUXUXUXUXUXIXIXIXUXIXUXIXUXT T X + cXcX0XxXH R   . 1.O.X...`.^.# X UXIXIXJXUXUXUXUXUXUXUXUXUXUXUXUXUXUXUXUXUXUXUXUXUXUXUXUXUXUXUXUXUXUXUXUXUXUXUXUXIXUXBXSXU / ` E W E o @ tXyXiXuXO @ ].}.X.A X   LXUXPXKXUXUXUXUXUXUXUXUXUXUXUXUXUXUXUXUX",
"UXUXUXUXUXUXUXUXUXUXUXUXUXUXUXUXUXUXUXUXIXUXIXIXQ :   + <X1X6X5Xu , K P # # }.].n D @ . UXPXUXUXUXUXUXUXUXUXUXUXUXUXUXUXUXUXUXUXUXUXUXUXUXUXUXUXUXUXUXUXUXUXUXUXUXIXKXHX+ # / U & & lXkX;X;X  X ' #X$X$XR ~ X . # # I U PXUXIXDXUXUXUXUXUXUXUXUXUXUXUXUXUXUXUXUXUXUXUXUXUXUXUXUXUXUXUXUXUXUXUXUXUXUXUXUXUXIXIXIXT < . + -X1X6X4X< , P f # # }.^.n ( + . UXPXUXIXUXUXUXUXUXUXUXUXUXUXUXUXUXUXUXUXUXUXUXUXUXUXUXUXUXUXUXUXUXUXUXUXIXFXIXIXIXJX~ f 4.4.K T [ W X . 5X.X X4X. . & # + @ v G UXKXPXPXUXUXUXUXUXUXUXUXUXUXUXUXUXUXUXUX",
"UXUXUXUXUXUXUXUXUXUXUXUXUXUXUXUXUXUXUXUXUXIXIXUX1 d   . 9X4X<X-XT ~ H H @ + ].].A ( O X UXUXKXKXUXUXUXUXUXUXUXUXUXUXUXUXUXUXUXUXUXUXUXUXUXUXUXUXUXUXUXUXUXUXUXUXCXUXKXKX+ # I k & & kXkX>X>X. X $X$X$X$XF R     + & ;.U SXUXDXFXIXUXUXUXUXUXUXUXUXUXUXUXUXUXUXUXUXUXUXUXUXUXUXUXUXUXUXUXUXUXUXUXUXUXUXUXUXUXIXIX< M X O 9X2X1X-XQ Q H H $ X ].].D ` .   UXUXKXUXUXUXUXUXUXUXUXUXUXUXUXUXUXUXUXUXUXUXUXUXUXUXUXUXUXUXUXUXUXUXUXUXIXDXFXDXUXUX: t d.:.s J ` ` X   4X<X2X5X. @ @ # # . K R HXKXUXKXUXUXUXUXUXUXUXUXUXUXUXUXUXUXUXUX",
"UXUXUXUXUXUXUXUXUXUXUXUXUXUXUXUXIXUXUXUXUXUXUXUXKXUXv : . . X X E $X#X$X% X X X X   UXPXGXKXKXKXUXUXUXUXUXUXUXUXUXUXUXUXUXUXUXUXUXUXUXUXUXUXUXUXUXUXUXUXUXUXUXUXUXGXKXKX+ # I z U k & + .       % % % % [ ' d N i h :.:.2 @ ZXCXUXUXUXUXUXUXUXUXUXUXUXUXUXUXUXUXUXUXUXUXUXUXUXUXUXUXUXUXUXUXUXUXIXUXUXUXUXUXUXUXKXKXv c . . X X [ #X$X$X% X X X X   UXUXGXKXKXKXUXUXUXUXUXUXUXUXUXUXUXUXUXUXUXUXUXUXUXUXUXUXUXUXUXUXUXUXUXUXUXUXPXUXIXUXKXBX+ # ;.>.d.4.r.3.d ! . + . . ; p k ;.z I Y F KXCXIXIXUXUXUXUXUXUXUXUXUXUXUXUXUXUXUXUX",
"UXUXUXUXUXUXUXUXUXUXUXUXUXUXUXUXUXIXUXUXUXUXUXUXUXIXc c + + .   [ [ %X%X% O X X   X UXUXUXUXHXUXUXUXUXUXUXUXUXUXUXUXUXUXUXUXUXUXUXUXUXUXUXUXUXUXUXUXUXUXUXUXUXUXUXUXUXUX. + I I l I + . .   . . $ % o o [ [ f g | h >.>.* @ ZXCXKXUXUXUXUXUXUXUXUXUXUXUXUXUXUXUXUXUXUXUXUXUXUXUXUXUXUXUXUXUXUXUXIXUXUXUXUXUXUXUXPXUXc c . + + X [ ' $X%X% o o   X X UXUXUXUXHXUXUXUXUXUXUXUXUXUXUXUXUXUXUXUXUXUXUXUXUXUXUXUXUXUXUXUXUXUXUXUXUXUXUXUXDXUXKXSX@ + 4.d.:.:.r.4.a d X @   X d p Y U U / G H VXCXIXUXUXUXUXUXUXUXUXUXUXUXUXUXUXUXUXUX",
"UXUXUXUXUXUXUXUXUXUXUXUXUXUXUXUXIXUXUXUXUXUXIXIXLXKXX X 3.:.t. .<.2.k U $ % PXCXCXvXCXZXUXPXUXPXUXUXUXUXUXUXUXUXUXUXUXUXUXUXUXUXUXUXUXUXUXUXUXUXUXUXUXUXUXUXUXUXIXGXUXKXSXUX. @ . . UXHXPXUXGXUXPXPXJXKX% % <.:.:.d.:.:.& % ZXCXKXUXUXUXUXUXUXUXUXUXUXUXUXUXUXUXUXUXUXUXUXUXUXUXUXUXUXUXUXUXUXUXUXUXUXPXUXUXIXIXKXIXX X 6.7.t.:.<.4.k U @ $ UXCXvXvXZXKXUXPXPXUXUXUXUXUXUXUXUXUXUXUXUXUXUXUXUXUXUXUXUXUXUXUXUXUXUXUXUXUXUXUXUXUXUXUXFXIXUXUXUXPX+ # # # * # UXDXUXJXKXKXCXUXo @ + . UXLXZXKXGXUXUXUXUXUXUXUXUXUXUXUXUXUXUXUXUXUX",
"UXUXUXUXUXUXUXUXUXUXUXUXUXUXUXUXUXUXUXPXUXUXIXIXUXDXX   ,.t.:.:.q.| h h * @ PXUXZXZXZXZXUXUXUXUXUXUXUXUXUXUXUXUXUXUXUXUXUXUXUXUXUXUXUXUXUXUXUXUXUXUXUXUXUXUXUXUXUXIXPXUXUXGX$   o $ SXUXPXUXIXUXIXUXJXKXo @ <.r.:.:.r.,.@ $ VXVXUXUXUXUXUXUXUXUXUXUXUXUXUXUXUXUXUXUXUXUXUXUXUXUXUXUXUXUXUXUXUXUXIXUXUXUXUXUXIXIXUXVXX   ,.r. .:.0.| | j * @ PXKXZXCXCXZXUXUXUXUXUXUXUXUXUXUXUXUXUXUXUXUXUXUXUXUXUXUXUXUXUXUXUXUXUXUXUXUXUXUXUXUXUXUXIXIXUXUXKXUXX X . . + @ NXIXIXIXKXUXUXLX$     - GXKXKXHXKXUXUXUXUXUXUXUXUXUXUXUXUXUXUXUXUXUX",
"UXUXUXUXUXUXUXUXUXUXUXUXUXUXUXUXIXUXUXUXPXUXUXUXKXUXDXKX+ # & # + . + $ PXPXPXPXPXUXKXKXKXIXIXIXUXUXUXUXUXUXUXUXUXUXUXUXUXUXUXUXUXUXUXUXUXUXUXUXUXUXUXUXUXUXUXUXUXUXUXPXUXUXAXIXIXDXUXUXLXUXUXUXJXDXUXUXPXPX. + . . # + UXGXUXKXUXUXUXUXUXUXUXUXUXUXUXUXUXUXUXUXUXUXUXUXUXUXUXUXUXUXUXUXUXUXUXUXUXUXUXPXUXPXUXUXUXUXVXKX+ # # # + + @ $ SXPXPXPXUXUXKXUXUXIXIXIXIXUXUXUXUXUXUXUXUXUXUXUXUXUXUXUXUXUXUXUXUXUXUXUXUXUXUXUXUXUXUXUXUXPXPXUXKXPXKXKXIXVXKXUXKXHXKXPXUXIXUXIXFXIXCXKXUXBXKXJXCXUXUXPXUXUXUXUXUXUXUXUXUXUXUXUXUXUXUXUX",
"UXUXUXUXUXUXUXUXUXUXUXUXUXUXUXUXUXUXPXUXUXUXUXUXUXKXUXKX  +         % % LXPXUXPXPXPXKXUXUXIXFXFXUXUXUXUXUXUXUXUXUXUXUXUXUXUXUXUXUXUXUXUXUXUXUXUXUXUXUXUXUXUXUXUXUXUXUXUXUXDXIXIXIXIXDXUXUXPXUXUXKXKXUXPXKXCX  X O X o   KXKXPXPXUXUXUXUXUXUXUXUXUXUXUXUXUXUXUXUXUXUXUXUXUXUXUXUXUXUXUXUXUXUXUXUXUXUXUXUXUXUXUXUXKXPXUXUX  +     X   % o LXPXPXPXPXKXPXUXUXJXIXFXUXUXUXUXUXUXUXUXUXUXUXUXUXUXUXUXUXUXUXUXUXUXUXUXUXUXUXUXUXUXUXUXUXUXPXUXUXUXUXUXIXIXUXKXUXUXHXUXPXIXIXIXFXFXUXKXUXUXVXJXUXPXUXPXUXUXUXUXUXUXUXUXUXUXUXUXUXUXUXUX",
"UXUXUXUXUXUXUXUXUXUXUXUXUXUXUXUXPXPXPXUXUXUXUXUXUXSXPXPXHXUXJXCXKXKXKXZXCXZXKXUXUXUXPXUXUXKXKXKXUXUXUXUXUXUXUXUXUXUXUXUXUXUXUXUXUXUXUXUXUXUXUXUXUXUXUXUXUXUXUXUXPXUXGXUXIXIXUXGXGXUXUXIXIXDXUXKXZXZXSXKXBXZXZXKXVXJXIXVXZXZXHXPXUXUXUXUXUXUXUXUXUXUXUXUXUXUXUXUXUXUXUXUXUXUXUXUXUXUXUXUXUXUXUXUXPXUXUXUXUXUXUXUXPXHXPXPXHXUXZXVXKXKXKXKXCXCXKXUXUXPXPXUXUXKXKXKXUXUXUXUXUXUXUXUXUXUXUXUXUXUXUXUXUXUXUXUXUXUXUXUXUXUXUXUXUXUXUXUXUXUXKXKXUXIXIXIXVXIXUXPXUXUXGXUXUXPXPXUXIXIXIXVXVXJXIXUXPXHXUXUXUXUXUXUXUXUXUXUXUXUXUXUXUXUXUXUX",
"UXUXUXUXUXUXUXUXUXUXUXUXUXUXUXUXPXUXUXUXIXIXUXUXUXSXPXPXPXGXUXUXKXUXCXZXCXVXVXDXUXUXUXPXUXUXZXKXIXUXUXUXUXUXUXUXUXUXUXUXUXUXUXUXUXUXUXUXUXUXUXUXUXUXUXUXUXUXUXUXPXHXIXUXIXJXKXHXGXUXLXLXUXUXKXHXKXUXUXKXKXZXJXIXIXKXJXHXZXZXHXUXUXUXUXUXUXUXUXUXUXUXUXUXUXUXUXUXUXUXUXUXUXUXUXUXUXUXUXUXUXUXUXUXPXPXPXUXIXUXUXUXUXSXPXPXPXGXUXUXKXUXCXZXCXCXVXIXUXUXUXPXUXKXKXKXUXUXUXUXUXUXUXUXUXUXUXUXUXUXUXUXUXUXUXUXUXUXUXUXUXUXUXUXUXUXUXUXUXIXUXUXIXIXIXUXIXUXHXHXUXUXUXUXKXPXPXPXIXDXFXDXDXJXDXIXPXPXPXHXUXUXUXUXUXUXUXUXUXUXUXUXUXUXUXUX",
"UXUXUXUXUXUXUXUXUXUXUXUXUXUXUXUXUXUXUXIXIXIXIXUXFXUXSXPXUXIXNXLXPXPXUXIXIXVXIXIXUXUXPXPXKXKXKXKXUXUXUXUXUXUXUXUXUXUXUXUXUXUXUXUXUXUXUXUXUXUXUXUXUXUXUXUXUXUXUXUXIXKXKXCXUXKXKXUXKXUXPXUXGXHXKXUXUXLXIXIXUXUXIXLXHXBXPXUXUXGXIXFXUXUXUXUXUXUXUXUXUXUXUXUXUXUXUXUXUXUXUXUXUXUXUXUXUXUXUXUXUXUXUXUXUXUXUXIXIXIXUXUXFXUXSXPXUXIXNXHXPXPXUXIXIXVXIXIXUXUXUXPXUXKXKXKXUXUXUXUXUXUXUXUXUXUXUXUXUXUXUXUXUXUXUXUXUXUXUXUXUXUXUXUXUXUXUXUXUXUXUXIXIXIXUXUXPXUXUXUXIXIXKXIXUXKXPXSXUXUXUXUXUXUXUXUXPXPXIXIXUXUXUXUXUXUXUXUXUXUXUXUXUXUXUXUX",
"UXUXUXUXUXUXUXUXUXUXUXUXUXUXUXUXUXUXUXIXIXUXUXIXIXIXUXPXIXIXIXUXUXPXUXPXUXIXFXUXUXUXUXUXUXPXKXUXUXUXUXUXUXUXUXUXUXUXUXUXUXUXUXUXUXUXUXUXUXUXUXUXUXUXUXUXUXUXUXUXJXUXUXHXKXHXUXKXKXUXHXKXHXUXUXUXUXPXIXFXIXIXLXUXPXHXUXPXUXUXFXFXIXUXUXUXUXUXUXUXUXUXUXUXUXUXUXUXUXUXUXUXUXUXUXUXUXUXUXUXUXUXUXUXUXUXIXIXIXIXIXIXFXIXUXPXIXIXIXUXPXKXUXLXIXIXIXIXUXUXUXUXUXKXKXKXUXUXUXUXUXUXUXUXUXUXUXUXUXUXUXUXUXUXUXUXUXUXUXUXUXUXUXUXUXUXUXUXIXUXUXIXIXUXUXUXPXPXPXUXAXUXUXUXHXKXPXPXUXHXUXPXHXUXLXUXPXUXIXJXUXUXUXUXUXUXUXUXUXUXUXUXUXUXUXUX",
"UXUXUXUXUXUXUXUXUXUXUXUXUXUXUXUXUXKXUXUXIXUXUXUXIXIXUXUXIXUXUXUXUXUXUXUXUXIXIXUXUXUXUXUXUXUXUXUXUXUXUXUXUXUXUXUXUXUXUXUXUXUXUXUXUXUXUXUXUXUXUXUXUXUXUXUXUXUXUXUXIXIXIXUXUXUXUXUXUXUXUXUXPXUXUXUXUXPXUXUXUXUXUXIXUXUXUXUXUXUXUXIXUXUXUXUXUXUXUXUXUXUXUXUXUXUXUXUXUXUXUXUXUXUXUXUXUXUXUXUXUXUXUXUXUXUXUXUXUXUXUXUXIXUXUXUXUXUXUXUXUXUXUXIXUXIXIXUXUXUXUXUXUXUXUXUXUXUXUXUXUXUXUXUXUXUXUXUXUXUXUXUXUXUXUXUXUXUXUXUXUXUXUXUXUXUXUXUXIXIXIXIXIXIXUXUXUXUXUXUXUXUXUXPXUXPXPXPXUXUXUXUXUXUXIXUXUXUXKXUXUXUXUXUXUXUXUXUXUXUXUXUXUXUXUXUX",
"UXUXUXUXUXUXUXUXUXUXUXUXUXUXUXUXUXUXUXUXKXUXUXUXUXUXUXUXUXKXUXUXUXIXUXIXUXUXUXIXUXUXUXUXUXUXUXUXUXUXUXUXUXUXUXUXUXUXUXUXUXUXUXUXUXUXUXUXUXUXUXUXUXUXUXUXUXUXUXUXUXIXUXUXIXIXUXUXUXUXUXUXUXUXUXUXUXPXUXUXUXUXIXUXIXUXIXUXKXUXKXUXUXUXUXUXUXUXUXUXUXUXUXUXUXUXUXUXUXUXUXUXUXUXUXUXUXUXUXUXUXUXUXUXUXUXUXUXUXUXUXKXUXUXUXIXUXIXUXIXIXUXUXUXUXUXUXIXUXUXUXUXUXUXUXUXUXUXUXUXUXUXUXUXUXUXUXUXUXUXUXUXUXUXUXUXUXUXUXUXUXUXUXUXUXUXUXUXUXUXUXUXUXUXUXUXUXUXUXUXUXUXUXUXUXUXUXUXUXUXUXUXUXUXUXIXKXUXUXUXUXUXUXUXUXUXUXUXUXUXUXUXUXUXUXUX",
"UXUXUXUXUXUXUXUXUXUXUXUXUXUXUXUXUXUXKXUXUXUXKXUXUXUXKXUXIXUXUXIXUXIXUXUXUXIXUXUXUXUXUXUXUXUXUXUXUXUXUXUXUXUXUXUXUXUXUXUXUXUXUXUXUXUXUXUXUXUXUXUXUXUXUXUXUXUXUXUXUXUXUXUXUXUXUXUXUXUXUXUXUXUXUXUXUXUXUXUXUXIXUXUXUXUXUXUXUXKXUXUXUXUXUXUXUXUXUXUXUXUXUXUXUXUXUXUXUXUXUXUXUXUXUXUXUXUXUXUXUXUXUXUXUXUXUXUXKXUXUXUXUXUXKXUXUXUXKXUXIXUXUXUXUXUXUXUXUXUXUXUXUXUXUXUXUXUXUXUXUXUXUXUXUXUXUXUXUXUXUXUXUXUXUXUXUXUXUXUXUXUXUXUXUXUXUXUXUXUXUXUXUXUXUXUXUXUXUXUXUXUXUXUXUXUXUXUXUXUXUXIXUXUXUXUXUXUXKXUXUXUXUXUXUXUXUXUXUXUXUXUXUXUXUXUX",
"UXUXUXUXUXUXUXUXUXUXUXUXUXUXUXUXUXUXUXUXUXUXUXUXUXKXUXUXUXUXUXUXIXUXIXUXUXUXUXUXUXUXUXUXUXUXUXUXUXUXUXUXUXUXUXUXUXUXUXUXUXUXUXUXUXUXUXUXUXUXUXUXUXUXUXUXUXUXUXUXUXPXPXUXPXUXUXUXUXUXUXKXIXKXKXIXIXKXKXUXIXUXUXKXKXUXUXUXPXUXPXUXUXUXUXUXUXUXUXUXUXUXUXUXUXUXUXUXUXUXUXUXUXUXUXUXUXUXUXUXUXUXUXUXUXUXUXKXUXUXUXKXUXUXUXUXUXUXIXUXUXIXUXIXUXIXUXUXUXUXUXUXUXUXUXUXUXUXUXUXUXUXUXUXUXUXUXUXUXUXUXUXUXUXUXUXUXUXUXUXUXUXUXUXUXUXUXUXPXUXPXPXUXUXPXUXUXKXUXIXKXIXKXIXKXUXIXIXIXIXUXUXUXKXUXUXUXPXPXUXUXUXUXUXUXUXUXUXUXUXUXUXUXUXUXUX",
"UXUXUXUXUXUXUXUXUXUXUXUXUXUXUXUXUXKXUXUXUXUXUXUXUXUXUXKXUXUXUXIXUXUXIXUXUXUXUXUXUXUXUXUXUXUXUXUXUXUXUXUXUXUXUXUXUXUXUXUXUXUXUXUXUXUXUXUXUXUXUXUXUXUXUXUXUXUXUXUXUXUXPXUXUXUXUXUXUXUXKXJXKXJXJXJXKXJXKXKXUXUXUXUXUXUXUXUXUXUXUXPXUXUXUXUXUXUXUXUXUXUXUXUXUXUXUXUXUXUXUXUXUXUXUXUXUXUXUXUXUXUXUXUXUXUXUXUXUXUXUXUXKXUXUXUXKXUXUXIXUXUXIXUXUXUXUXUXUXUXUXUXUXUXUXUXUXUXUXUXUXUXUXUXUXUXUXUXUXUXUXUXUXUXUXUXUXUXUXUXUXUXUXUXUXUXUXUXUXUXUXUXUXUXUXUXUXIXKXKXIXJXJXKXJXKXKXUXKXKXUXKXUXUXUXUXPXUXUXUXUXUXUXUXUXUXUXUXUXUXUXUXUXUXUXUX",
"UXUXUXUXUXUXUXUXUXUXUXUXUXUXUXUXUXUXUXUXUXUXUXUXUXUXUXUXUXUXUXUXUXUXUXUXUXUXUXUXUXUXUXUXUXUXUXUXUXUXUXUXUXUXUXUXUXUXUXUXUXUXUXUXUXUXUXUXUXUXUXUXUXUXUXUXUXUXUXUXUXUXUXUXUXUXUXUXKXIXIXIXIXKXIXKXKXKXKXKXKXKXKXUXUXKXPXUXUXUXUXUXUXUXUXUXUXUXUXUXUXUXUXUXUXUXUXUXUXUXUXUXUXUXUXUXUXUXUXUXUXUXUXUXKXUXUXUXUXUXUXUXUXUXUXUXUXUXUXUXUXIXUXUXUXUXUXUXUXUXUXUXUXUXUXUXUXUXUXUXUXUXUXUXUXUXUXUXUXUXUXUXUXUXUXUXUXUXUXUXUXUXUXUXUXUXUXUXUXUXUXUXUXUXUXUXKXUXIXIXIXKXJXHXKXKXKXKXKXUXKXUXKXUXUXPXUXUXUXUXUXUXUXUXUXUXUXUXUXUXUXUXUXUXUXUX",
"UXUXUXUXUXUXUXUXUXUXUXUXUXUXUXUXUXUXUXUXUXUXUXUXUXUXUXUXUXUXUXUXUXIXUXUXUXUXUXUXUXUXUXUXUXUXUXUXUXUXUXUXUXUXUXUXUXUXUXUXUXUXUXUXUXUXUXUXUXUXUXUXUXUXUXUXUXUXUXUXUXIXUXUXUXIXUXUXUXUXUXUXUXUXKXUXKXKXUXKXKXUXUXUXUXUXUXUXIXIXIXIXUXUXUXUXUXUXUXUXUXUXUXUXUXUXUXUXUXUXUXUXUXUXUXUXUXUXUXUXUXUXUXUXUXUXUXUXUXUXUXUXUXUXUXUXUXUXUXUXUXUXUXUXUXUXUXUXUXUXUXUXUXUXUXUXUXUXUXUXUXUXUXUXUXUXUXUXUXUXUXUXUXUXUXUXUXUXUXUXUXUXUXUXUXUXUXUXUXIXUXIXIXUXUXUXUXUXUXUXUXUXUXUXKXKXKXKXUXKXUXUXUXUXUXUXUXIXIXIXUXUXUXUXUXUXUXUXUXUXUXUXUXUXUXUX",
"UXUXUXUXUXUXUXUXUXUXUXUXUXUXUXUXUXUXUXUXUXUXUXUXUXUXUXUXUXUXUXUXUXUXUXUXUXUXUXUXUXUXUXUXUXUXUXUXUXUXUXUXUXUXUXUXUXUXUXUXUXUXUXUXUXUXUXUXUXUXUXUXUXUXUXUXUXUXUXUXUXUXIXUXUXUXUXUXUXUXUXUXUXUXPXUXUXUXUXUXUXUXPXUXUXUXUXUXIXIXIXIXUXUXUXUXUXUXUXUXUXUXUXUXUXUXUXUXUXUXUXUXUXUXUXUXUXUXUXUXUXUXUXUXUXUXUXUXUXUXUXUXUXUXUXUXUXUXUXUXUXUXUXUXUXUXUXUXUXUXUXUXUXUXUXUXUXUXUXUXUXUXUXUXUXUXUXUXUXUXUXUXUXUXUXUXUXUXUXUXUXUXUXUXUXUXUXUXUXIXUXUXUXUXUXUXUXUXUXUXUXUXKXUXUXUXUXUXUXUXUXUXUXUXIXUXIXIXIXIXUXUXUXUXUXUXUXUXUXUXUXUXUXUXUXUX",
"UXUXUXUXUXUXUXUXUXUXUXUXUXUXUXUXUXUXUXUXUXUXUXUXUXUXUXUXUXUXUXUXUXLXUXKXUXUXUXUXUXUXUXUXUXUXUXUXUXUXUXUXUXUXUXUXUXUXUXUXUXUXUXUXUXUXUXUXUXUXUXUXUXUXUXUXUXUXUXUXUXUXPXUXPXUXPXUXUXPXUXUXPXPXPXUXUXUXUXUXSXUXAXUXUXUXUXUXIXIXIXIXUXUXUXUXUXUXUXUXUXUXUXUXUXUXUXUXUXUXUXUXUXUXUXUXUXUXUXUXUXUXUXUXUXUXUXUXUXUXUXUXUXUXUXUXUXUXUXUXUXHXUXKXUXUXUXUXUXUXUXUXUXUXUXUXUXUXUXUXUXUXUXUXUXUXUXUXUXUXUXUXUXUXUXUXUXUXUXUXUXUXUXUXUXUXUXUXPXUXUXUXPXUXPXUXPXUXPXUXUXPXPXPXUXUXUXUXLXUXAXUXUXUXUXUXIXLXIXIXUXUXUXUXUXUXUXUXUXUXUXUXUXUXUXUX",
"UXUXUXUXUXUXUXUXUXUXUXUXUXUXUXUXUXUXUXUXUXUXUXUXUXUXUXUXUXUXUXUXUXUXPXUXUXUXUXKXUXUXUXUXUXUXUXUXUXUXUXUXUXUXUXUXUXUXUXUXUXUXUXUXUXUXUXUXUXUXUXUXUXUXUXUXUXUXUXUXUXUXUXUXSXUXUXPXPXUXPXPXPXUXPXUXUXUXUXUXUXAXUXPXPXUXUXUXUXIXKXUXUXUXUXUXUXUXUXUXUXUXUXUXUXUXUXUXUXUXUXUXUXUXUXUXUXUXUXUXUXUXUXUXUXPXUXUXUXUXPXUXUXUXUXUXUXUXUXUXUXUXUXUXUXUXUXLXUXUXUXUXUXUXUXUXUXUXUXUXUXUXUXUXUXUXUXUXUXUXUXUXUXUXUXUXUXUXUXUXUXUXUXUXUXUXUXUXUXUXUXPXSXPXUXPXPXUXPXPXPXPXUXUXUXUXUXUXPXGXUXPXUXUXUXUXUXUXKXIXUXUXUXUXUXUXUXUXUXUXUXUXUXUXUXUX",
"UXUXUXUXUXUXUXUXUXUXUXUXUXUXUXUXUXUXUXUXUXUXPXUXUXPXUXUXPXUXUXPXKXUXPXKXPXGXUXUXUXUXUXUXUXUXUXUXUXUXUXUXUXUXUXUXUXUXUXUXUXUXUXUXUXUXUXUXUXUXUXUXUXUXUXUXUXUXUXUXUXHXGXPXGXUXUXPXUXUXIXUXUXIXIXIXIXUXLXIXUXUXLXUXUXUXUXUXUXKXUXUXUXUXUXUXUXUXUXUXUXUXUXUXUXUXUXUXUXUXUXUXUXUXUXUXUXUXUXUXUXUXUXUXUXUXUXUXUXUXUXUXUXUXUXUXPXUXPXUXPXUXHXUXHXGXUXUXUXUXUXUXUXUXUXUXUXUXUXUXUXUXUXUXUXUXUXUXUXUXUXUXUXUXUXUXUXUXUXUXUXUXUXUXUXUXUXUXUXHXHXUXKXUXUXIXUXUXUXUXUXIXIXUXLXUXLXIXUXUXLXPXPXUXUXUXUXKXKXUXUXUXUXUXUXUXUXUXUXUXUXUXUXUXUXUX",
"UXUXUXUXUXUXUXUXUXUXUXUXUXUXUXUXUXUXUXUXUXUXUXUXUXUXUXUXUXUXUXUXLXUXUXUXUXHXUXUXUXUXUXUXUXUXUXUXUXUXUXUXUXUXUXUXUXUXUXUXUXUXUXUXUXUXUXUXUXUXUXUXUXUXUXUXUXUXUXUXUXUXUXUXUXIXUXUXIXIXIXJXIXIXIXUXUXUXUXPXUXPXPXUXUXPXUXPXKXUXPXKXUXUXUXUXUXUXUXUXUXUXUXUXUXUXUXUXUXUXUXUXUXUXUXUXUXUXUXUXUXUXUXUXUXUXUXUXUXUXUXUXUXUXUXPXUXUXUXUXGXUXUXUXUXUXPXUXUXUXUXUXUXUXUXUXUXUXUXUXUXUXUXUXUXUXUXUXUXUXUXUXUXUXUXUXUXUXUXUXUXUXUXUXUXUXUXUXUXUXUXUXUXGXUXUXIXIXIXIXIXIXIXUXUXUXUXPXPXLXUXUXUXUXUXPXUXUXPXKXUXUXUXUXUXUXUXUXUXUXUXUXUXUXUXUX",
"UXUXUXUXUXUXUXUXUXUXUXUXUXUXUXUXUXUXUXUXUXUXUXUXUXPXUXPXUXPXPXUXUXHXHXGXKXUXUXLXUXUXUXUXUXUXUXUXUXUXUXUXUXUXUXUXUXUXUXUXUXUXUXUXUXUXUXUXUXUXUXUXUXUXUXUXUXUXUXUXIXIXIXDXUXUXUXUX1 1 1 < : d u u r r t d p ; UXSXUXPXUXUXPXUXUXUXUXUXUXUXUXUXUXUXUXUXUXUXUXUXUXUXUXUXUXUXUXUXUXUXUXUXUXUXUXUXUXUXUXUXUXUXUXPXUXUXUXUXUXUXUXUXPXUXUXHXGXHXHXUXUXHXUXUXUXUXUXUXUXUXUXUXUXUXUXUXUXUXUXUXUXUXUXUXUXUXUXUXUXUXUXUXUXUXUXUXUXUXUXUXUXUXIXUXIXDXUXUXUXUX1 1 : 1 : u 1 d t r t a d > PXPXUXPXPXUXUXPXPXUXUXUXUXUXUXUXUXUXUXUXUXUXUXUXUXUX",
"UXUXUXUXUXUXUXUXUXUXUXUXUXUXUXUXUXUXUXUXUXUXUXPXUXUXUXUXUXUXUXUXUXPXUXUXUXSXUXUXUXUXUXUXUXUXUXUXUXUXUXUXUXUXUXUXUXUXUXUXUXUXUXUXUXUXUXUXUXUXUXUXUXUXUXUXUXUXUXUXIXIXUXUXGXUXUXHXu t y i i 8 y y g y g i t ! HXUXUXUXUXUXUXUXPXUXUXUXUXUXUXUXUXUXUXUXUXUXUXUXUXUXUXUXUXUXUXUXUXUXUXUXUXUXUXUXUXUXUXUXUXUXUXUXUXUXUXPXUXUXUXPXPXUXUXHXUXUXUXGXUXKXUXUXUXUXUXUXUXUXUXUXUXUXUXUXUXUXUXUXUXUXUXUXUXUXUXUXUXUXUXUXUXUXUXUXUXUXUXUXUXUXIXIXIXUXLXUXKXHXu t y i y y 0 8 g 8 g i y ! HXUXUXUXUXUXUXUXUXUXUXUXUXUXUXUXUXUXUXUXUXUXUXUXUXUX",
"UXUXUXUXUXUXUXUXUXUXUXUXUXUXUXUXUXUXUXUXUXUXUXUX< < < < > < < < < > : > , Q NXUXUXUXUXUXUXUXUXUXUXUXUXUXUXUXUXUXUXUXUXUXUXUXUXUXUXUXUXUXUXUXUXUXUXUXUXUXUXUXUXUXIXUXKXSXK t r y &X|.F.F.D.D.D.D.S.D.G.F.,.5.r f UXUXUXUXUXIXUXUXUXUXUXUXUXUXUXUXUXUXUXUXUXUXUXUXUXUXUXUXUXUXUXUXUXUXUXUXUXUXUXUXUXUXUXUXUXUXUXUX> < < < < 1 < > > < < 1 , Q SXUXUXUXUXUXUXUXUXUXUXUXUXUXUXUXUXUXUXUXUXUXUXUXUXUXUXUXUXUXUXUXUXUXUXUXUXUXUXUXUXUXLXIXUXSXK u r k -Xh.F.A.G.D.D.D.D.D.G.F.,.5.r d UXUXUXUXUXUXIXUXUXUXUXUXUXUXUXUXUXUXUXUXUXUXUXUX",
"UXUXUXUXUXUXUXUXUXUXUXUXUXUXUXUXUXUXUXUXUXPXKXPXt a t s y t t i y f r f r r UXUXUXUXUXUXUXUXUXUXUXUXUXUXUXUXUXUXUXUXUXUXUXUXUXUXUXUXUXUXUXUXUXUXUXUXUXUXUXUXUXUXUXUXPXPXw k g g F.G.I.T.H.J.K.J.P.Z.U.G.w.y.s y PXUXUXIXUXIXIXIXUXUXUXUXUXUXUXUXUXUXUXUXUXUXUXUXUXUXUXUXUXUXUXUXUXUXUXUXUXUXUXUXUXUXUXUXUXUXPXUXt a t y s y t t y i r f r r UXKXUXUXUXUXUXUXUXUXUXUXUXUXUXUXUXUXUXUXUXUXUXUXUXUXUXUXUXUXUXUXUXUXUXUXUXUXUXUXUXUXUXUXHXPXw k g g G.G.T.I.H.J.K.K.U.Z.D.G.w.y.j y PXUXUXUXIXIXIXIXUXUXUXUXUXUXUXUXUXUXUXUXUXUXUXUX",
"UXUXUXUXUXUXUXUXUXUXUXUXUXUXUXUXGXUXPXPXp r y g |.F.D.D.S.D.A.A.D.D.D.A.2.i.a d KXZXUXUXUXUXUXKXUXUXUXUXUXUXUXUXUXUXUXUXUXUXUXUXUXUXUXUXUXUXUXUXUXUXUXUXUXUXUXUXUXUXd r r.7.Z.U.S.S.I.P.J.J.L.L.P.P.v.S.S.G.0.y.s d PXPXUXFXIXIXUXUXUXUXUXUXUXUXUXUXUXUXUXUXUXUXUXUXUXUXUXUXUXUXUXUXUXUXUXUXUXUXGXUXPXPXp t t y |.F.D.I.D.S.F.A.D.Z.G.|.2.i.a d KXZXUXUXUXUXIXKXUXUXUXUXUXUXUXUXUXUXUXUXUXUXUXUXUXUXUXUXUXUXUXUXUXUXUXUXUXUXUXUXUXUXK t r.8.Z.T.S.S.L.P.J.J.L.L.P.J.v.S.Z.G.0.y.s p PXPXUXIXIXIXUXUXUXUXUXUXUXUXUXUXUXUXUXUXUXUX",
"UXUXUXUXUXUXUXUXUXUXUXUXUXUXUXUXUXUXPXPXf y y 8 A.D.K.K.K.V.S.L.P.b.J.B.w.w.r r BXKXUXAXIXGXKXUXUXUXUXUXUXUXUXUXUXUXUXUXUXUXUXUXUXUXUXUXUXUXUXUXUXUXUXUXUXUXUXUXUXLX; l 0.j.Y.z.x.x.V.m.b.J.L.B.P.P.N.b.L.Z.*.7.s > PXPXUXUXVXJXUXUXUXUXUXUXUXUXUXUXUXUXUXUXUXUXUXUXUXUXUXUXUXUXUXUXUXUXUXUXUXUXUXUXUXSXf y y e D.L.J.K.K.b.L.L.J.m.V.z.=.w.t ; BXKXUXLXUXLXKXKXUXUXUXUXUXUXUXUXUXUXUXUXUXUXUXUXUXUXUXUXUXUXUXUXUXUXUXUXUXUXUXUXUXLX: j w.j.Y.z.x.x.V.m.b.P.B.L.L.P.M.V.v.Z.*.r.s > PXPXUXIXVXJXUXUXUXUXUXUXUXUXUXUXUXUXUXUXUXUX",
"UXUXUXUXUXUXUXUXUXUXUXUXUXUXUXUXUXUXp s 5.5.<XA.A.L.b.m.K.b.L.B.v.c.v.Y.Z.G.i.g.s p UXIXIXUXGXUXUXUXUXUXUXUXUXUXUXUXUXUXUXUXUXUXUXUXUXUXUXUXUXUXUXUXUXUXUXUXUXUXPXUXr j Z.L.H.L.B.B.V.J.J.b.B.L.v.b.M.V.T.R.D.XXk J SXPXUXIXIXIXUXUXUXUXUXUXUXUXUXUXUXUXUXUXUXUXUXUXUXUXUXUXUXUXUXUXUXUXUXUXUXUXUXUXp f 3.5.<XA.A.S.b.n.m.V.L.x.M.z.B.Y.Z.G.f.i.y p UXIXIXUXHXUXUXUXUXUXUXUXUXUXUXUXUXUXUXUXUXUXUXUXUXUXUXUXUXUXUXUXUXUXUXUXUXUXHXUXr g C.H.b.V.B.B.b.J.J.b.L.B.v.b.N.V.I.XXZ.|.k s PXPXUXLXIXLXUXUXUXUXUXUXUXUXUXUXUXUXUXUXUXUX",
"UXUXUXUXUXUXUXUXUXUXUXUXUXUXUXUXUXUXa w a.f.C.C.S.L.b.m.m.b.L.S.U.B.b.U.z.Z.w.4.s P PXUXDXGXKXUXUXUXUXUXUXUXUXUXUXUXUXUXUXUXUXUXUXUXUXUXUXUXUXUXUXUXUXUXUXUXUXUXUXPXs e T.R.v.V.B.B.b.b.b.J.B.L.P.J.N.z.Z.Z.l.F.s > PXPXUXUXLXCXUXUXUXUXUXUXUXUXUXUXUXUXUXUXUXUXUXUXUXUXUXUXUXUXUXUXUXUXUXUXUXUXUXUXp y g.y.C.A.S.B.b.m.m.P.L.L.U.B.J.K.v.Z.w.5.s L UXIXDXDXPXUXUXUXUXUXUXUXUXUXUXUXUXUXUXUXUXUXUXUXUXUXUXUXUXUXUXUXUXUXUXUXUXUXUXPXs e T.R.v.P.B.B.b.b.b.J.B.L.Y.P.v.c.Z.H.Z.F.s > UXPXUXUXJXJXUXUXUXUXUXUXUXUXUXUXUXUXUXUXUXUX",
"UXUXUXUXUXUXUXUXUXUXUXUXUXUXUXUXLXUXt k F.F.G.I.B.B.b.b.b.J.H.B.x.M.B.Y.T.R.H.G.s G PXUXUXUXUXLXUXUXUXUXUXUXUXUXUXUXUXUXUXUXUXUXUXUXUXUXUXUXUXUXUXUXUXUXUXUXUXUX1 K 3.y.D.Z.P.b.V.V.b.J.J.V.L.V.v.J.V.U.U.G.T.F.8X,XL J PXUXUXIXUXUXUXUXUXUXUXUXUXUXUXUXUXUXUXUXUXUXUXUXUXUXUXUXUXUXUXUXUXUXUXUXLXUXt s C.F.G.S.x.B.b.b.m.J.P.L.x.x.M.U.R.R.H.G.s G PXUXUXUXUXLXUXUXUXUXUXUXUXUXUXUXUXUXUXUXUXUXUXUXUXUXUXUXUXUXUXUXUXUXUXUXUXUX< d 3.f.D.H.J.v.b.V.J.B.J.b.b.L.v.v.V.U.U.S.T.C.8X,XK d UXUXUXUXUXUXUXUXUXUXUXUXUXUXUXUXUXUXUXUX",
"UXUXUXUXUXUXUXUXUXUXUXUXUXUXUXUXUXUXs e *XI.L.B.B.B.N.b.m.J.J.L.M.M.L.H.H.H.K.T.J H UXUXHXUXUXUXUXUXUXUXUXUXUXUXUXUXUXUXUXUXUXUXUXUXUXUXUXUXUXUXUXUXUXUXUXUXUXUX1 r 6.u.I.I.P.v.b.b.B.V.V.J.B.b.J.J.J.v.z.l.G.F.9X8X> G UXUXAXHXUXUXUXUXUXUXUXUXUXUXUXUXUXUXUXUXUXUXUXUXUXUXUXUXUXUXUXUXUXUXUXUXUXPXs e *XT.H.v.B.M.N.b.J.J.J.B.B.M.B.P.H.H.K.D.J G PXUXKXLXUXUXUXUXUXUXUXUXUXUXUXUXUXUXUXUXUXUXUXUXUXUXUXUXUXUXUXUXUXUXUXUXUXUX1 ; f.t.D.I.P.v.b.b.V.J.V.J.B.V.J.J.P.v.z.l.G.<X9XdXG > UXUXNXKXUXUXUXUXUXUXUXUXUXUXUXUXUXUXUXUX",
"UXUXUXUXUXUXUXUXUXUXUXUXUXUXUXUX, p a.y.Z.R.c.V.M.M.N.V.b.J.J.L.x.M.V.L.I.H.K.T.9X,XH d PXUXUXIXUXUXUXUXUXUXUXUXUXUXUXUXUXUXUXUXUXUXUXUXUXUXUXUXUXUXUXUXUXUXUXUX, a d.t.T.I.z.Y.m.m.P.L.J.v.B.L.v.J.H.H.V.XXlXBX6.g.] %X, , UXKXUXUXUXUXUXUXUXUXUXUXUXUXUXUXUXUXUXUXUXUXUXUXUXUXUXUXUXUXUXUXUXUX, p s.y.H.R.v.b.V.M.M.V.J.J.J.L.M.M.P.I.H.H.R.T.9X:XH d PXUXUXUXUXUXUXUXUXUXUXUXUXUXUXUXUXUXUXUXUXUXUXUXUXUXUXUXUXUXUXUXUXUXUXUX1 a f.t.T.I.z.Y.m.m.P.B.J.L.B.L.z.J.K.H.V.XXlXnX6.s.] %X, , UXUXUXUXUXUXUXUXUXUXUXUXUXUXUXUXUXUX",
"UXUXUXUXUXUXUXUXUXUXUXUXUXUXUXUXH d a.r.R.K.n.N.M.M.M.B.J.J.J.P.M.M.M.v.U.H.T.F.8X,XK > PXUXGXUXUXUXUXUXUXUXUXUXUXUXUXUXUXUXUXUXUXUXUXUXUXUXUXUXUXUXUXUXUXUXUXUX1 r r.j.C.I.L.c.J.m.L.B.L.J.P.B.x.L.R.K.N.S.cXBX6.f.' [ H 1 PXPXUXUXUXUXUXUXUXUXUXUXUXUXUXUXUXUXUXUXUXUXUXUXUXUXUXUXUXUXUXUXUXUX1 d a.r.R.K.m.c.M.M.V.B.J.J.J.J.c.M.V.L.H.Z.T.G.9XdXK > UXUXLXUXUXUXUXUXUXUXUXUXUXUXUXUXUXUXUXUXUXUXUXUXUXUXUXUXUXUXUXUXUXUXUXUX1 r 4.j.Z.I.L.c.m.b.L.L.B.J.L.B.B.H.R.J.c.S.cXSX6.s.] ' G < PXPXUXUXUXUXUXUXUXUXUXUXUXUXUXUXUXUX",
"UXUXUXUXUXUXUXUXUXUXUXUXUXUXUXUX1 a a.0.R.K.n.n.M.M.B.J.P.J.J.P.V.V.Y.c.U.G.lXnX5.g.] ' H H UXUXUXUXUXUXUXUXUXUXUXUXUXUXUXUXUXUXUXUXUXUXUXUXUXUXUXUXUXUXUXUXUXUX; f r.t.j.9.v.P.J.b.L.S.L.P.L.L.z.U.H.R.-.=.BXnXf.6.mXAXMXNXK p UXUXUXUXUXUXUXUXUXUXUXUXUXUXUXUXUXUXUXUXUXUXUXUXUXUXUXUXUXUXUXUX1 p 6.r.R.n.n.N.M.M.V.B.L.J.H.P.b.V.Y.c.U.G.lXcXa.g.] ' , G PXUXUXUXUXUXUXUXUXUXUXUXUXUXUXUXUXUXUXUXUXUXUXUXUXUXUXUXUXUXUXUXUXUX, l r.t.j.9.Z.P.J.J.L.L.P.P.L.L.l.I.H.R.-.&.BXBXf.4.AXMXMXNXd p UXUXUXUXUXUXUXUXUXUXUXUXUXUXUXUX",
"UXUXUXUXUXUXUXUXUXUXUXUXUXUXUXUX< p f.u.H.k.n.c.B.B.L.L.I.H.I.P.v.c.c.V.z.A.vXBX5.a.~ [ G G UXPXUXUXUXUXUXUXUXUXUXUXUXUXUXUXUXUXUXUXUXUXUXUXUXUXUXUXUXUXUXUXUXUX< a <.q.q.9.S.U.J.H.L.S.L.L.L.L.XXU.H.Z.-.e.cXBXa.s.mXmXAXAX> K UXUXUXUXUXUXUXUXUXUXUXUXUXUXUXUXUXUXUXUXUXUXUXUXUXUXUXUXUXUXUXUX1 p f.t.K.k.n.N.V.x.S.I.H.P.L.P.H.c.c.M.l.A.vXnX5.a.~ [ G G UXUXUXUXUXUXUXUXUXUXUXUXUXUXUXUXUXUXUXUXUXUXUXUXUXUXUXUXUXUXUXUXUXUX< i 4.t.0.9.S.P.P.J.L.S.L.L.L.L.XXU.H.L.*.e.cXBXs.s.mXmXAXAX> K UXUXUXUXUXUXUXUXUXUXUXUXUXUXUXUX",
"UXUXUXUXUXUXUXUXUXUXUXUXUXUXUXUXK r y.7.j.k.n.J.B.S.S.L.I.H.L.P.Y.P.P.V.&.2.BXBX6.5.UXmXAXAX, < UXUXUXUXUXUXUXUXUXUXUXUXUXUXUXUXUXUXUXUXUXUXUXUXUXUXUXUXUXUXUXUX: s f.u.t.9.9.*.*.9.9.9.9.9.*.9. .%.&.j.e.%.h.4.9X>XSXSXmXmXK , UXUXUXUXUXUXUXUXUXUXUXUXUXUXUXUXUXUXUXUXUXUXUXUXUXUXUXUXUXUXUXUXK r y.7.j.j.m.Y.B.B.L.H.L.I.H.L.Y.J.P.P.&.2.BXBX6.6.PXAXAXAX> H UXUXUXUXUXUXUXUXUXUXUXUXUXUXUXUXUXUXUXUXUXUXUXUXUXUXUXUXUXUXUXUXd a y.u.q.9.9.*.9.*.*.8.9.9.9.*. .*.9.j.w.%.u.6.gX:XSXSXmXmXK , UXUXUXUXUXUXUXUXUXUXUXUXUXUXUXUX",
"UXUXUXUXUXUXUXUXUXUXUXUXUXUXUXUXd r a.8. .-.k.z.B.S.I.D.I.I.I.P.H.z.B.B.=.p.cXnXa.i.mXLXAXAXK , UXUXUXUXUXUXUXUXUXUXUXUXUXUXUXUXUXUXUXUXUXUXUXUXUXUXUXUXUXUXUXUXd t a.w.7.9.9.8.9.e.e.9.9.9.9.8.j.9.&.%.7.w.0.4.fXpXSXmXAXAX1 K UXUXUXUXUXUXUXUXUXUXUXUXUXUXUXUXUXUXUXUXUXUXUXUXUXUXUXUXUXUXUXUXd t y.:.-.-.c.V.S.S.D.I.I.H.S.L.v.z.P.x.&.p.cXBXi.i.mXAXDXAXH , UXUXUXUXUXUXUXUXUXUXUXUXUXUXUXUXUXUXUXUXUXUXUXUXUXUXUXUXUXUXUXUXu r a.t.7.9.9.9.e.e.8.e.9.9.8.e.j.e.&.%.w.0.t.4.8XpXSXmXSXAXG K UXUXUXUXUXUXUXUXUXUXUXUXUXUXUXUX",
"UXUXUXUXUXUXUXUXUXUXUXUXUXUXUXUXd r f.u.*.*.j.*.8.0.e.0.q.9.9.*.j.9.9.8.%.%.f.a.9X>XSXmXAXmXH H UXUXUXUXUXUXUXUXUXUXUXUXUXUXUXUXUXUXUXUXUXUXUXUXUXUXUXUXUXUXUXUXd r g.y.7.j.e.e.w.=.w.8.8.8.*.8.7.8.e.=.u.u.7.f.Y Y SXSXaXaX> > UXUXUXUXUXUXUXUXUXUXUXUXUXUXUXUXUXUXUXUXUXUXUXUXUXUXUXUXUXUXUXPXp t y.u.9.*.j.*.9.e.0.0.q.9.8.*.j.9.j.&.%.<.f.a.9X>XSXAXmXmXT H UXUXUXUXUXUXUXUXUXUXUXUXUXUXUXUXUXUXUXUXUXUXUXUXUXUXUXUXUXUXUXUX< t a.y.8.9.e.e.=.w.7.8.8.8.8.*.%.=.e.*.0.u.w.f.Y Y nXSXaXaX> , UXUXUXUXUXUXUXUXUXUXUXUXUXUXUXUX",
"UXUXUXUXUXUXUXUXUXUXUXUXUXUXUXUXp s 6.r.e.*.&.&.0.e.t.q.0.9.=.=.=.%.8.8.e.u.u.r.9X8XPXSXLXmXH H UXUXUXUXUXUXUXUXUXUXUXUXUXUXUXUXUXUXUXUXUXUXUXUXUXUXUXUXUXUXUXUXu a ( 6.t.9.%.%.w.w.e.e.e.e.e.w.8.w.=.&.0.u.<.y.U L SXbXpXdXG K UXUXUXUXUXUXUXUXUXUXUXUXUXUXUXUXUXUXUXUXUXUXUXUXUXUXUXUXUXUXUXUXp s 6.y.9.*.&.&.8.0.t.0.q.9.e.=.=.%.*.w.u.u.t.d.8X8XSXSXPXAXG 1 UXUXUXUXUXUXUXUXUXUXUXUXUXUXUXUXUXUXUXUXUXUXUXUXUXUXUXUXUXUXUXUXd a ) 2.u.e.%.%.w.w.e.0.e.e.e.e.7.e.=.=.0.u.<.f.U Y mXmXaXfX, K UXUXUXUXUXUXUXUXUXUXUXUXUXUXUXUX",
"UXUXUXUXUXUXUXUXUXUXUXUXUXUXUXUXp y 2.2.e.=.w.e.w.0.0.t.0.9.=.=.p.w.e.u.t.>.q.t.U L AXmX>X,XK G UXUXUXUXUXUXUXUXUXUXUXUXUXUXUXUXUXUXUXUXUXUXUXUXUXUXUXUXUXUXUXUX< r u k 7.9.e.u.2.2.w.0.w.8.w.w.u.e.=.=.0.y.} } 8XdXdXdXL > PXIXUXUXUXUXUXUXUXUXUXUXUXUXUXUXUXUXUXUXUXUXUXUXUXUXUXUXUXUXUXUXUXUXa s 6.<.e.=.e.e.w.r.t.t.9.9.=.=.w.p.u.t.q.q.q.t.U L nXAX>XpXL H UXUXUXUXUXUXUXUXUXUXUXUXUXUXUXUXUXUXUXUXUXUXUXUXUXUXUXUXUXUXUXUX< u t g 7.j.e.p.2.w.w.u.q.7.w.w.e.w.%.8.w.u.| h 8XdXdXdXL G UXUXUXUXUXUXUXUXUXUXUXUXUXUXUXUXUXUX",
"UXUXUXUXUXUXUXUXUXUXUXUXUXUXUXUXu s 6.y.u.e.7.w.e.r.t.t.0.e.=.=.=.w.<.u.t.t.j.7.U Y SXAXpXpX1 G UXUXUXUXUXUXUXUXUXUXUXUXUXUXUXUXUXUXUXUXUXUXUXUXUXUXUXUXUXUXUXUX9 u 7 0 y.0.y.2.i.6.6.y.y.y.y.6.2.2.w.y.r.r.;.U 8X8X8X,XG G UXUXUXUXUXUXUXUXUXUXUXUXUXUXUXUXUXUXUXUXUXUXUXUXUXUXUXUXUXUXUXUXUXUXr i 6.y.y.e.=.w.w.0.u.t.t.e.=.=.=.w.<.u.t.q.j.r.U Y SXAXpX,XG , UXUXUXUXUXUXUXUXUXUXUXUXUXUXUXUXUXUXUXUXUXUXUXUXUXUXUXUXUXUXUXUXr u 9 i r.r.w.4.i.i.6.y.y.y.y.2.2.y.2.y.y.4.;.k 8X8X,X,XJ G UXUXUXUXUXUXUXUXUXUXUXUXUXUXUXUXUXUX",
"UXUXUXUXUXUXUXUXUXUXUXUXUXUXUXUXu r f k y.7.u.7.8.8.u.0.0.w.w.e.0.u.y.2.f.0.} h 8XaXpXfX> J IXIXUXUXUXUXUXUXUXUXUXUXUXUXUXUXUXUXUXUXUXUXUXUXUXUXUXUXUXUXUXUXUXKX= b D D i y s J p p p a s t s r u ; f s J J J L > d J r UXUXLXUXUXUXUXUXUXUXUXUXUXUXUXUXUXUXUXUXUXUXUXUXUXUXUXUXUXUXUXUXUXUXUXUX< r f k y.<.u.8.8.0.u.8.u.7.=.w.0.u.y.2.u.r.} h 8XfXpXfX> J IXIXUXUXUXUXUXUXUXUXUXUXUXUXUXUXUXUXUXUXUXUXUXUXUXUXUXUXUXUXUXUXUXKX: x ( A j y s J J J J p a r s y u ; k s J J J L p d p p UXPXLXUXUXUXUXUXUXUXUXUXUXUXUXUXUXUXUXUX",
"UXUXUXUXUXUXUXUXUXUXUXUXUXUXUXKXd u y w a.f.6.y.y.y.y.6.f.y.2.2.0.4.3.6.a.6.;.I dX,XpX,XJ p UXIXUXUXUXUXUXUXUXUXUXUXUXUXUXUXUXUXUXUXUXUXUXUXUXUXUXUXUXUXUXUXUXKXm 5 b D 3 y s w d f : u d p y d : 1 a J J J ~ G J a t t UXUXUXUXUXUXUXUXUXUXUXUXUXUXUXUXUXUXUXUXUXUXUXUXUXUXUXUXUXUXUXUXUXUXUXUXf u y w 6.f.6.y.p.y.y.y.f.y.2.w.r.y.5.5.f.6.;.I dX,XfX,XJ p UXIXUXUXUXUXUXUXUXUXUXUXUXUXUXUXUXUXUXUXUXUXUXUXUXUXUXUXUXUXUXUXUXKXu 9 A ( 7 y s a J L 1 d u u y a u : w L J G ~ G K p t t KXUXPXUXUXUXUXUXUXUXUXUXUXUXUXUXUXUXUXUX",
"UXUXUXUXUXUXUXUXUXUXUXUXUXUXUXUXu 4 1./ s s t s r p G J p s t f y y u t r a s P > ~ > > PXPXPXUXUXUXUXUXUXUXUXUXUXUXUXUXUXUXUXUXUXUXUXUXUXUXUXUXUXUXUXUXUXUXUXUXPXPXy 0 $.O.2.#.Z Z S 1.8 0 #.S 9 u ^ I :X:X% o ^ ^ ^ / KXHXPXIXUXUXUXUXUXUXUXUXUXUXUXUXUXUXUXUXUXUXUXUXUXUXUXUXUXUXUXUXUXUXUXKXu 4 1./ s s a s w p G J p s a f y y i t r a s P - ~ > > PXPXUXUXUXUXUXUXUXUXUXUXUXUXUXUXUXUXUXUXUXUXUXUXUXUXUXUXUXUXUXUXUXUXUXUXKXPXs y 1.O.+.$.S B V $.4 8 $.S 9 u / ^ :X=X% o ! ^ / ^ KXPXUXLXUXUXUXUXUXUXUXUXUXUXUXUXUXUXUXUX",
"UXUXUXUXUXUXUXUXUXUXUXUXUXUXUXKX9 j V 1.7 r r t ! d p J p a s a f t d p d K J Q J p K J UXUXUXHXUXUXUXUXUXUXUXUXUXUXUXUXUXUXUXUXUXUXUXUXUXUXUXUXUXUXUXUXUXUXUXUXSXPXp y Z O.+.@.+.$.@.#.4 q @.B 3 9 ^ ) &X:X  . ) ( C ^ KXUXUXUXUXUXUXUXUXUXUXUXUXUXUXUXUXUXUXUXUXUXUXUXUXUXUXUXUXUXUXUXUXUXUXKX0 0 V 1.r r r t P d > J p p s t d t d r K K < K L p K H UXUXUXGXUXUXUXUXUXUXUXUXUXUXUXUXUXUXUXUXUXUXUXUXUXUXUXUXUXUXUXUXUXUXUXUXPXPXr w #.B O.+.+.O.X.X.4 q $.B 9 7 ^ / =X:Xo . ) ( C C KXUXUXUXUXUXUXUXUXUXUXUXUXUXUXUXUXUXUXUX",
"UXUXUXUXUXUXUXUXUXUXUXUXUXUXUXKXZXvX9 3 $.2.@.V Z B O.V 8 8 ,.Z 7 t ^ ) =X&X$ o ^ P ^ ! GXUXUXUXUXUXUXUXUXUXUXUXUXUXUXUXUXUXUXUXUXUXUXUXUXUXUXUXUXUXUXUXUXUXUXUXUXPX@ + f j @.X.O.@.q 8  X<XOX3Xq q <X4XBXzX. + 1X<XZ C KXKXHXUXUXUXUXUXUXUXUXUXUXUXUXUXUXUXUXUXUXUXUXUXUXUXUXUXUXUXUXUXUXUXUXUXCXvX0 3 $.2.B @.B Z @.@.8 y 1./ 7 t ^ ) &X=X$ o ) P ^ ! GXUXUXUXUXUXUXUXUXUXUXUXUXUXUXUXUXUXUXUXUXUXUXUXUXUXUXUXUXUXUXUXUXUXUXUXUXKX. + 0 j X.X.X.X.6 q  XOX X3Xq q <X4XvXzXO + 4X<Xz C ZXKXGXUXUXUXUXUXUXUXUXUXUXUXUXUXUXUXUXUX",
"UXUXUXUXUXUXUXUXUXUXUXUXUXUXUXUXvXZX9 9 S n B $.@.@.X...q 4 +.$.0 y ,.U :X:Xo O ) / ) ( KXIXUXPXUXUXUXUXUXUXUXUXUXUXUXUXUXUXUXUXUXUXUXUXUXUXUXUXUXUXUXUXUXUXUXUXIXUXo . 7 8 V @.X.@.4 8 5X3XOXOX4 q 2X2XvXvX+ # 4X7X( ^ CXKXJXUXUXUXUXUXUXUXUXUXUXUXUXUXUXUXUXUXUXUXUXUXUXUXUXUXUXUXUXUXUXUXUXKXCXZX9 9 S n @.$.@.@.X.X.q 4 +.#.8 i 3.U :X=Xo o U / / ( KXIXUXPXUXUXUXUXUXUXUXUXUXUXUXUXUXUXUXUXUXUXUXUXUXUXUXUXUXUXUXUXUXUXUXUXKXKX  . 7 7 $.@.X.@.4 4 3X5X2X2X4 q 2X2XvXvX# # 4X4X,.^ ZXKXHXUXUXUXUXUXUXUXUXUXUXUXUXUXUXUXUXUX",
"UXUXUXUXUXUXUXUXUXUXUXUXUXUXUXUXUXVX. + 9 9 5.S S V 3 j  X X5X1X4 g 1X1XmXmX$ . 7X1Xl f ZXIXUXUXUXUXUXUXUXUXUXUXUXUXUXUXUXUXUXUXUXUXUXUXUXUXUXUXUXUXUXUXUXUXUXUXIXUXUXPXu 5 n V X.B 8 q  X X+XoX@X.XwXuXuXuXxXxX0XlX<X;XZXKXUXUXUXUXUXUXUXUXUXUXUXUXUXUXUXUXUXUXUXUXUXUXUXUXUXUXUXUXUXUXUXUXUXUXUXVXX + 9 9 1.A S V 5 0  X X6X<X4 q 1X1XnXbX$ + 4X1Xl N ZXKXUXUXUXUXUXUXUXUXUXUXUXUXUXUXUXUXUXUXUXUXUXUXUXUXUXUXUXUXUXUXUXUXUXUXIXUXKXZXu 9 Z V n n q q  X<X3X1X@X@XwXiXuXuXxXyXtXxX1X;XZXJXKXUXUXUXUXUXUXUXUXUXUXUXUXUXUXUXUXUX",
"UXUXUXUXUXUXUXUXUXUXUXUXUXUXUXIXIXIX  . 9 9 A ( V $.0 5 3X.X2X2Xq 4 1X7XBXcX. . <X7XZ C ZXZXUXUXUXUXUXUXUXUXUXUXUXUXUXUXUXUXUXUXUXUXUXUXUXUXUXUXUXUXUXUXUXUXUXUXUXIXIXKX= 5 S V V 1.2 8 3X+XoX+X@X@XwXeXuXuXyXlXlXlX4X4XZXHXKXHXUXUXUXUXUXUXUXUXUXUXUXUXUXUXUXUXUXUXUXUXUXUXUXUXUXUXUXUXUXUXUXUXIXIX    9 7 ( ( V $.7 3 +XOX3X2Xq 4 7X7XBXnX+ + 4X7XZ C ZXHXPXUXUXUXUXUXUXUXUXUXUXUXUXUXUXUXUXUXUXUXUXUXUXUXUXUXUXUXUXUXUXUXUXUXIXIXKXUX; u ) ( V $.4 4 7X5X|.@XXX3XrXeXuXuXyXlXxXlX1X5XCXJXUXPXUXUXUXUXUXUXUXUXUXUXUXUXUXUXUXUX",
"UXUXUXUXUXUXUXUXUXUXUXUXUXUXUXUXFXFXKXKX7 i O.+.X.O.q q oX+X<X2XOXOXiXrXzXzXuXzXtXyXOX4XvXKXLXUXUXUXUXUXUXUXUXUXUXUXUXUXUXUXUXUXUXUXUXUXUXUXUXUXUXUXUXUXUXUXUXUXIXUXCXZXZXKX. + @ @ ( S q 4 oX@X@X|.6X XuXzXtXlXz / CXZXKXUXUXUXUXUXUXUXUXUXUXUXUXUXUXUXUXUXUXUXUXUXUXUXUXUXUXUXUXUXUXUXUXUXUXUXFXIXKXKX7 y O.+.+...q 4 +X3X<XOXOXOXiXtXzXzXzXxXlXyXOX4XvXKXHXUXUXUXUXUXUXUXUXUXUXUXUXUXUXUXUXUXUXUXUXUXUXUXUXUXUXUXUXUXUXUXUXUXKXKXLXUXUXPXO . + # S Z k y .XoX@XXXOX2XuXrXxXyXC Z HXKXKXJXUXUXUXUXUXUXUXUXUXUXUXUXUXUXUXUXUXUX",
"UXUXUXUXUXUXUXUXUXUXUXUXUXUXUXUXFXIXUXKXf i B +.+.O.q 4 .X.X+XOX+X}.iXiXuXuXcXtXiXiX2X2XZXKXUXPXUXUXUXUXUXUXUXUXUXUXUXUXUXUXUXUXUXUXUXUXUXUXUXUXUXUXUXUXUXUXUXUXUXJXKXHXGXUX  + # @ C 1.2 q +X|..X6X2X2XuXxXyXxXl / vXHXKXUXHXUXUXUXUXUXUXUXUXUXUXUXUXUXUXUXUXUXUXUXUXUXUXUXUXUXUXUXUXUXUXUXUXUXFXIXUXKXf i O.$.%.O.q 4 .XOX+XoXoX}.iXiXuXzXzXtXiXiX2X2XZXKXUXUXUXUXUXUXUXUXUXUXUXUXUXUXUXUXUXUXUXUXUXUXUXUXUXUXUXUXUXUXUXUXUXUXUXVXKXUXSXUX. + + # S ( y e .XoX3X1X2X5XtXlXxXlXl / nXHXIXIXKXPXUXUXUXUXUXUXUXUXUXUXUXUXUXUXUXUX",
"UXUXUXUXUXUXUXUXUXUXUXUXUXUXUXUXUXHXUXPXPXPX+ . @ # S B q 4 oXoXoXoXOXOXiXlXyXxXC S vXZXZXHXUXUXUXUXUXUXUXUXUXUXUXUXUXUXUXUXUXUXUXUXUXUXUXUXUXUXUXUXUXUXUXUXUXUXKXKXUXUXUXKX: = ].~.6 4 j g 4 j 1X<XC A Z Z Z l ZXBXKXUXHXPXUXUXUXUXUXUXUXUXUXUXUXUXUXUXUXUXUXUXUXUXUXUXUXUXUXUXUXUXUXUXUXUXUXUXKXKXIXUXPXPX. . . # S B j 4 oXoXoXoX+X XyXxXlXxXC ( vXCXZXHXPXUXUXUXUXUXUXUXUXUXUXUXUXUXUXUXUXUXUXUXUXUXUXUXUXUXUXUXUXUXUXUXUXUXUXUXUXKXUXKX: = ~.~.6 8 8 q q 4 1X4XA m z ,.j ^ HXBXKXKXGXIXUXUXUXUXUXUXUXUXUXUXUXUXUXUXUXUXUXUX",
"UXUXUXUXUXUXUXUXUXUXUXUXUXUXUXKXKXKXUXUXPXPX. @   @ A ( 8 4 oXoXoX+X.X6X0XyXyXyXC N CXZXCXHXUXUXUXUXUXUXUXUXUXUXUXUXUXUXUXUXUXUXUXUXUXUXUXUXUXUXUXUXUXUXUXUXUXUXKXKXUXPXLXZX5 b Q.E.b 4 4 8 3 4 <X9XN C / l 3./ CXHXUXUXUXUXUXUXUXUXUXUXUXUXUXUXUXUXUXUXUXUXUXUXUXUXUXUXUXUXUXUXUXUXUXUXUXUXUXUXKXKXUXUXPXPX. +   @ A S 0 8 oXoXoX+X+X6X0XyX0XyXj N ZXZXCXKXUXUXUXUXUXUXUXUXUXUXUXUXUXUXUXUXUXUXUXUXUXUXUXUXUXUXUXUXUXUXUXUXUXUXUXUXKXGXCXvX5 b Q._.6 4 6 6 4 4 5X4XA _ ,.| / ^ CXCXPXUXIXUXUXPXUXUXUXUXUXUXUXUXUXUXUXUXUXUXUXUX",
"UXUXUXUXUXUXUXUXUXUXUXUXUXUXUXUXZXKXUXPXKXZX= 5 ].].m u 0 5 5 4 3X1Xz z | ;.| ,.CXZXKXZXUXKXUXGXUXUXUXUXUXUXUXUXUXUXUXUXUXUXUXUXUXUXUXUXUXUXUXUXUXUXUXUXUXUXUXUXKXBXKXKXJ i ].(._./.).`.O.$.^.^.2XtX>X9X/ / BXHXUXIXJXIXUXPXUXUXUXUXUXUXUXUXUXUXUXUXUXUXUXUXUXUXUXUXUXUXUXUXUXUXUXUXUXUXUXUXUXUXZXKXUXPXZXCX= 5 ].~.: ; 8 3 6 4 6X1Xh O.| ;.;./ HXZXKXKXKXKXUXGXUXUXUXUXUXUXUXUXUXUXUXUXUXUXUXUXUXUXUXUXUXUXUXUXUXUXUXUXUXUXUXUXPXHXZXZX9 0 ].W./././.).n n !.^.4X9X>X>Xh | BXUXKXUXKXIXIXUXUXUXUXUXUXUXUXUXUXUXUXUXUXUXUXUXUXUX",
"UXUXUXUXUXUXUXUXUXUXUXUXUXUXUXUXKXZXPXPXZXvX6 b W.W.b q 6 4 6 6 2X0X/ ;.;.| z U HXUXGXIXIXPXUXUXUXUXUXUXUXUXUXUXUXUXUXUXUXUXUXUXUXUXUXUXUXUXUXUXUXUXUXUXUXUXUXUXUXKXKXKXp i ^.(./././.`.X.V ~.~.qX,X9X9XU ;.SXPXKXDXFXIXUXPXUXGXUXUXUXUXUXUXUXUXUXUXUXUXUXUXUXUXUXUXUXUXUXUXUXUXUXUXUXUXUXUXUXKXKXHXPXPXCXvX6 b Q.~.0 9 4 4 5 6 <X0X/ U ;.| z / HXUXJXIXUXPXUXUXUXUXUXUXUXUXUXUXUXUXUXUXUXUXUXUXUXUXUXUXUXUXUXUXUXUXUXUXUXUXUXUXUXKXZXZX7 0 !.'./././.`.n V }.].;X>XqX>X;.| BXKXHXUXIXIXUXUXUXHXUXUXUXUXUXUXUXUXUXUXUXUXUXUXUXUX",
"UXUXUXUXUXUXUXUXUXUXUXUXUXUXUXUXIXIXUXPXr 5 Q.E._._.o.{...o.`.].5X,X>X9XI / SXPXUXDXIXIXDXUXKXKXUXUXUXUXUXUXUXUXUXUXUXUXUXUXUXUXUXUXUXUXUXUXUXUXUXUXUXUXUXUXUXUXIXIXNXZX+ + $..././.).!.# . x v c T . @ 6.4.l f FXDXFXIXUXPXUXUXUXUXUXUXUXUXUXUXUXUXUXUXUXUXUXUXUXUXUXUXUXUXUXUXUXUXUXUXUXUXUXUXIXIXUXKXi 3 W.E././.W.{.....`.].4XpX8X9XI / BXPXPXGXFXFXDXUXKXUXUXUXUXUXUXUXUXUXUXUXUXUXUXUXUXUXUXUXUXUXUXUXUXUXUXUXUXUXUXUXUXUXIXIXVXHX+ + o.../.)...B & + x v T T v ! :.;.I ; IXJXFXFXIXKXUXUXUXUXUXUXUXUXUXUXUXUXUXUXUXUXUXUX",
"UXUXUXUXUXUXUXUXUXUXUXUXUXUXUXUXIXIXUXUXr 6 '.E.E./.).`.....`.].qX,X,X8XI I PXPXUXIXFXFXIXUXUXUXUXUXUXUXUXUXUXUXUXUXUXUXUXUXUXUXUXUXUXUXUXUXUXUXUXUXUXUXUXUXUXUXFXFXKXZX. # S ..)./.(.].+ . v v T K o @ ) 3.f < FXDXFXFXKXLXUXKXUXUXUXUXUXUXUXUXUXUXUXUXUXUXUXUXUXUXUXUXUXUXUXUXUXUXUXUXUXUXUXUXIXIXUXUXr 6 '././././.`.....{.{.qX>X>X8XI I PXPXUXIXFXFXIXUXPXUXUXUXUXUXUXUXUXUXUXUXUXUXUXUXUXUXUXUXUXUXUXUXUXUXUXUXUXUXUXUXUXUXIXFXUXUX  + n ..(.(.X.( . % R 1 T T T J >.d.p Q KXJXFXFXIXKXUXKXUXUXUXUXUXUXUXUXUXUXUXUXUXUXUXUX",
"UXUXUXUXUXUXUXUXUXUXUXUXUXUXUXUXHXUXUXLX@ + n o.Q.E.E.`.@ + b m c m   + 3.3.J d PXPXUXIXIXUXKXPXUXUXUXUXUXUXUXUXUXUXUXUXUXUXUXUXUXUXUXUXUXUXUXUXUXUXUXUXUXUXUXUXFXFXKXPX. + }.!.n ....$.@ . v c 1 M 1 M .   M v IXFXFXFXIXUXUXUXUXUXUXUXUXUXUXUXUXUXUXUXUXUXUXUXUXUXUXUXUXUXUXUXUXUXUXUXUXUXUXUXKXUXPXPX@ + n .././.Q.`.& + b b m m X + 3.3.s d PXUXIXIXUXUXPXKXUXUXUXUXUXUXUXUXUXUXUXUXUXUXUXUXUXUXUXUXUXUXUXUXUXUXUXUXUXUXUXUXPXUXKXUX% . ^.(.....$ X T K 1 Q o % I ;.>.d.d v KXUXDXDXUXUXHXUXUXUXUXUXUXUXUXUXUXUXUXUXUXUXUXUX",
"UXUXUXUXUXUXUXUXUXUXUXUXUXUXUXUXKXNXUXPX. & n n _._.!.].# @ : v u N . . 5.3.d ! UXUXUXUXUXUXUXPXUXUXUXUXUXUXUXUXUXUXUXUXUXUXUXUXUXUXUXUXUXUXUXUXUXUXUXUXUXUXUXUXDXUXUXPX. + ].`.n n @.Z . . v m d M M 1   X , Q UXDXIXUXUXGXUXUXUXUXUXUXUXUXUXUXUXUXUXUXUXUXUXUXUXUXUXUXUXUXUXUXUXUXUXUXUXUXUXUXZXNXUXPX. & n n _./.!.].# . v v m m X . 3.5.K Q UXUXUXIXUXUXUXKXUXUXUXUXUXUXUXUXUXUXUXUXUXUXUXUXUXUXUXUXUXUXUXUXUXUXUXUXUXUXUXUXUXUXGXIXo   `.W.o.n O X c Q d < o o U U 4.4.d 1 HXUXJXDXGXPXPXUXUXUXUXUXUXUXUXUXUXUXUXUXUXUXUXUX",
"UXUXUXUXUXUXUXUXUXUXUXUXUXUXUXUXJXIXLXPX@ @ `.(.....o.B + X T T zXuXuXzX+ # , v UXUXIXIXIXIXIXUXUXUXUXUXUXUXUXUXUXUXUXUXUXUXUXUXUXUXUXUXUXUXUXUXUXUXUXUXUXUXUXKXKXHXUXGXX @ X...~.}.+ + X X X X 1 : zXkXkXjX+ X Q Q PXKXPXUXIXIXUXUXUXUXUXUXUXUXUXUXUXUXUXUXUXUXUXUXUXUXUXUXUXUXUXUXUXUXUXUXUXIXJXIXFXPX. # '.Q.....X.V +   1 T zXuXuXuX+ @ , 1 UXUXUXIXIXIXUXIXUXUXUXUXUXUXUXUXUXUXUXUXUXUXUXUXUXUXUXUXUXUXUXUXUXUXUXUXUXUXUXUXHXPXUXIX  X $...W.^.@ X zXuXkXcX. o ` ` ] ] ^ ) HXKXIXIXUXUXUXSXUXUXUXUXUXUXUXUXUXUXUXUXUXUXUXUX",
"UXUXUXUXUXUXUXUXUXUXUXUXUXUXUXIXJXDXIXUX. # ^.`...X.O.1.. o Q 1 zX0XcXcX. X v T IXUXIXUXUXIXIXIXUXUXUXUXUXUXUXUXUXUXUXUXUXUXUXUXUXUXUXUXUXUXUXUXUXUXUXUXUXUXUXUXHXKXPXUX. + @.@.].].    O O O O v : NXkXcXkX+ . ; r PXPXUXKXIXJXUXUXUXUXUXUXUXUXUXUXUXUXUXUXUXUXUXUXUXUXUXUXUXUXUXUXUXUXUXUXUXUXDXJXIXUX. # ^.`...X.#.1.+ X R H xX0XcXcX. . v T IXUXIXUXIXUXIXIXUXUXUXUXUXUXUXUXUXUXUXUXUXUXUXUXUXUXUXUXUXUXUXUXUXUXUXUXUXUXUXUXKXPXUXLX  X A X.{.].@ o zXiXyXkX@   E W E ~ ^ U HXnXUXUXGXUXUXUXUXUXUXUXUXUXUXUXUXUXUXUXUXUXUXUX",
"UXUXUXUXUXUXUXUXUXUXUXUXUXUXUXUXIXUXPXUX. + D D ^.}.# # f K 1 u 5X7X1X-X. . 1 Q IXIXUXIXUXUXUXUXUXUXUXUXUXUXUXUXUXUXUXUXUXUXUXUXUXUXUXUXUXUXUXUXUXUXUXUXUXUXUXUXIXIXPXSXU U & + . X ~ R $X$X#X[ X   >X;XkXlX& & / ^ # + HXKXKXUXUXUXUXUXUXUXUXUXUXUXUXUXUXUXUXUXUXUXUXUXUXUXUXUXUXUXUXUXUXUXUXUXIXUXPXUX+ + S n ^.}.+ # f Q , d 5X7X1X<X. . : T IXIXIXIXUXUXUXUXUXUXUXUXUXUXUXUXUXUXUXUXUXUXUXUXUXUXUXUXUXUXUXUXUXUXUXUXUXUXUXUXHXHXPXUXG T + # @ & . . 4X X X5X.   [ [ v Q 4.d.f ~ CXIXIXIXFXIXUXUXUXUXUXUXUXUXUXUXUXUXUXUXUXUX",
"UXUXUXUXUXUXUXUXUXUXUXUXUXUXUXUXUXKXKXUX.   ( N ].].+ $ H H R Q -X3X5X5X.   M < UXIXIXUXUXUXUXUXUXUXUXUXUXUXUXUXUXUXUXUXUXUXUXUXUXUXUXUXUXUXUXUXUXUXUXUXUXUXUXIXFXVXPXSXU U & +   o R F $X$X[ $XX . ;X>XkXlX* & k I # + KXKXUXVXUXUXUXUXUXUXUXUXUXUXUXUXUXUXUXUXUXUXUXUXUXUXUXUXUXUXUXUXUXUXUXUXKXKXUXUXo . ` A ].].. $ H H Q M -X1X4X5X.   M < UXIXUXUXUXUXUXUXUXUXUXUXUXUXUXUXUXUXUXUXUXUXUXUXUXUXUXUXUXUXUXUXUXUXUXUXUXUXUXUXUXUXKXKXR K . @ # # @ . 9X3X<X2X  X ` ` p s ;.d.t 1 KXUXDXFXFXIXUXUXUXUXUXUXUXUXUXUXUXUXUXUXUXUX",
"UXUXUXUXUXUXUXUXUXUXUXUXUXUXUXUXKXKXKXHXUXPX  O X X X % $X$X$XE X X . X : v KXPXUXUXUXUXUXUXUXUXUXUXUXUXUXUXUXUXUXUXUXUXUXUXUXUXUXUXUXUXUXUXUXUXUXUXUXUXUXUXUXUXZXKX+ 2 >.:.h i i M ' %X% % % %       . . & s U z I & + HXUXHXUXUXUXUXUXUXUXUXUXUXUXUXUXUXUXUXUXUXUXUXUXUXUXUXUXUXUXUXUXUXUXUXUXKXUXUXHXUXUXX $ X X o % $X$X#XE X X .   c v UXPXUXUXUXUXUXUXIXUXUXUXUXUXUXUXUXUXUXUXUXUXUXUXUXUXUXUXUXUXUXUXUXUXUXUXUXUXUXUXUXUXIXIXVXIXG Y s | ;.k p : X . + . ! d 5.4.d.d.>.;.# + BXUXUXIXUXPXUXUXUXUXUXUXUXUXUXUXUXUXUXUXUXUX",
"UXUXUXUXUXUXUXUXUXUXUXUXUXUXUXUXUXGXUXUXUXUXX X X X % % %X%X[ [   . # O c c KXUXUXUXUXUXUXUXIXIXUXUXUXUXUXUXUXUXUXUXUXUXUXUXUXUXUXUXUXUXUXUXUXUXUXUXUXUXUXUXUXUXCXZX& & :.>.} ;.g i [ ' % % $ % . .     . + I I I I + . KXUXUXUXUXUXUXUXUXUXUXUXUXUXUXUXUXUXUXUXUXUXUXUXUXUXUXUXUXUXUXUXUXUXUXUXKXHXKXUXUXUXX X X X % % %X%X[ {   . + + c c UXKXUXUXPXUXUXUXUXIXUXUXUXUXUXUXUXUXUXUXUXUXUXUXUXUXUXUXUXUXUXUXUXUXUXUXUXUXUXUXUXUXIXJXCXIXG G U z U Y J M X . @ X 1 a 4.r.:.:.d.4.# + HXPXIXDXUXPXUXUXUXUXUXUXUXUXUXUXUXUXUXUXUXUX",
"UXUXUXUXUXUXUXUXUXUXUXUXUXUXUXUXUXPXPXUXZXCXvXZXVXUX% * U k 4.<. .t.<.5.X X UXKXIXIXUXUXUXUXUXIXUXUXUXUXUXUXUXUXUXUXUXUXUXUXUXUXUXUXUXUXUXUXUXUXUXUXUXUXUXUXUXKXVXZX  & :.:.>.:.%.+.@ % IXIXKXUXUXGXUXPXHXPX. . @ . PXSXPXUXLXIXUXUXUXUXUXUXUXUXUXUXUXUXUXUXUXUXUXUXUXUXUXUXUXUXUXUXUXUXUXUXUXUXPXPXUXUXZXZXvXvXCXUXO * I k 4.<.7.q.:.3.X X UXIXIXIXUXUXUXUXUXUXUXUXUXUXUXUXUXUXUXUXUXUXUXUXUXUXUXUXUXUXUXUXUXUXUXUXUXUXUXUXUXUXUXJXZXKXHXUX@ @ @ . UXGXKXUXGXUXJXKX& & & # # + PXUXKXUXIXFXUXUXUXUXUXUXUXUXUXUXUXUXUXUXUXUXUXUX",
"UXUXUXUXUXUXUXUXUXUXUXUXUXUXUXUXUXUXUXUXZXCXZXZXUXPX$ & k | | 0.:.:.t.;.X X VXUXIXIXUXUXPXUXUXUXUXUXUXUXUXUXUXUXUXUXUXUXUXUXUXUXUXUXUXUXUXUXUXUXUXUXUXUXUXUXUXUXKXVXO + ,.d.4.r.r.<.+ o UXJXJXIXIXKXUXPXUXHX$   o $ HXUXUXUXIXUXUXUXUXUXUXUXUXUXUXUXUXUXUXUXUXUXUXUXUXUXUXUXUXUXUXUXUXUXUXUXUXUXUXUXPXUXZXZXZXZXKXUX$ @ k | | 0.:.:.r.,.X X VXUXIXUXUXUXPXUXUXIXUXUXUXUXUXUXUXUXUXUXUXUXUXUXUXUXUXUXUXUXUXUXUXUXUXUXUXUXUXUXUXUXUXPXHXKXKXGX$ o o $ LXUXKXKXIXIXIXNX@ + + . X   KXUXUXUXIXIXUXUXUXUXUXUXUXUXUXUXUXUXUXUXUXUXUXUX",
"UXUXUXUXUXUXUXUXUXUXUXUXUXUXUXUXIXIXUXIXKXKXUXPXPXPXPXPX$ + + + # & & + KXVXUXIXUXUXUXPXUXUXUXUXUXUXUXUXUXUXUXUXUXUXUXUXUXUXUXUXUXUXUXUXUXUXUXUXUXUXUXUXUXUXUXUXKXUXGXUX+ + . . + . UXPXUXKXJXIXIXUXUXLXUXUXVXIXIXVXUXUXHXUXUXUXUXUXUXUXUXUXUXUXUXUXUXUXUXUXUXUXUXUXUXUXUXUXUXUXUXUXUXUXUXUXUXUXIXIXUXUXUXKXUXPXPXPXSXPX$ @ + # # & & + KXDXUXKXUXUXUXPXUXUXUXUXUXUXUXUXUXUXUXUXUXUXUXUXUXUXUXUXUXUXUXUXUXUXUXUXUXUXUXUXUXUXUXUXPXUXUXHXJXKXAXKXKXNXFXFXIXUXIXIXIXKXHXKXUXKXDXJXPXKXKXUXUXUXPXUXUXUXUXUXUXUXUXUXUXUXUXUXUXUXUXUX",
"UXUXUXUXUXUXUXUXUXUXUXUXUXUXUXUXIXFXJXUXUXKXPXPXPXPXPXLX% o   X .   .   UXUXHXUXUXUXUXPXUXUXUXUXUXUXUXUXUXUXUXUXUXUXUXUXUXUXUXUXUXUXUXUXUXUXUXUXUXUXUXUXUXUXUXUXUXPXUXUXo O X X X   HXHXPXUXIXKXUXUXUXUXUXDXIXIXIXIXFXIXUXUXUXPXUXUXUXUXUXUXUXUXUXUXUXUXUXUXUXUXUXUXUXUXUXUXUXUXUXUXUXUXUXUXUXIXFXIXJXIXUXPXPXPXPXUXPXSXo o X   .   .   UXUXHXUXUXUXUXUXUXUXUXUXUXUXUXUXUXUXUXUXUXUXUXUXUXUXUXUXUXUXUXUXUXUXUXUXUXUXUXUXUXUXUXUXUXPXKXUXKXVXUXUXKXUXFXFXIXIXUXPXUXHXUXUXUXIXIXIXUXUXUXUXPXUXUXUXUXUXUXUXUXUXUXUXUXUXUXUXUXUXUXUX",
"UXUXUXUXUXUXUXUXUXUXUXUXUXUXUXUXIXKXUXUXUXPXPXUXUXJXCXCXKXKXKXKXCXJXKXHXPXPXSXUXUXUXUXUXUXUXLXPXUXUXUXUXUXUXUXUXUXUXUXUXUXUXUXUXUXUXUXUXUXUXUXUXUXUXUXUXUXUXUXUXKXBXKXKXVXIXCXVXKXKXCXCXKXBXZXKXUXPXGXIXIXUXUXAXGXUXIXIXIXGXUXUXUXUXUXUXUXUXUXUXUXUXUXUXUXUXUXUXUXUXUXUXUXUXUXUXUXUXUXUXUXUXUXUXIXKXKXUXUXPXPXUXUXKXZXCXZXKXKXKXCXJXIXHXPXPXHXPXUXUXUXUXUXUXPXPXUXUXUXUXUXUXUXUXUXUXUXUXUXUXUXUXUXUXUXUXUXUXUXUXUXUXUXUXUXUXUXUXUXPXSXPXIXJXIXVXVXIXDXIXPXPXPXUXUXAXUXUXHXUXUXVXIXIXIXUXKXUXUXUXUXUXUXUXUXUXUXUXUXUXUXUXUXUXUXUX",
"UXUXUXUXUXUXUXUXUXUXUXUXUXUXUXUXKXZXKXUXPXUXUXUXJXVXCXCXHXCXKXUXUXIXGXKXPXPXHXUXUXUXUXIXUXUXPXPXUXUXUXUXUXUXUXUXUXUXUXUXUXUXUXUXUXUXUXUXUXUXUXUXUXUXUXUXUXUXUXUXUXHXKXKXHXGXKXKXUXHXKXKXKXKXKXUXHXKXUXUXJXJXUXPXGXUXGXIXIXUXKXHXUXUXUXUXUXUXUXUXUXUXUXUXUXUXUXUXUXUXUXUXUXUXUXUXUXUXUXUXUXUXUXUXZXKXUXKXUXPXUXUXGXVXCXCXZXVXUXKXUXUXIXHXPXPXSXUXUXUXUXIXUXUXPXPXUXUXUXUXUXUXUXUXUXUXUXUXUXUXUXUXUXUXUXUXUXUXUXUXUXUXUXUXUXUXUXUXHXUXPXUXKXIXJXDXDXIXDXUXPXPXPXKXUXUXUXUXHXHXUXIXUXIXIXIXUXUXKXIXUXUXUXUXUXUXUXUXUXUXUXUXUXUXUXUX",
"UXUXUXUXUXUXUXUXUXUXUXUXUXUXUXUXUXKXKXUXUXPXUXUXIXIXDXIXUXUXPXPXSXAXIXUXPXSXUXFXIXUXIXIXIXUXUXUXUXUXUXUXUXUXUXUXUXUXUXUXUXUXUXUXUXUXUXUXUXUXUXUXUXUXUXUXUXUXUXUXFXIXGXUXUXUXBXSXLXIXIXUXIXIXLXUXUXIXHXHXUXUXUXKXKXUXUXKXHXKXKXUXUXUXUXUXUXUXUXUXUXUXUXUXUXUXUXUXUXUXUXUXUXUXUXUXUXUXUXUXUXUXUXUXKXKXKXUXUXUXUXUXIXIXDXIXUXUXPXPXGXNXIXUXPXSXUXFXUXUXIXIXIXUXUXUXUXUXUXUXUXUXUXUXUXUXUXUXUXUXUXUXUXUXUXUXUXUXUXUXUXUXUXUXUXUXUXUXIXIXPXLXUXUXKXPXUXUXUXUXPXPXKXKXHXIXIXIXUXPXUXPXUXUXIXIXUXUXUXUXUXUXUXUXUXUXUXUXUXUXUXUXUXUXUXUX",
"UXUXUXUXUXUXUXUXUXUXUXUXUXUXUXUXKXKXKXKXKXUXUXUXIXIXIXUXGXUXPXUXUXIXIXIXPXPXIXIXIXIXIXIXIXUXUXUXUXUXUXUXUXUXUXUXUXUXUXUXUXUXUXUXUXUXUXUXUXUXUXUXUXUXUXUXUXUXUXIXFXDXIXUXPXPXSXPXUXFXUXFXFXIXUXUXUXUXUXHXPXHXUXKXPXKXHXKXHXKXUXJXUXUXUXUXUXUXUXUXUXUXUXUXUXUXUXUXUXUXUXUXUXUXUXUXUXUXUXUXUXUXUXUXUXKXKXUXPXUXUXUXUXIXFXIXGXUXUXPXUXPXIXIXPXUXIXIXIXIXIXIXIXIXUXUXUXUXUXUXUXUXUXUXUXUXUXUXUXUXUXUXUXUXUXUXUXUXUXUXUXUXUXUXUXUXUXUXJXIXUXLXUXLXUXPXPXUXGXUXPXUXKXZXUXUXUXLXUXUXPXPXUXUXUXUXIXIXUXUXUXUXUXUXUXUXUXUXUXUXUXUXUXUXUXUX",
"UXUXUXUXUXUXUXUXUXUXUXUXUXUXUXUXKXUXUXUXUXUXUXUXUXIXUXIXIXUXUXUXUXUXUXIXUXUXIXUXUXUXIXUXUXUXUXUXUXUXUXUXUXUXUXUXUXUXUXUXUXUXUXUXUXUXUXUXUXUXUXUXUXUXUXUXUXUXUXUXIXFXIXUXIXUXUXUXUXUXUXUXUXUXKXUXPXPXPXUXUXPXUXUXUXUXUXIXUXUXKXUXUXUXUXUXUXUXUXUXUXUXUXUXUXUXUXUXUXUXUXUXUXUXUXUXUXUXUXUXUXUXUXUXUXKXUXKXUXKXUXUXUXIXUXUXUXUXUXUXUXUXUXIXUXUXUXIXIXUXUXUXUXUXUXUXUXUXUXUXUXUXUXUXUXUXUXUXUXUXUXUXUXUXUXUXUXUXUXUXUXUXUXUXUXUXUXUXIXIXIXIXUXIXUXUXUXUXUXUXUXUXUXUXPXPXPXPXUXPXUXPXUXUXUXUXIXUXUXKXUXUXUXUXUXUXUXUXUXUXUXUXUXUXUXUX",
"UXUXUXUXUXUXUXUXUXUXUXUXUXUXUXUXUXUXUXKXKXUXUXUXUXUXUXUXUXUXUXIXUXIXIXUXUXUXUXUXUXUXUXUXUXUXUXUXUXUXUXUXUXUXUXUXUXUXUXUXUXUXUXUXUXUXUXUXUXUXUXUXUXUXUXUXUXUXUXUXUXUXIXUXUXUXUXUXUXUXUXUXUXUXUXUXUXPXUXPXPXUXUXPXPXUXUXUXUXKXIXUXUXUXUXUXUXUXUXUXUXUXUXUXUXUXUXUXUXUXUXUXUXUXUXUXUXUXUXUXUXUXUXUXUXUXUXUXUXUXUXUXUXUXUXIXIXKXUXUXIXIXUXUXIXUXUXIXUXUXUXUXUXUXUXUXUXUXUXUXUXUXUXUXUXUXUXUXUXUXUXUXUXUXUXUXUXUXUXUXUXUXUXUXUXUXUXUXUXUXIXUXUXUXUXUXUXUXUXUXUXUXUXPXPXUXUXUXPXUXUXUXUXUXUXUXKXUXUXUXUXUXUXUXUXUXUXUXUXUXUXUXUXUXUXUX",
"UXUXUXUXUXUXUXUXUXUXUXUXUXUXUXUXUXUXKXUXUXUXUXUXKXUXKXUXUXUXUXUXUXUXUXIXIXUXIXUXUXUXUXUXUXUXUXUXUXUXUXUXUXUXUXUXUXUXUXUXUXUXUXUXUXUXUXUXUXUXUXUXUXUXUXUXUXUXUXUXUXPXUXUXPXUXUXUXUXUXUXUXUXUXUXUXUXIXUXUXIXUXUXUXUXUXUXUXUXUXUXUXUXUXUXUXUXUXUXUXUXUXUXUXUXUXUXUXUXUXUXUXUXUXUXUXUXUXUXUXUXUXUXUXUXUXUXUXUXUXUXUXKXUXUXUXUXUXUXIXUXUXUXIXUXUXUXUXUXUXUXUXUXUXUXUXUXUXUXUXUXUXUXUXUXUXUXUXUXUXUXUXUXUXUXUXUXUXUXUXUXUXUXUXUXUXUXUXUXUXUXUXUXUXUXUXUXUXUXUXUXUXUXUXUXIXUXIXUXUXUXUXUXUXUXUXUXUXUXUXUXUXUXUXUXUXUXUXUXUXUXUXUXUXUXUX",
"UXUXUXUXUXUXUXUXUXUXUXUXUXUXUXUXUXUXUXUXUXUXKXUXUXUXUXUXKXIXUXIXIXUXUXUXUXUXUXUXUXUXUXUXUXUXUXUXUXUXUXUXUXUXUXUXUXUXUXUXUXUXUXUXUXUXUXUXUXUXUXUXUXUXUXUXUXUXUXUXUXUXUXPXUXUXUXUXKXUXUXIXIXKXKXIXIXIXFXIXIXIXIXIXUXUXUXUXUXUXUXUXUXUXUXUXUXUXUXUXUXUXUXUXUXUXUXUXUXUXUXUXUXUXUXUXUXUXUXUXUXUXUXUXUXUXUXUXUXKXUXKXUXUXUXKXUXUXUXUXUXIXUXUXIXUXUXUXUXUXUXUXUXUXUXUXUXUXUXUXUXUXUXUXUXUXUXUXUXUXUXUXUXUXUXUXUXUXUXUXUXUXUXUXUXUXUXUXUXPXPXPXUXUXPXUXUXUXUXKXKXIXKXKXIXIXIXIXIXIXIXIXUXIXUXUXUXUXUXUXUXUXUXUXUXUXUXUXUXUXUXUXUXUXUXUX",
"UXUXUXUXUXUXUXUXUXUXUXUXUXUXUXUXUXUXUXUXUXUXUXUXUXUXUXUXKXUXUXUXUXUXIXUXUXUXUXUXUXUXUXUXUXUXUXUXUXUXUXUXUXUXUXUXUXUXUXUXUXUXUXUXUXUXUXUXUXUXUXUXUXUXUXUXUXUXUXUXPXUXUXUXUXUXUXUXUXLXIXKXKXJXJXIXJXJXJXIXIXKXIXUXIXUXUXUXUXUXUXUXUXUXUXUXUXUXUXUXUXUXUXUXUXUXUXUXUXUXUXUXUXUXUXUXUXUXUXUXUXUXUXUXUXUXUXUXUXUXUXUXUXUXKXUXUXUXUXIXUXIXUXUXUXUXUXUXUXUXUXUXUXUXUXUXUXUXUXUXUXUXUXUXUXUXUXUXUXUXUXUXUXUXUXUXUXUXUXUXUXUXUXUXUXUXUXUXUXUXUXUXUXUXUXUXIXUXKXJXIXKXJXIXJXJXJXIXIXIXKXIXUXIXUXUXUXUXKXUXUXUXUXUXUXUXUXUXUXUXUXUXUXUXUXUX",
"UXUXUXUXUXUXUXUXUXUXUXUXUXUXUXUXUXUXUXUXUXUXUXUXUXUXUXUXUXUXUXUXUXUXUXUXUXUXIXUXUXUXUXUXUXUXUXUXUXUXUXUXUXUXUXUXUXUXUXUXUXUXUXUXUXUXUXUXUXUXUXUXUXUXUXUXUXUXUXUXUXUXUXUXUXUXUXUXUXKXIXKXIXIXKXKXKXJXIXKXKXIXKXUXUXUXUXUXUXUXUXUXUXUXUXUXUXUXUXUXUXUXUXUXUXUXUXUXUXUXUXUXUXUXUXUXUXUXUXUXUXUXUXUXKXUXUXUXUXUXUXUXUXUXUXUXUXUXUXUXUXUXIXUXUXUXUXUXUXUXUXUXUXUXUXUXUXUXUXUXUXUXUXUXUXUXUXUXUXUXUXUXUXUXUXUXUXUXUXUXUXUXUXUXUXUXUXUXUXUXUXUXUXUXUXUXUXKXIXLXIXKXJXHXJXKXKXKXJXIXUXUXUXUXUXUXUXUXUXUXUXUXUXUXUXUXUXUXUXUXUXUXUXUXUXUX",
"UXUXUXUXUXUXUXUXUXUXUXUXUXUXUXUXUXUXUXUXUXUXUXUXUXUXUXUXUXUXUXUXUXIXUXUXUXUXUXUXUXUXUXUXUXUXUXUXUXUXUXUXUXUXUXUXUXUXUXUXUXUXUXUXUXUXUXUXUXUXUXUXUXUXUXUXUXUXUXUXUXIXIXUXIXUXIXUXUXUXUXUXUXUXUXKXKXKXKXKXUXKXUXUXUXUXUXUXUXUXUXUXUXUXUXUXUXUXUXUXUXUXUXUXUXUXUXUXUXUXUXUXUXUXUXUXUXUXUXUXUXUXUXUXUXUXUXUXUXUXUXUXUXUXUXUXUXUXUXUXUXUXUXUXUXUXUXUXUXUXUXUXUXUXUXUXUXUXUXUXUXUXUXUXUXUXUXUXUXUXUXUXUXUXUXUXUXUXUXUXUXUXUXUXUXUXUXUXUXIXUXIXIXUXUXUXUXUXUXUXUXUXUXUXUXKXUXKXKXUXUXUXUXUXUXUXUXUXUXUXUXUXUXUXUXUXUXUXUXUXUXUXUXUXUXUX",
"UXUXUXUXUXUXUXUXUXUXUXUXUXUXUXUXUXUXUXKXUXUXUXUXUXUXUXUXUXUXUXUXUXUXUXUXUXUXUXUXUXUXUXUXUXUXUXUXUXUXUXUXUXUXUXUXUXUXUXUXUXUXUXUXUXUXUXUXUXUXUXUXUXUXUXUXUXUXUXUXUXUXUXUXUXUXUXUXUXUXUXUXUXUXUXUXUXUXPXUXUXUXUXUXUXUXUXUXUXUXKXUXUXUXUXUXUXUXUXUXUXUXUXUXUXUXUXUXUXUXUXUXUXUXUXUXUXUXUXUXUXUXUXUXUXUXUXUXUXUXUXUXUXUXUXUXUXUXUXUXUXUXUXUXUXUXUXUXUXUXUXUXUXUXUXUXUXUXUXUXUXUXUXUXUXUXUXUXUXUXUXUXUXUXUXUXUXUXUXUXUXUXUXUXUXUXUXUXUXIXUXUXUXUXUXUXUXUXUXUXUXUXKXUXUXKXPXUXPXUXKXUXUXPXUXUXUXUXUXUXUXUXUXUXUXUXUXUXUXUXUXUXUXUXUXUX",
"UXUXUXUXUXUXUXUXUXUXUXUXUXUXUXUXUXUXUXUXUXUXUXUXUXUXPXUXUXUXUXUXUXGXUXUXUXUXUXUXUXUXUXUXUXUXUXUXUXUXUXUXUXUXUXUXUXUXUXUXUXUXUXUXUXUXUXUXUXUXUXUXUXUXUXUXUXUXUXUXUXUXPXUXPXUXUXUXPXPXUXPXPXUXPXPXPXPXPXUXPXUXLXUXPXUXUXUXUXHXUXUXUXUXUXUXUXUXUXUXUXUXUXUXUXUXUXUXUXUXUXUXUXUXUXUXUXUXUXUXUXUXUXUXUXUXUXUXUXUXUXUXUXUXUXUXUXUXUXUXUXLXUXKXUXUXUXUXUXUXUXUXUXUXUXUXUXUXUXUXUXUXUXUXUXUXUXUXUXUXUXUXUXUXUXUXUXUXUXUXUXUXUXUXUXUXUXUXUXUXPXUXPXUXUXUXPXUXPXUXUXPXPXPXPXPXUXPXPXUXSXUXUXUXUXUXUXHXKXUXUXUXUXUXUXUXUXUXUXUXUXUXUXUXUXUX",
"UXUXUXUXUXUXUXUXUXUXUXUXUXUXUXUXUXUXUXUXUXUXUXUXUXUXUXUXUXUXUXUXUXUXKXUXUXUXUXKXUXUXUXUXUXUXUXUXUXUXUXUXUXUXUXUXUXUXUXUXUXUXUXUXUXUXUXUXUXUXUXUXUXUXUXUXUXUXUXUXUXUXPXUXSXUXPXUXPXUXUXPXPXUXPXUXUXLXUXPXUXLXUXAXUXUXUXGXUXKXKXKXUXUXUXUXUXUXUXUXUXUXUXUXUXUXUXUXUXUXUXUXUXUXUXUXUXUXUXUXUXUXUXUXUXUXUXUXUXUXUXUXUXUXUXUXUXUXUXUXUXUXPXUXUXUXUXKXUXUXUXUXUXUXUXUXUXUXUXUXUXUXUXUXUXUXUXUXUXUXUXUXUXUXUXUXUXUXUXUXUXUXUXUXUXUXUXUXPXUXUXUXSXPXPXUXUXPXUXPXPXPXUXUXPXPXPXUXUXLXUXAXUXUXUXHXUXKXKXUXUXUXUXUXUXUXUXUXUXUXUXUXUXUXUXUX",
"UXUXUXUXUXUXUXUXUXUXUXUXUXUXUXUXUXUXUXUXUXUXUXUXUXUXUXUXUXUXUXPXPXUXHXUXHXGXUXUXUXUXUXUXUXUXUXUXUXUXUXUXUXUXUXUXUXUXUXUXUXUXUXUXUXUXUXUXUXUXUXUXUXUXUXUXUXUXUXUXUXHXHXUXHXUXUXUXUXUXUXUXIXUXIXIXUXIXUXLXIXIXDXIXLXIXUXUXKXUXBXUXUXUXUXUXUXUXUXUXUXUXUXUXUXUXUXUXUXUXUXUXUXUXUXUXUXUXUXUXUXUXUXUXUXUXUXUXUXUXPXUXUXPXUXUXUXUXUXPXKXUXPXKXPXGXUXUXUXUXUXUXUXUXUXUXUXUXUXUXUXUXUXUXUXUXUXUXUXUXUXUXUXUXUXUXUXUXUXUXUXUXUXUXUXUXUXUXUXHXGXUXKXUXUXLXUXUXUXUXUXIXUXIXIXIXUXFXFXIXAXUXLXIXUXUXUXUXBXKXUXUXUXUXUXUXUXUXUXUXUXUXUXUXUXUX",
"UXUXUXUXUXUXUXUXUXUXUXUXUXUXUXUXUXUXPXUXUXUXUXPXUXUXUXUXUXPXUXUXHXUXUXUXUXPXUXUXUXUXUXUXUXUXUXUXUXUXUXUXUXUXUXUXUXUXUXUXUXUXUXUXUXUXUXUXUXUXUXUXUXUXUXUXUXUXUXUXUXUXUXUXIXGXUXUXIXIXIXIXIXIXIXIXUXLXUXIXUXIXIXIXIXUXUXUXGXKXZXUXUXUXUXUXUXUXUXUXUXUXUXUXUXUXUXUXUXUXUXUXUXUXUXUXUXUXUXUXUXUXUXUXUXUXUXUXUXUXUXUXUXUXUXUXPXUXUXUXLXUXUXUXUXKXPXUXUXUXUXUXUXUXUXUXUXUXUXUXUXUXUXUXUXUXUXUXUXUXUXUXUXUXUXUXUXUXUXUXUXUXUXUXUXUXUXUXUXUXUXUXUXGXUXUXIXIXIXIXIXIXIXIXUXIXUXUXUXIXIXIXUXIXUXUXGXKXKXUXUXUXUXUXUXUXUXUXUXUXUXUXUXUXUXUX",
"UXUXUXUXUXUXUXUXUXUXUXUXUXUXUXUXUXUXUXUXUXUXUXUXPXPXUXUXUXPXUXUXUXLXHXHXUXUXUXKXUXUXUXUXUXUXUXUXUXUXUXUXUXUXUXUXUXUXUXUXUXUXUXUXUXUXUXUXUXUXUXUXUXUXUXUXUXUXUXUXIXIXIXDXUXUXUXKX1 < 1 : 1 u u d d r u < d ; UXGXUXIXLXUXUXUXUXGXUXUXUXUXUXUXUXUXUXUXUXUXUXUXUXUXUXUXUXUXUXUXUXUXUXUXUXUXUXUXUXUXUXUXUXUXUXUXUXUXUXUXPXPXUXPXPXUXUXHXLXGXKXUXUXHXUXUXUXUXUXUXUXUXUXUXUXUXUXUXUXUXUXUXUXUXUXUXUXUXUXUXUXUXUXUXUXUXUXUXUXUXUXUXUXUXIXUXIXDXUXUXUXUX< 1 1 : : u 1 d d u r > d , UXLXUXIXLXUXUXUXUXVXUXUXUXUXUXUXUXUXUXUXUXUXUXUXUXUX",
"UXUXUXUXUXUXUXUXUXUXUXUXUXUXUXUXUXUXUXUXUXUXUXUXUXUXUXPXUXUXUXPXUXHXUXUXUXAXUXPXUXUXUXUXUXUXUXUXUXUXUXUXUXUXUXUXUXUXUXUXUXUXUXUXUXUXUXUXUXUXUXUXUXUXUXUXUXUXUXUXUXIXIXUXLXUXUXHXu r y y 8 i 8 y 8 8 8 8 t a HXPXUXHXUXUXGXGXUXUXUXUXUXUXUXUXUXUXUXUXUXUXUXUXUXUXUXUXUXUXUXUXUXUXUXUXUXUXUXUXUXUXUXUXUXUXUXUXUXPXUXUXUXUXUXUXUXUXUXPXUXUXUXGXUXUXUXUXUXUXUXUXUXUXUXUXUXUXUXUXUXUXUXUXUXUXUXUXUXUXUXUXUXUXUXUXUXUXUXUXUXUXUXUXUXUXIXIXIXUXLXUXKXKXu t t y i y 8 8 8 8 8 y r r HXUXUXGXUXUXGXJXUXUXUXUXUXUXUXUXUXUXUXUXUXUXUXUXUXUX",
"UXUXUXUXUXUXUXUXUXUXUXUXUXUXUXUXUXUXUXUXUXUXUXUX< < < > < < < < < > < < ; ~ VXUXUXUXUXUXUXUXUXUXUXUXUXUXUXUXUXUXUXUXUXUXUXUXUXUXUXUXUXUXUXUXUXUXUXUXUXUXUXUXUXUXLXUXUXSXK ; r k -XF.F.F.G.D.D.D.D.G.G.*X<Xh.y a r K NXUXUXIXIXIXUXUXUXUXUXUXUXUXUXUXUXUXUXUXUXUXUXUXUXUXUXUXUXUXUXUXUXUXUXUXUXUXUXUXUXUXUXUXUXUX, > < < > < < < > < > < < Q AXUXUXUXUXUXUXUXUXUXUXUXUXUXUXUXUXUXUXUXUXUXUXUXUXUXUXUXUXUXUXUXUXUXUXUXUXUXUXUXUXUXLXIXUXGXK u t k &X|.F.G.D.C.D.D.Z.D.G.|.1X&Xi y r K NXUXUXIXIXIXUXUXUXUXUXUXUXUXUXUXUXUXUXUXUXUX",
"UXUXUXUXUXUXUXUXUXUXUXUXUXUXUXUXUXUXUXUXUXKXIXHXd a u a y y t t y f r y r r PXKXUXUXUXUXUXUXUXUXUXUXUXUXUXUXUXUXUXUXUXUXUXUXUXUXUXUXUXUXUXUXUXUXUXUXUXUXUXUXUXUXUXUXLXPXr k g e C.D.G.T.H.H.K.K.U.H.L.C.D.G.g g y a PXUXIXUXDXIXUXUXUXUXUXUXUXUXUXUXUXUXUXUXUXUXUXUXUXUXUXUXUXUXUXUXUXUXUXUXUXUXUXUXUXPXUXKXUXKXd u p t s y t t t i t i r r PXKXUXUXUXUXIXUXUXUXUXUXUXUXUXUXUXUXUXUXUXUXUXUXUXUXUXUXUXUXUXUXUXUXUXUXUXUXUXUXUXUXUXUXSXUXw k e e F.G.D.I.T.K.K.K.R.Z.I.Z.Z.A.e g s t PXUXLXUXFXIXUXUXUXUXUXUXUXUXUXUXUXUXUXUXUXUX",
"UXUXUXUXKXUXUXUXUXUXUXUXUXUXUXIXFXUXPXUX: : u 9 [.&Xh.F.D.D.G.S.T.I.D.C.G.F.r u f ; UXUXFXFXLXUXUXUXUXUXUXUXUXUXUXUXUXUXUXUXUXUXUXUXUXUXUXUXUXUXUXUXUXUXUXUXUXUXPXPXT p a.r.Z.U.L.L.H.T.I.H.m.b.H.H.M.M.M.x.x.A.r.6.P H PXPXFXFXUXUXUXUXUXUXUXUXUXUXUXUXUXUXUXUXUXUXKXUXUXUXUXUXUXUXUXUXUXIXUXUXFXUXPXPX; : u u [.|.h.F.D.D.D.S.T.D.D.C.F.|.r t a ; UXUXIXFXIXUXUXUXUXUXUXUXUXUXUXUXUXUXUXUXUXUXUXUXUXUXUXUXUXUXUXUXUXUXUXUXUXUXUXPXQ > s.r.D.R.L.L.H.I.H.H.n.b.H.I.M.M.M.x.x.A.u.6.J K PXUXFXFXIXUXUXUXUXUXUXUXUXUXUXUXUXUXUXUX",
"KXUXUXKXUXUXUXUXUXUXUXUXIXUXUXIXIXIXPXSXi y 8 4 |.D.T.U.K.K.v.V.c.K.R.H.T.A.e y 7 a PXUXIXFXUXUXUXUXUXUXUXUXUXUXUXUXUXUXUXUXUXUXUXUXUXUXUXUXUXUXUXUXUXUXUXUXUXUXUXPX1 d 6.j.Y.c.V.V.J.H.I.L.b.b.I.I.M.N.M.M.x.x.q.f.s J PXUXIXFXIXUXUXUXUXUXUXUXUXUXUXUXUXUXUXUXUXUXUXUXUXUXUXUXUXUXUXUXUXUXUXIXIXIXUXHXf 7 8 8 F.C.G.I.K.K.J.B.c.K.Y.R.T.D.g y 8 a PXKXIXFXUXUXUXUXUXUXUXUXUXUXUXUXUXUXUXUXUXUXUXUXUXUXUXUXUXUXUXUXUXUXUXUXUXUXUXSX1 f 6.j.Y.k.N.V.J.I.I.I.b.b.I.Z.M.M.M.M.x.x.e.d.J J PXUXIXFXUXUXUXUXUXUXUXUXUXUXUXUXUXUXUXUX",
"UXUXUXUXUXUXUXUXUXUXUXUXUXUXUXUXIXUXp k 4.4.G.D.I.H.K.K.K.K.B.B.x.J.J.J.D.G.A.F.a.g.t < IXIXUXLXUXUXUXUXUXUXUXUXUXUXUXUXUXUXUXUXUXUXUXUXUXUXUXUXUXUXUXUXUXUXUXUXLXKX; f C.C.m.n.n.n.H.H.I.I.L.S.D.D.V.M.N.M.M.M.S.F.y p SXUXUXIXUXUXUXUXUXUXUXUXUXUXUXUXUXUXUXUXUXKXKXUXUXUXUXUXUXUXUXUXUXUXUXIXIXUXp s 2.4.G.D.I.H.K.K.K.m.V.B.B.J.J.H.Z.G.A.h.f.g.t < UXFXUXLXUXUXUXUXUXUXUXUXUXUXUXUXUXUXUXUXUXUXUXUXUXUXUXUXUXUXUXUXUXUXUXUXPXUX; i F.Z.b.n.n.b.J.H.I.S.B.L.D.D.V.N.N.N.N.x.D.F.w a HXPXIXUXUXUXUXUXUXUXUXUXUXUXUXUXUXUXUXUX",
"UXKXUXUXUXUXUXUXUXUXUXUXUXUXIXUXUXUXa y u.j.H.Z.K.K.K.K.K.V.V.x.l.S.b.J.J.I.G.G.w.6.t ; UXUXPXUXUXUXUXUXUXUXUXUXUXUXUXUXUXUXUXUXUXUXUXUXUXUXUXUXUXUXUXUXUXUXUXUXUXHXt e 1XR.b.m.n.b.J.H.L.L.L.L.D.D.B.b.b.N.M.B.Z.*Xe k PXKXUXUXUXUXUXUXUXUXUXUXUXUXUXUXUXUXUXUXUXUXUXUXUXUXUXUXUXUXUXUXUXUXUXUXUXUXp e u.j.I.H.K.K.K.K.b.V.x.x.l.S.c.K.H.T.G.G.2.6.t ; UXUXPXUXUXUXUXUXUXUXUXUXUXUXUXUXUXUXUXUXUXUXUXUXUXUXUXUXUXUXUXUXUXUXUXUXKXHXa y G.R.v.n.m.b.J.J.H.I.L.S.I.I.B.b.V.N.b.L.Z.*Xg s PXKXUXUXUXUXUXUXUXUXUXUXUXUXUXUXUXUXUXUX",
"UXKXUXUXUXUXUXUXUXUXUXUXUXUXUXUXIXUXr g C.R.H.U.L.L.m.J.x.x.x.x.l.l.N.Y.P.v.L.z.Z.1Xe t KXSXUXGXUXUXUXUXUXUXUXUXUXUXUXUXUXUXUXUXUXUXUXUXUXUXUXUXUXUXUXUXUXUXUXUXp f 1.y.A.l.B.B.B.B.L.B.L.J.J.H.J.J.H.L.V.B.B.L.XXZ.u.4.r u IXDXUXUXUXUXUXUXUXUXUXUXUXUXUXUXUXUXUXUXUXKXUXUXUXUXUXUXUXUXUXUXUXUXIXUXr g C.H.H.U.I.L.J.K.B.x.M.x.l.x.n.Y.P.v.U.z.Z.1X8 f UXAXUXLXUXUXUXUXUXUXUXUXUXUXUXUXUXUXUXUXUXUXUXUXUXUXUXUXUXUXUXUXUXUXUXUXt f 1.y.A.l.z.M.B.J.B.L.P.J.U.H.J.J.H.L.B.B.B.L.XXC.u.<.r a IXJXUXUXUXUXUXUXUXUXUXUXUXUXUXUXUXUX",
"UXUXUXUXUXUXUXUXUXUXUXUXUXUXUXUXUXUXt e *XR.H.Z.S.B.P.B.x.x.M.M.|.x.V.n.V.v.Y.R.R.C.e r SXUXUXUXUXUXUXUXUXUXUXUXUXUXUXUXUXUXUXUXUXUXUXUXUXUXUXUXUXUXUXUXUXUXUXUXd w y.8.x.|.x.x.L.B.B.B.b.K.J.K.K.J.I.L.x.x.L.H.Z.Z.j.y.y d UXIXUXUXUXUXUXUXUXUXUXUXUXUXUXUXUXUXUXUXUXUXUXUXUXUXUXUXUXUXUXIXUXUXUXUXt e *XR.H.S.x.S.P.b.x.x.x.x.{.|.c.n.V.V.Y.Y.R.Z.8 y BXUXUXUXUXUXUXUXUXUXUXUXUXUXUXUXUXUXUXUXUXUXUXUXUXUXUXUXUXUXUXUXUXUXUXUXd r y.7.S.|.S.x.L.v.B.B.b.K.H.K.K.b.H.L.x.x.L.L.H.H.j.u.y p UXIXUXUXUXUXUXUXUXUXUXUXUXUXUXUXUXUX",
"UXUXUXUXUXUXUXUXUXUXUXUXUXUXUXUX> r 5.y.H.R.v.L.x.S.L.B.B.B.b.V.x.x.Y.N.V.M.c.c.c.I.w.6.f d PXIXUXUXUXUXUXUXUXUXUXUXUXUXUXUXUXUXUXUXUXUXUXUXUXUXUXUXUXUXUXUXUXUX> a y.8.S.x.z.R.J.m.b.M.N.b.I.K.n.b.J.I.v.b.J.H.U.U.9.w.y > UXUXUXUXUXUXUXUXUXUXUXUXUXUXUXUXUXUXUXUXUXUXUXUXUXUXUXUXUXUXUXUXUXUX; u 5.u.H.R.c.L.S.x.B.B.B.V.M.V.Z.z.m.n.V.M.c.c.k.T.y.5.f d LXUXUXUXUXUXUXUXUXUXUXUXUXUXUXUXUXUXUXUXUXUXUXUXUXUXUXUXUXUXUXUXUXUX> d y.=.B.|.z.U.J.m.M.N.N.n.J.H.b.m.H.I.V.V.K.H.I.U.*.0.s , UXUXUXUXUXUXUXUXUXUXUXUXUXUXUXUXUXUX",
"UXUXUXUXUXUXUXUXUXUXUXUXUXUXUXUXd a 6.r.R.K.b.V.x.B.B.V.V.V.m.J.B.N.n.k.V.N.c.V.J.R.w.6.t > UXUXUXUXUXUXUXUXUXUXUXUXUXUXUXUXUXUXUXUXUXUXUXUXUXUXUXUXUXUXUXUXUXUXH r y.e.l.x.L.z.K.n.N.N.N.n.L.L.b.N.J.J.V.b.K.R.z.G.*.y.s > UXPXUXUXUXUXUXUXUXUXUXUXUXUXUXUXUXUXUXUXUXUXUXUXUXUXUXUXUXUXUXUXUXUXd s a.r.R.K.J.v.B.B.B.B.V.V.n.b.v.b.Y.c.N.V.M.V.m.R.0.6.t > UXUXUXUXUXUXUXUXUXUXUXUXUXUXUXUXUXUXUXUXUXUXUXUXUXUXUXUXUXUXUXUXUXUX1 p 7.j.l.x.L.v.m.m.m.N.N.b.L.P.N.V.J.P.b.b.K.H.S.G.*.w.s , UXPXUXUXUXUXUXUXUXUXUXUXUXUXUXUXUXUX",
"UXUXUXUXUXUXUXUXUXUXGXUXUXUXUXKX: r 6.u.H.K.Y.K.V.U.M.v.H.K.m.K.K.K.K.c.N.M.x.M.V.P.0.y.t < UXFXUXUXUXUXUXUXUXUXUXUXUXUXUXUXUXUXUXUXUXUXUXUXUXUXUXGXUXUXUXUXUXUXH ; f.0.%.e.L.J.K.K.N.k.N.N.P.L.N.N.v.P.c.Y.m.K.e.0.*.y.a H UXUXUXUXUXUXUXUXUXUXUXUXUXUXUXUXUXUXUXUXUXUXUXUXUXUXUXUXGXUXUXUXUXUX< r 5.u.H.K.Y.n.V.P.z.b.m.K.m.Y.K.n.Y.c.N.l.M.M.J.H.q.y.i > UXIXUXUXUXUXUXUXUXUXUXUXUXUXUXUXUXUXUXUXUXUXUXUXUXUXUXGXUXUXUXUXUXUXH p f.q.&.=.L.H.K.m.N.k.N.N.P.L.V.N.v.U.c.Y.K.H.8.e.8.y.t H PXUXUXUXUXUXUXUXUXUXUXUXUXUXUXUXUXUX",
"UXUXUXUXUXUXUXUXUXUXUXUXLXUXUXUXQ u 6.u.I.K.K.k.b.V.L.P.K.K.c.c.K.n.m.b.V.B.M.|.z.Z.q.r.i 1 UXUXUXUXUXUXUXUXUXUXUXUXUXUXUXUXUXUXUXUXUXUXUXUXUXUXUXUXUXGXUXGXUXGXH p d.7.%.9.S.I.H.c.Y.M.N.M.H.z.c.z.L.U.M.Y.J.H.e.7.e.p.p G UXLXUXUXUXUXUXUXUXUXUXUXUXUXUXUXUXUXUXUXUXUXUXUXUXUXUXUXUXUXGXUXUXUXM a 6.j.T.H.Y.k.b.P.B.L.K.K.c.c.n.K.n.c.N.x.x.S.v.Z.e.<.f 1 UXUXUXUXUXUXUXUXUXUXUXUXUXUXUXUXUXUXUXUXUXUXUXUXUXUXUXUXUXGXUXGXUXGXH p y.7.%.e.I.U.J.J.V.M.V.V.L.L.z.c.B.U.c.P.K.H.e.%.e.y.a G UXIXUXUXUXUXUXUXUXUXUXUXUXUXUXUXUXUX",
"UXUXUXUXUXUXUXUXUXGXUXUXUXUXUXHX; t f.t.q.9.J.P.L.v.S.Z.K.K.R.R.K.K.K.L.v.x.l.l.&.j.j.r.f : GXUXUXUXUXUXUXUXUXUXUXUXUXUXUXUXUXUXUXUXUXUXUXUXUXUXGXUXUXUXUXGXUXUXJ J f.u.e.w.8.*.9.*.x.l.x.B.D.S.XXU.D.S.*.*.*.j.8.u.u.<.P > IXIXUXUXUXUXUXUXUXUXUXUXUXUXUXUXUXUXUXUXUXUXUXUXUXUXUXGXUXUXUXUXUXHX; p f.r.q.9.v.Y.L.B.D.H.K.K.R.R.K.K.b.P.B.x.l.{.&.j.j.4.i , LXUXUXUXUXUXUXUXUXUXUXUXUXUXUXUXUXUXUXUXUXUXUXUXUXUXGXUXUXUXUXLXUXUXJ J f.d.u.8.*.*.9.*.l.x.z.B.S.S.XXL.S.S.&.*.j.*.8.u.u.4.f > IXUXUXUXUXUXUXUXUXUXUXUXUXUXUXUXUXUX",
"UXUXUXUXUXUXUXUXUXKXUXGXKXUXUXUXK s f.t.e.9.S.J.L.S.I.L.K.H.I.H.K.H.H.U.z.x.A.{.e.0.7.3.a 1 UXUXUXUXUXUXUXUXUXUXUXUXUXUXUXUXUXUXUXUXUXUXUXUXUXUXUXUXUXGXUXUXNXUXK s a.<.w.e.8.e.j.8.|.|.A.A.A.|.l.A.A.C.*.&.j.q.e.r.y.a.a K LXLXUXUXUXUXUXUXUXUXUXUXUXUXUXUXUXUXUXUXUXUXUXUXUXUXUXKXUXGXKXUXUXUXf s f.t.t.9.L.L.L.S.T.Z.K.H.R.I.H.K.L.U.z.S.A.S.8.8.r.<.a < UXUXUXUXUXUXUXUXUXUXUXUXUXUXUXUXUXUXUXUXUXUXUXUXUXUXUXUXUXGXUXUXNXUXK s a.<.w.e.8.9.e.0.S.|.A.F.A.A.l.A.A.A.*.&.j.j.u.2.y.6.p K LXIXUXUXUXUXUXUXUXUXUXUXUXUXUXUXUXUX",
"UXUXUXUXUXUXUXUXGXUXUXUXUXHXPXKXw s d.r.t.*.j.*.9.9.Z.T.R.R.T.D.S.XXZ.S.9.9.e.w.8.0.y.h.d ; PXPXUXUXUXUXUXUXUXUXUXUXUXUXUXUXUXUXUXUXUXUXUXUXUXUXUXUXUXUXUXLXQ 1 < p f j r.0.*.j.*.%.y.6.j i i i i C 2.w.e.9.9.%.w.y.y a f r K d UXUXUXUXUXUXUXUXUXUXUXUXUXUXUXUXUXUXUXUXUXUXUXUXGXUXUXUXUXHXHXUXp e d.t.t.*.j.9.*.j.Z.H.R.R.T.G.G.D.D.Z.9.9.=.e.%.y.y.h.a ; KXPXUXUXUXUXUXUXUXUXUXUXUXUXUXUXUXUXUXUXUXUXUXUXUXUXUXUXUXUXUXGXQ d > t f k 7.0. .j.*.%.u.6.j f i i f l 2.e.e.*.j.*.7.y.s a a ; ! d UXUXUXUXUXUXUXUXUXUXUXUXUXUXUXUX",
"UXIXUXIXUXUXUXUXUXUXGXGXUXUXGXKXw I f.r.t.7.e.e.9.e.D.T.G.C.F.|.[.h.G.D.e.9.8.8.8.y.1.5.r d PXLXUXUXUXUXUXUXUXUXUXUXUXUXUXUXUXUXUXUXUXUXUXUXUXUXUXKXGXUXKXUX, ; u f = y y.j.-.j.u.y.6.5.f d v d 1 ! ,.2.u.q.e.8.r.5.d p r i 7 u UXUXUXUXUXUXUXUXUXUXUXUXUXUXUXUXUXIXUXUXUXUXUXUXUXUXGXHXUXUXCXUXp k s.r.t.%.e.e.e.e.D.T.G.A.*Xh.h.|.G.D.q.*.9.0.0.u.1.5.u d PXUXUXUXUXUXUXUXUXUXUXUXUXUXUXUXUXUXUXUXUXUXUXUXUXUXUXKXLXUXIXUX, < ; f = y y.j.j.j.j.y.a.5.M d M 1 1 ! ( 2.u.q.9.%.w.6.a p r i ; u UXUXUXUXUXUXUXUXUXUXUXUXUXUXUXUX",
"UXIXUXUXUXUXUXUXUXUXUXUXUXNXM : G > a y w.0.w.=.e.8.u.w.k i m m u j w.e.*.:.j.t.u.r.j f u ; ^ ; UXUXUXUXUXUXUXUXUXUXUXUXUXUXUXUXUXUXUXUXUXUXUXUXGXUXUXUXUXGX    4X;XN r y.7. .*.+.2.l P H T T T H Q f j w.w.8.e.u.y.p p 4X4X& . UXUXUXUXUXUXUXUXUXUXUXUXUXUXUXUXUXIXIXUXUXUXUXUXUXUXUXUXUXNXQ , M > a y r.e.w.=.e.7.t.r.j i N m b N 2.e.q.q.j.j.u.r.j f t ; ! ; UXUXUXUXUXUXUXUXUXUXUXUXUXUXUXUXUXUXUXUXUXUXUXUXGXUXUXUXKXGX  . 4X;Xf r 6.8.*.%.+.5.l ! H G T T H Q f j y.w.7.e.t.f.p p 4X1X# . UXUXUXUXUXUXUXUXUXUXUXUXUXUXUXUX",
"UXUXUXUXUXUXUXUXUXGXUXKXUXUX< 1 p < d a 6.w.=.e.w.w.y.6.u : v c x u 5.u.q.q.j.9.0.6.i r r u ; K UXUXUXUXUXUXUXUXUXUXUXUXUXUXUXUXUXUXUXUXUXUXUXUXUXUXKXUXUXHXO   4X4Xu r 6.y.y.w.y.6.s P K < M u H P f g y.y.2.2.y.a.f ; 1X4X+ + KXUXUXUXUXUXUXUXUXUXUXUXUXUXUXUXUXUXUXUXUXUXUXUXUXHXUXPXUXKX: < 1 1 d a 6.w.=.*.w.w.u.i.u : c v x i 1.y.0.q.j.:.t.2.i ; t a ; K UXUXUXUXUXUXUXUXUXUXUXUXUXUXUXUXUXUXUXUXUXUXUXUXUXUXHXUXUXGXO . 4X2X9 u a.y.u.w.y.i.y f f d Q u K L i g y.y.2.2.y.6.f ; 5X2X+ + KXUXUXUXUXUXUXUXUXUXUXUXUXUXUXUX",
"UXUXUXUXUXUXUXUXUXUXUXUXUXUX    2X<XL L 1.p.&.&.e.+.C : c c v c m m K f 2.e.-.-.w.i.r r 5X;XX o UXUXUXUXUXUXUXUXUXUXUXUXUXUXUXUXUXUXUXUXUXUXUXUXUXGXUXUXGXUX  . ;X5X7 t y t u y 4.d.f.r.6.2.2.2.6.6.y.<.0.w.y i w s t 9 1X<X@ . UXUXUXUXUXUXUXUXUXUXUXUXUXUXUXUXUXUXUXUXUXUXUXUXUXUXUXUXUXUX    2X-XK P 1.w.&.&.j.+.C : c c c c x u M f 2.e.-.-.7.i.r r 5X;Xo o UXUXUXUXUXUXUXUXUXUXUXUXUXUXUXUXUXUXUXUXUXUXUXUXUXGXUXUXGXUX  . OX3X3 u r s s g 6.w.w.e.r.y.6.y.g.a.6.2.u.w.y t g y r 9 2XOX#   KXUXUXUXUXUXUXUXUXUXUXUXUXUXUXUX",
"UXUXUXUXUXUXUXUXUXUXUXUXKXUX  . OX1XJ J i.$.e.8.0.+.l d v m i u 0 u J L <.e.*.9.6.i.y 0 <X;X. o UXUXUXUXUXUXUXUXUXUXUXUXUXUXUXUXUXUXUXUXUXUXUXUXUXKXUXUXUXGX$ O ;XOX0 i y r d d d.d.r.a.6.y.2.y.2.w.y.y.y.6.t r P r i 9 <X4X& O UXUXUXUXUXUXUXUXUXUXUXUXUXUXUXUXUXUXUXUXUXUXUXUXUXUXUXUXKXUX  . OX2XJ J g.1.p.&.e.+.l d m M u i i i K f 2.e.*.8.6.i.t 8 2X2X. o UXUXUXUXUXUXUXUXUXUXUXUXUXUXUXUXUXUXUXUXUXUXUXUXUXKXIXUXUXGX$ . 4X X0 0 t p P a 6.6.y.r.y.y.y.r.r.6.y.4.y.4.u : l 2 i 7 <X;X@ O UXUXUXUXUXUXUXUXUXUXUXUXUXUXUXUX",
"UXUXUXUXUXUXUXUXGXUXUXUXUXUX  @ OX3Xs J K J w h f.u.r.y.y.f.u.8.w.y.s.4.f.6.k s J > i 8 .X5X+ . UXUXUXUXUXUXUXUXUXUXUXUXUXUXUXUXUXUXUXUXUXUXUXUXUXUXUXGXUXUXNXKXX # 4 4 S S = u g k s f a s s p s s t a p J t y Z A 5 : O % BXCXUXUXUXUXUXUXUXUXUXUXUXUXUXUXUXUXUXUXUXUXUXUXUXUXGXUXUXUXUXUX  @ +X3XP J L s w g f.y.r.6.f.y.w.w.r.f.s.s.f.6.k s p > i 0  X5X+ . UXUXUXUXUXUXUXUXUXUXUXUXUXUXUXUXUXUXUXUXUXUXUXUXUXUXUXLXUXUXNXUX  + a r ( ( 2 8 u a p J p s J s I k w y t r 5 9 S / 7 7 @ O SXAXUXUXUXUXUXUXUXUXUXUXUXUXUXUXUXUX",
"UXUXUXUXUXUXUXUXUXUXGXUXUXGX$   2X3Xw J p t s r a.6.6.6.d.d.d.t.r.u.d.&Xa.3.p p p P 7 0 2X X# . UXUXUXUXUXUXUXUXUXUXUXUXUXUXUXUXUXUXUXUXUXUXUXUXKXUXUXUXUXLXUXUX+ # 9 0 S S 9 9 y g t u d p K p y y u d d a i 8 V D = , % % UXZXUXUXUXUXUXUXUXUXUXUXUXUXUXUXUXUXUXUXUXUXUXUXUXUXUXUXGXUXUXGXO . 2X1Xw s p p k r 6.6.y.y.d.d.u.u.t.d.d.d.a.3.a p J f r 0 2X X# . UXUXUXUXUXUXUXUXUXUXUXUXUXUXUXUXUXUXUXUXUXUXUXUXUXUXUXUXUXHXUXUX% $ p y S #.0 8 i u < H p d a d w y y i u 9 0 4 S ( i ; % % PXUXUXUXUXUXUXUXUXUXUXUXUXUXUXUXUXUX",
"UXUXUXUXUXUXUXUXGXUXUXUXUXUXGXHX+ # k s 1.S b 0 u p u d a p J s y y J L a f 7 0 ( Z 3 9 . + HXKXUXUXUXUXUXUXUXUXUXUXUXUXUXUXUXUXUXUXUXUXUXUXUXUXUXUXGXUXUXUXUXGXHXHX# @ s y ( S O.@.V D A S ( #.#.#.S $.S B @.@.6 4 . X FXFXIXVXUXUXUXUXUXUXUXUXUXUXUXUXUXUXUXUXUXUXUXUXUXUXUXUXGXUXUXUXUXUXAXKX# # k s 1.V 0 0 u p a d p s p s y y J L a f 7 i ( Z 3 9   + ZXHXUXUXUXUXUXUXUXUXUXUXUXUXUXUXUXUXUXUXUXUXUXUXUXUXUXUXGXUXUXUXUXAXLXGX. + q 4 @.$.#.S S A S S V V n V S ( S Z 1.Z i 0   % PXUXPXHXUXUXUXUXUXUXUXUXUXUXUXUXUXUXUXUX",
"UXUXUXUXUXUXUXUXUXUXKXUXUXGXUXCX. + y r V V 3 6 u u u u u p p p u t a d 7 y 3 0 S S 9 c X   UXKXUXUXUXUXUXUXUXUXUXUXUXUXUXUXUXUXUXUXUXUXUXUXUXUXGXUXUXUXPXKXUXHXKXUXO @ w j ( B @...n n V O.O.O.@.O.@.B V @.@.$.6 7 . O VXJXDXIXIXUXUXUXUXUXUXUXUXUXUXUXUXUXUXUXUXUXUXUXUXUXUXUXUXUXKXUXUXHXUXCX. + i r Z V 5 5 u u u u p < J p u u a p 7 u 4 6 Z S 9 u   X UXUXUXUXUXUXUXUXUXUXUXUXUXUXUXUXUXUXUXUXUXUXUXUXUXUXKXUXUXUXPXKXUXIXUXUX  + 3 0 @.B @.#.X.V O.X.X.X.X.V V V V #.1.1.8 7 O % LXUXKXUXUXUXUXUXUXUXUXUXUXUXUXUXUXUXUXUX",
"UXUXUXUXUXUXUXUXUXUXUXUXUXKXUXIXZXCXX O u u 1.Z Z #.V V S ( ( Z ( A $.$.@.O.O.S 7 f     UXUXZXJXKXUXUXUXUXUXUXUXUXUXUXUXUXUXUXUXUXUXUXUXUXUXUXUXUXUXKXLXUXUXUXUXGXUXIXUX. + i 6 X.X.X.@.X.X.+.+.O.S $.S S S 8 8 + @ PXPXKXCXVXIXUXUXUXUXUXUXUXUXUXUXUXUXUXUXUXUXUXUXUXUXUXUXUXUXUXUXUXUXUXHXUXUXKXCXX X u u 1.Z S Z V V S S ( ( ( A S $.@.@.O.S 7 f X   UXKXZXZXUXUXUXUXUXUXUXUXUXUXUXUXUXUXUXUXUXUXUXUXUXUXUXUXUXUXGXGXUXUXUXUXFXFXUXUX  . 6 q V O.@.o.X.+.+.+.@.+.@.@.V B 4 q + @ HXHXUXGXHXKXUXUXUXUXUXUXUXUXUXUXUXUXUXUXUXUX",
"UXUXUXUXUXUXUXUXUXUXKXUXUXUXHXUXJXJXX X v d ^ 1.#.O.@.X.@.@.@.O.S B @.....O.+.S u <     UXKXKXKXUXUXUXUXUXUXUXUXUXUXUXUXUXUXUXUXUXUXUXUXUXUXUXUXKXUXUXGXUXGXUXPXUXIXUXIX    u 9 S V @.@.X.+.+.+.@.B $.Z S ( w f . o PXPXKXZXCXKXUXUXUXUXUXUXUXUXUXUXUXUXUXUXUXUXUXUXUXUXUXUXUXUXUXUXUXIXUXUXGXUXJXJXX X v d A 1.+.O.O.X.@.$.@.B S B @.....O.+.#.u 1   X UXUXKXJXUXUXUXUXUXUXUXUXUXUXUXUXUXUXUXUXUXUXUXUXUXUXUXUXKXUXUXHXUXGXUXIXIXFXIXIXX . 9 3 V S +.O.X.X.| +.+.O.$.B S S 4 i     ZXCXUXUXSXUXUXUXUXUXUXUXUXUXUXUXUXUXUXUXUXUX",
"UXUXUXUXUXUXUXUXUXUXUXUXUXUXUXUXUXUXKXKX  . r 8 V $...X.+.O.+.+.O.@.X.X.@.O.0 9   X JXIXUXHXUXPXUXUXUXUXUXUXUXUXUXUXUXUXUXUXUXUXUXUXUXUXUXUXUXUXUXKXUXUXUXUXUXPXY _ 1 c R R   . + # 3 6 @.V +.O.$.V q 4 # + # # UXLXPXUXLXKXKXKXUXUXUXUXUXUXUXUXUXUXUXUXUXUXUXUXUXUXUXUXUXUXUXUXUXUXUXUXUXUXUXUXPXUXKXKX    r 8 B +.n O.+.O.+.O.O.$.X.X.X.O.0 9 X X IXIXUXSXUXPXUXUXUXUXUXUXUXUXUXUXUXUXUXUXUXUXUXUXUXUXUXUXUXUXUXUXUXUXUXUXUXUXIXUXUXPXUXKX. + + + l 8 #.#.#.#.+.1.4 4 # # . o T c c x N _ PXUXUXUXUXUXUXUXUXUXUXUXUXUXUXUXUXUX",
"UXUXUXUXUXUXUXUXUXUXUXUXUXUXUXUXPXUXPXUX  . ! u $.$.B $.X.=.O.+.@.O.X.$.S i.7 9 X X IXIXUXUXPXPXUXUXUXUXUXUXUXUXUXUXUXUXUXUXUXUXUXUXUXUXUXUXUXUXKXUXGXUXUXKXPXLX/ f M Q c R   . . . 5 3 S S Z $.O.B 4 4 # . # . FXIXPXPXUXDXUXKXUXUXUXUXUXUXUXUXUXUXUXUXUXUXUXUXUXUXUXUXUXUXUXUXUXUXUXUXUXUXUXUXUXUXKXUX    ! i ( $.@.$.X.=...+.O.X.@.@.#.i.7 : X X IXIXUXUXPXPXUXUXUXUXUXUXUXUXUXUXUXUXUXUXUXUXUXUXUXUXUXUXUXUXUXUXUXUXUXUXUXUXUXBXKXUXHXPX    . . = t Z +.2.#.,.Z 0 3 & &   % R c x m i Z PXPXUXUXUXUXUXUXUXUXUXUXUXUXUXUXUXUX",
"UXUXUXUXUXUXUXUXUXUXUXUXUXUXUXUXUXIXIXLXQ P   .   . r 7 n X.+...X.V 7 9 . . .   ; Q LXIXIXJXUXUXUXUXUXUXUXUXUXUXUXUXUXUXUXUXUXUXUXPXUXUXUXUXUXIXUXGXUXUXPXUX_ C 6X3Xu 1 c v u 0 ].].0 3 q g y e q q h q ~.}.= M X   UXLXSXUXLXUXUXUXUXUXUXUXUXUXUXUXUXUXUXUXUXUXUXUXUXUXUXUXUXUXUXUXUXUXUXUXUXUXUXIXIXLX! K     X X 7 9 O.....+.X.D 3 r . . .   : Q AXIXIXJXUXUXUXUXUXUXUXUXUXUXUXUXUXUXUXUXUXUXUXUXUXUXUXUXUXUXUXUXUXUXUXUXUXUXSXPXHXZX@   1 m [.].b m 4 4 q 8 y i 5 5 ].].u T v R c c 3X7XU ^ UXUXUXUXUXUXUXUXUXUXUXUXUXUXUXUX",
"UXUXUXUXUXUXUXUXUXUXUXUXUXUXUXUXIXIXUXUXQ < O   . X i i S n ..+.n $.i r +     $ M K UXUXUXIXHXGXUXUXUXUXUXUXUXUXUXUXUXUXUXUXUXUXUXUXUXUXUXUXUXUXIXUXPXUXPXPX~ C |.oXi Q c v i q ].].6 q 4 4 4 q e 4 4 4 ~.~.x c X   IXUXUXUXIXIXUXUXUXUXUXUXUXUXUXUXUXUXUXUXUXUXUXUXUXUXUXUXUXUXUXUXUXUXUXUXUXUXIXIXUXUXd 1 $ . X + f i B O...+.O.$.i r . X   @ d K UXUXUXUXKXGXUXUXUXUXUXUXUXUXUXUXUXUXUXUXUXUXUXUXUXUXUXUXUXUXUXUXUXUXUXUXUXUXPXSXKXCXX X c v ~.^.3 5 4 4 6 6 4 6 6 b `.{.i p T , : m |.6X;./ PXUXUXUXUXUXUXUXUXUXUXUXUXUXUXUX",
"UXUXUXUXUXUXUXUXUXUXUXUXUXUXUXUXUXUX  X 1 M u N ].!.4 y 7 0 8 8 h 2 k h p.'.5 ; d Q % % PXUXUXUXUXUXUXUXUXUXUXUXUXUXUXUXUXUXUXUXUXUXUXUXUXUXUXUXLXUXKXUXPXPX~ ^ 6XoX;X;Xx m h } y q `.W.`.(.).`.@ X [.].b m x c c R R G UXKXIXUXUXUXUXUXUXUXUXUXUXUXUXUXUXUXUXUXUXUXUXUXUXUXUXUXUXUXUXUXUXUXUXUXUXUX    v M d i }.!.4 y 3 0 0 2 h 2 h g !.}.5 ; M Q % % PXUXUXUXUXUXUXUXUXUXUXUXUXUXUXUXUXUXUXUXUXUXUXUXUXUXUXUXUXUXUXUXUXUXUXUXUXUX, ~ F R R , x b W.'.# + ~.W.(.W.(.W.b 4 | U T Q 2XoX@X.X#.l KXUXUXUXUXUXUXUXUXUXUXUXUXUXUXUX",
"UXUXUXUXUXUXUXUXUXUXUXUXUXUXUXUXKXKXX X M M r 0 W.'.6 i 0 5 3 6 q h k 8 W.Q.0 C 1 G % O PXPXLXIXUXUXUXUXUXUXUXUXUXUXUXUXUXUXUXUXUXUXUXUXIXUXUXIXUXGXUXUXUXPX) ^ <X.XOX;XM u | } q 4 `././././.(.+ X ].].: M x v Q , T Q HXIXUXLXUXUXUXUXUXUXUXUXUXUXUXUXUXUXUXUXUXUXUXUXUXUXUXUXUXUXUXUXUXUXUXUXKXHXX   v M t 0 W.'.6 i 0 3 4 0 q j e e W.W.b C 1 1 % % PXUXGXIXUXUXUXUXUXUXUXUXUXUXUXUXUXUXUXUXUXUXUXUXUXUXUXUXUXUXUXUXUXUXUXIXIXIX1 T c R T d Q = ^.!.# + '._./././.Q.q 4 | U p K 2X|.6XOXC ^ UXUXUXUXUXUXUXUXUXUXUXUXUXUXUXUX",
"UXUXUXUXUXUXUXUXUXUXUXUXUXUXUXUX    G R c u l h '.W.+ . ~.W.'.W.).^.. + W.W.B g M c T 1 @ . UXJXUXUXUXUXUXUXUXUXUXUXUXUXUXUXUXUXUXUXUXUXUXUXUXUXIXUXGXUXUXPXPXPXC ^     X & %.&.`.(.E./.E.E._./.(.^.@ + I ^ d f <X4X. X KXUXPXUXUXUXUXUXUXUXUXUXUXUXUXUXUXUXUXUXUXUXUXUXUXUXUXUXUXUXUXUXUXUXUXUX  X , R , M j h '.W.+ + ~.W.'.(.(.^.. @ (.W.B y M c Q H + . UXIXIXUXUXUXUXUXUXUXUXUXUXUXUXUXUXUXUXUXUXUXUXUXUXUXUXUXUXUXUXUXUXUXJXKX    4X9Xi f l I & # '.W./.)././././.).M. . .@   . + N A KXUXUXUXUXUXUXUXUXUXUXUXUXUXUXUXUXUX",
"UXUXUXUXUXUXUXUXUXUXUXUXUXUXUXUX. . 1 T v M z h `.^.# X ~.Q././.E.Q.. . ^.`.| U M c c u + . KXKXUXUXUXUXUXUXUXUXUXUXUXUXUXUXUXUXUXUXUXUXUXUXUXUXUXKXUXPXPXUXUXKX_ ! o o + & %.o.`.).(.E.Q.E._././.'.# # l z i f 1X6X. X CXKXUXPXUXUXUXUXUXUXUXUXUXUXUXUXUXUXUXUXUXUXUXUXUXUXUXUXUXUXUXUXUXUXUXKX. . H T v f z h ^.!.. X ~.Q.E./.E.Q.. . ^.^.} ;.u c c d + + KXKXUXUXUXUXUXUXUXUXUXUXUXUXUXUXUXUXUXUXUXUXUXUXUXUXUXUXUXUXUXUXUXKXZXZX. @ 7X1Xj i z U # & !./.).)././.).).`.{. .&.+ X   o ` M UXHXUXUXUXUXUXUXUXUXUXUXUXUXUXUXUXUX",
"UXUXUXUXIXUXUXUXUXUXPXHXUXPX^ ! zXzX<X4X. + d.;.& # ].W.Q.Q.E./.E._.'.].& & :.d.. X 1X6XtXcXC ^ UXUXUXUXUXUXUXUXUXUXUXUXUXUXUXUXUXUXUXUXUXUXUXUXUXUXUXUXUXUXUXUXUXUXUXUX+ & } O.+...!././././.).....6 q <.<.# + yXyXuXuXC ( HXIXUXUXUXUXUXUXUXUXUXUXUXUXUXUXUXUXUXUXUXIXUXUXIXUXUXUXPXHXUXPX_ ! zXuX<X4X. + d.;.& @ ].!.Q.Q.E././._.'.].& & :.r.+   <X6XtXcXC ^ UXUXUXUXUXUXUXUXUXUXUXUXUXUXUXUXUXUXUXUXUXUXUXUXUXUXUXUXUXUXUXUX^ j iXyXlXyX# # <.4.y 8 ...././././.W.`...+.h h + . IXIXUXKXUXUXUXUXUXUXUXUXUXUXUXUXUXUXUXUXUXUX",
"UXUXUXUXUXUXUXUXUXUXUXPXHXPX! ) uXyX3X<X. + :.d.@ @ `.`.Q.E./.E.E.E.W.^.+ # :.:.+ o 1X6XtXuX/ Z KXUXUXUXUXUXUXUXUXUXUXUXUXUXUXUXUXUXUXUXUXUXUXUXUXUXUXUXUXUXUXUXUXUXIXSX+ & j B @...}._.(.).(.Q...o.4 q 7.<.# # yXyXiXtX,.l KXIXUXUXUXUXUXUXUXUXUXUXUXUXUXUXUXUXUXUXUXUXIXUXUXUXUXUXUXPXHXUXP ^ uXuX6X<X. + 4.d.& # `.).E.E./.E./._.W.^.# & :.r.. o 1X6XtXzXZ ^ KXUXUXUXUXUXUXUXUXUXUXUXUXUXUXUXUXUXUXUXUXUXUXUXUXUXUXUXUXUXUXKXC #.yXxXyXlX  + <.:.q 6 ....)._.).(.`.`.O.B B A .   LXIXIXUXUXUXUXUXUXUXUXUXUXUXUXUXUXUXUXUXUXUX",
"UXUXUXUXUXUXUXUXUXIXUXUXHXPX! ^ kXlXwXxX  + z h q 4 @..._./._._./._...X.6 3 h h . O kX0XxXxXZ l KXUXUXUXUXUXUXUXUXUXUXUXUXUXUXUXUXUXUXUXUXUXUXUXUXUXUXUXUXUXUXUXUXIXUXPXK K m b !.'.n n ..n ..n [.[.q 4 z U + + lXlXtXlX/ / UXIXUXUXUXUXUXUXUXUXUXUXUXUXUXUXUXUXUXUXUXUXUXUXUXUXUXGXPXUXSXPX^ ^ cXxXwXxX  + h h 8 4 X...).E._._._._...@.6 3 h h + . kX0XxXyXZ z KXUXUXUXUXUXUXUXUXUXUXUXUXUXUXUXUXUXUXUXUXUXUXUXUXUXUXUXUXUXUXKX/ z tXtXlXkX@ . ;.U e 6 `.'...n ........!.^.b x Q G UXUXIXUXUXKXUXUXUXUXUXUXUXUXUXUXUXUXUXUXUXUX",
"UXUXUXUXUXIXUXIXLXGXUXKXKXPX_ ! kXlXyXlX  . j l 4 6 ....)._.).-.).W...@.3 0 z I . o cXlXtXyXz / UXUXUXUXUXUXUXUXUXUXUXUXUXUXUXUXUXUXUXUXUXUXUXUXUXUXUXUXUXUXUXUXGXUXPXPXR T v x ~.'.n ....n ....].[.3 2 / l + . cXlXxXkXf ^ HXUXUXUXUXUXUXUXUXUXUXUXUXUXUXUXUXUXUXUXUXUXUXUXUXIXUXKXUXUXKXHX_ ! kXlXyXlXo . k z 7 6 ..o.).).`.(./.o...O.3 0 Z k o o nXlXtXyXz / KXUXUXUXUXUXUXUXUXUXUXUXUXUXUXUXUXUXUXUXUXUXUXUXUXUXUXUXUXUXUXUX! l cXlXcXkX. . U k i 6 ~.~.n X.....o...~.~.x c G G PXUXIXUXUXUXUXUXUXUXUXUXUXUXUXUXUXUXUXUXUXUX",
"UXUXUXUXUXUXUXUXUXUXKXGXPXKXHXHXC Z z I H H ] { u 5 !.`.....o...o.o.p.(.4 0 _ { c c f Z | ,.HXPXUXUXUXUXUXUXUXUXUXUXUXUXUXUXUXUXUXUXUXUXUXUXUXUXUXUXUXUXUXUXUXUXUXKXHXKX% % W [   # '.`.'.).).`.+ + m f _ _ . . f ^ ^ / HXPXUXUXUXUXUXUXUXUXUXUXUXUXUXUXUXUXUXUXUXUXUXUXIXUXUXUXUXUXUXGXPXKXHXHXC z U I K H ] { b 5 !.`..... ...+.o.).`.6 0 _ ' c c C Z z #.HXPXUXUXUXUXUXUXUXUXUXUXUXUXUXUXUXUXUXUXUXUXUXUXUXUXUXUXUXUXUXUXUXUXUXUXP ^ Z l . @ ] ] Q 1 . @ {.`.).'.).`.@ X ` [ o O HXKXKXUXUXUXUXUXUXUXUXUXUXUXUXUXUXUXUXUXUXUX",
"UXUXUXUXUXUXIXUXIXUXUXUXUXHXUXPX^ C / ] Q R ' ' x b ~.`.......o...X.^.}.5 1 [ [ c T C S Z l PXUXUXUXUXUXUXUXUXUXUXUXUXUXUXUXUXUXUXUXUXUXUXUXUXUXUXUXUXUXUXUXUXUXKXKXZXIX% % $X[   . ].!.W.!.`.`.. X 1 v ` { $ o _ M ) ) BXUXUXPXUXUXUXUXUXUXUXUXUXUXUXUXUXUXUXUXUXUXUXUXUXUXIXUXGXUXUXUXUXGXPXKXA C U ) L R [ ' , b ^.`.......o...X.].].3 r [ [ c v N ( / l PXKXUXUXUXUXUXUXUXUXUXUXUXUXUXUXUXUXUXUXUXUXUXUXUXUXUXUXUXUXUXUXUXUXIXGX_ I ^ ^ + . ` ~ T H % . ].!.W.`.W.!.$ X [ [   X UXPXZXKXIXIXUXUXUXUXUXUXUXUXUXUXUXUXUXUXUXUX",
"UXUXUXUXUXUXIXUXUXIXJXUXUXUXUXGXIXUXPXSX% % R R [ E   & -.'.(.E.).!.+ X W [ F c X X KXCXCXZXHXUXUXUXUXUXUXUXUXUXUXUXUXUXUXUXUXUXUXUXUXUXUXUXUXUXUXUXUXUXUXUXUXUXZXVXZXJXX O T F [ ' 1 x m m : c c Q X O o o AXUXUXUXKXHXPXUXGXUXUXUXUXUXUXUXUXUXUXUXUXUXUXUXUXUXUXUXUXUXUXUXIXUXUXIXGXUXUXUXUXGXIXUXPXSX% % R R [ E . & `.'./.).).`.. X [ [ R R O   KXCXCXKXHXUXUXUXUXUXUXUXUXUXUXUXUXUXUXUXUXUXUXUXUXUXUXUXUXUXUXUXUXUXUXUXUXUXUXUXUXPXUXKXPXPX    X   1 M 9 m m M d v ` W c R X X FXUXPXPXUXUXUXUXUXUXUXUXUXUXUXUXUXUXUXUXUXUX",
"UXUXUXUXUXUXUXIXUXUXUXUXLXUXUXUXFXFXPXPX+ o Q , [ { % . }.W.~.'.`.}.X O [ [ Q d . . DXIXUXDXKXJXUXUXUXUXUXUXUXUXUXUXUXUXUXUXUXUXUXUXUXUXUXUXUXUXUXUXUXUXUXUXUXUXKXZXIXDXX X : H $X#XR R R , R H v , X o o % UXUXUXKXPXPXKXKXUXUXUXUXUXUXUXUXUXUXUXUXUXUXUXUXUXUXUXUXUXUXUXUXUXIXUXUXUXUXKXUXUXUXFXFXUXPX. o M , ` [ % . ].!.W.!.!.}.X o $XE Q J   . JXIXKXGXKXJXUXUXUXUXUXUXUXUXUXUXUXUXUXUXUXUXUXUXUXUXUXUXUXUXUXUXUXUXUXUXUXUXUXHXUXPXIXIXLXUX  X     c v v d H R F F $XE R c X % FXIXUXUXHXKXUXUXUXUXUXUXUXUXUXUXUXUXUXUXUXUX",
"UXUXUXUXUXUXUXUXIXUXUXUXUXUXUXIXIXDXKXZX+ & <.:.:.3.f M K < N m u m < N / 6.4.4.& + UXSXUXUXCXKXUXUXUXUXUXUXUXUXUXUXUXUXUXUXUXUXUXUXUXUXUXUXUXUXUXUXUXUXUXUXUXUXKXUXUXUXPXUXO o [ W #X#X% % UXUXUXUXUXUXIXIXPXUXUXUXPXKXUXUXIXUXUXUXUXUXUXUXUXUXUXUXUXUXUXUXUXUXUXUXUXUXUXUXUXUXIXUXUXUXIXUXUXIXIXDXKXZX+ & ;.r.r.<.f Q d 1 m m c m : M 3.6.;.4.& # PXLXUXUXGXKXUXUXUXUXUXUXUXUXUXUXUXUXUXUXUXUXUXUXUXUXUXUXUXUXUXUXUXUXUXUXUXUXPXPXUXUXDXJXKXUXIXIXUXPXZXZXIXUX  % #X#X#X[ % % PXUXIXIXIXUXZXZXUXUXUXUXUXUXUXUXUXUXUXUXUXUXUXUX",
"UXUXUXUXUXUXUXUXIXUXIXUXIXUXUXUXZXKXKXZX. # 4.t.t.<.f 1 G L K 1 1 , m i <.:.d.4.& - SXUXPXPXHXUXUXUXUXUXUXUXUXUXUXUXUXUXUXUXUXUXUXUXUXUXUXUXUXUXUXUXUXUXUXUXUXUXKXUXPXUXPXPX. o ` { [ ' $ o KXKXUXUXUXUXIXIXUXPXUXIXUXKXIXKXIXKXUXUXUXUXUXUXUXUXUXUXUXUXUXUXUXUXUXUXUXUXUXUXUXUXUXUXIXUXUXUXIXUXJXKXZXKX. & <.r.t.<.u 1 G Y K H v , m i ,.:.d.d.& - SXUXPXPXKXKXUXUXUXUXUXUXUXUXUXUXUXUXUXUXUXUXUXUXUXUXUXUXUXUXUXUXUXUXUXUXUXUXUXPXUXUXVXVXKXUXIXUXPXPXZXKXIXIX  o { [ [ { $ % PXPXUXIXIXUXZXZXKXUXUXUXUXUXUXUXUXUXUXUXUXUXUXUX",
"UXUXUXUXUXUXUXUXUXUXUXIXUXUXUXIXZXCXPXUXIXIX  . . + UXIXUXUXIXIXIXKXZXZX@ & * % IXMXUXKXZXKXUXUXUXUXUXUXUXUXUXUXUXUXUXUXUXUXUXUXUXUXUXUXUXUXUXUXUXUXUXUXUXUXUXUXHXKXKXKXIXUXo * 5.4.<.6.# + KXKXHXUXUXUXIXIXPXUXUXKXUXKXIXJXKXKXUXUXUXUXUXUXUXUXUXUXUXUXUXUXUXUXUXUXUXUXUXUXUXUXUXIXUXUXIXUXUXUXZXCXPXUXIXUX  + + + UXUXUXUXUXKXUXZXCXZX# & @ @ UXVXUXIXHXKXUXIXUXUXUXUXUXUXUXUXUXUXUXUXUXUXUXUXUXUXUXUXUXUXUXUXUXUXUXUXUXUXUXUXUXUXUXUXIXJXUXPXIXIXUXUXUXUXUXZX  + #.#.<.;.* @ UXUXUXKXUXUXJXIXUXUXUXUXUXUXUXUXUXUXUXUXUXUXUXUX",
"UXUXUXIXUXUXUXUXUXUXUXUXUXUXUXUXZXHXUXUXFXFXX   O o IXDXHXZXZXZXKXZXZXKX% % % % FXFXZXZXZXKXUXIXUXUXUXUXUXUXUXUXUXUXUXUXUXUXUXUXUXUXUXUXUXUXUXUXUXUXUXUXUXUXUXUXUXKXCXZXIXLX% @ 4.| 7.w.& + ZXZXUXPXUXUXIXIXUXPXUXUXKXUXJXIXKXUXUXUXUXUXUXUXUXUXUXUXUXUXUXUXUXUXUXUXKXUXUXUXUXUXUXUXUXUXUXUXIXUXZXZXPXIXFXFXX X % o IXDXZXZXKXVXKXZXZXHXo % % % FXFXZXZXZXZXUXIXUXUXUXUXUXUXUXUXUXUXUXUXUXUXUXUXUXUXUXUXUXUXUXUXUXUXUXUXUXUXUXUXKXIXUXUXUXUXUXUXJXKXKXPXUXUXIXKXX . =.%.0.d.& @ KXKXPXUXUXIXIXUXUXUXUXUXUXUXUXUXUXUXUXUXUXUXUXUX",
"UXUXUXKXUXUXUXUXUXUXUXUXUXUXUXUXUXKXBXUXFXFXIXKXUXHXUXUXUXUXVXVXUXPXUXUXUXJXUXIXVXDXVXZXKXLXUXUXUXUXUXUXUXUXUXUXUXUXUXUXUXUXUXUXUXUXUXUXUXUXUXUXUXUXUXUXUXUXUXUXGXUXZXKXUXUXSXPX+ * # + KXPXKXKXPXUXUXUXFXIXUXKXUXUXUXUXUXIXUXKXUXUXUXUXUXUXUXUXUXUXUXUXUXUXUXUXUXKXUXKXIXUXUXUXUXUXUXUXUXUXUXUXKXHXAXUXFXFXIXUXUXKXUXUXUXUXVXVXUXUXUXUXIXGXPXUXMXDXCXCXHXHXUXIXUXUXUXUXUXUXUXUXUXUXUXUXUXUXUXUXUXUXUXUXUXUXUXUXUXUXUXUXUXUXUXUXKXKXKXIXIXIXUXPXKXKXUXPXPXUXUXIXUXPX+ # + + UXUXPXPXKXKXCXJXUXKXUXUXUXUXUXUXUXUXUXUXUXUXUXUXUXUX",
"KXUXUXUXKXUXUXUXUXUXUXUXUXUXUXIXIXUXUXPXIXIXHXZXCXUXLXUXUXLXJXJXGXUXLXIXLXKXGXKXJXVXCXZXUXPXIXIXUXUXUXUXUXUXUXUXUXUXUXUXUXUXUXUXUXUXUXUXUXUXUXUXUXUXUXUXUXUXUXUXUXUXKXUXPXPXUXGXo       LXUXPXPXUXPXUXIXJXIXKXUXPXUXUXUXIXUXUXUXUXUXUXUXUXUXUXUXUXUXUXUXUXUXUXUXUXUXUXUXUXUXUXUXUXUXUXUXUXUXUXUXUXUXUXUXUXIXGXKXCXUXSXUXUXLXJXJXHXUXLXIXIXIXCXKXVXDXCXZXPXUXIXIXUXUXUXUXUXUXUXUXUXUXUXUXUXUXUXUXUXUXUXUXUXUXUXUXUXUXUXUXUXUXUXUXUXKXIXUXIXUXPXUXUXIXUXUXKXKXIXUXUXPX% o o   KXUXUXKXKXKXJXIXUXUXUXUXUXUXUXUXUXUXUXUXUXUXUXUXUXUX",
"UXUXUXKXUXUXUXUXUXUXUXUXUXUXUXIXFXDXPXPXUXZXZXCXKXGXUXPXPXUXKXKXUXPXIXIXIXHXKXCXKXKXUXUXHXLXUXIXUXUXUXUXUXUXUXUXUXUXUXUXUXUXUXUXUXUXUXUXUXUXUXUXUXUXUXUXUXUXUXUXUXUXIXUXZXCXZXZXKXUXUXPXUXUXLXUXUXUXIXFXDXIXUXPXUXUXUXIXIXUXUXUXUXUXUXUXUXUXUXUXUXUXUXUXUXUXUXUXUXKXUXUXUXUXUXUXUXUXUXUXUXUXUXIXFXFXPXPXKXZXCXCXKXDXUXPXPXUXKXKXPXPXIXIXUXJXKXCXKXKXKXUXHXUXUXIXUXUXUXUXUXUXUXUXUXUXUXUXUXUXUXUXUXUXUXUXUXUXUXUXUXUXUXUXUXUXUXUXUXIXIXIXUXPXPXUXIXFXIXUXUXPXUXPXPXPXUXIXIXIXLXIXIXIXUXUXUXUXUXUXUXUXUXUXUXUXUXUXUXUXUXUXUXUXUXUX",
"KXKXUXUXUXUXUXUXUXUXUXUXUXUXUXUXFXIXUXPXKXZXvXZXCXIXAXUXPXUXHXUXPXUXFXFXIXUXKXZXZXKXSXUXPXUXJXDXUXUXUXUXUXUXUXUXUXUXUXUXUXUXUXUXUXUXUXUXUXUXUXUXUXUXUXUXUXUXUXUXPXUXIXJXCXvXvXZXJXUXPXUXPXUXUXIXUXUXIXFXFXJXUXUXUXPXUXUXUXUXUXKXUXUXUXUXUXUXUXUXUXUXUXUXUXUXUXUXUXUXUXUXKXUXUXUXUXUXUXUXUXUXUXUXFXIXPXPXZXCXvXCXCXUXAXPXPXUXCXUXUXUXFXFXIXUXKXZXZXKXHXUXPXUXJXDXUXUXUXUXUXUXUXUXUXUXUXUXUXUXUXUXUXUXUXUXUXUXUXUXUXUXUXUXUXUXUXUXIXIXIXUXUXPXPXPXIXFXFXIXUXPXUXUXPXUXIXIXFXDXIXJXJXJXUXUXPXUXKXZXUXUXUXUXUXUXUXUXUXUXUXUXUXUXUXUX"
};
