/* XPM */
static char *result[] = {
/* columns rows colors chars-per-pixel */
"64 64 196 2 ",
"   c #010001",
".  c #080508",
"X  c #0B0B0D",
"o  c #120605",
"O  c #140C06",
"+  c #130708",
"@  c #0D0D10",
"#  c #100E12",
"$  c #232627",
"%  c #232628",
"&  c #2C2C2C",
"*  c #332928",
"=  c #312F2F",
"-  c #2F3234",
";  c #323133",
":  c #333739",
">  c #3D3D3D",
",  c #49231D",
"<  c #552317",
"1  c #5C3618",
"2  c #652A1C",
"3  c #653B1A",
"4  c #483F3F",
"5  c #75431D",
"6  c #79461D",
"7  c #49423F",
"8  c #3B3C45",
"9  c #413F41",
"0  c #3F4040",
"q  c #434345",
"w  c #49494B",
"e  c #594E4E",
"r  c #47504F",
"t  c #4F514F",
"y  c #5D534F",
"u  c #494757",
"i  c #464E52",
"p  c #494F54",
"a  c #564E52",
"s  c #465051",
"d  c #495153",
"f  c #4E5459",
"g  c #555555",
"h  c #545457",
"j  c #555A5C",
"k  c #5B5A5B",
"l  c #774C44",
"z  c #63514F",
"x  c #675B4F",
"c  c #7A5C45",
"v  c #5C5F65",
"b  c #605F66",
"n  c #5C626C",
"m  c #64656A",
"M  c #676A70",
"N  c #6A6E73",
"B  c #68677B",
"V  c #686C7B",
"C  c #6C7075",
"Z  c #6F717C",
"A  c #777478",
"S  c #75757C",
"D  c #79787F",
"F  c #923D27",
"G  c #92432F",
"H  c #8A4A3E",
"J  c #9A4737",
"K  c #95463B",
"L  c #994639",
"P  c #9C4839",
"I  c #A2432B",
"U  c #B44A2F",
"Y  c #A25E29",
"T  c #A34B3A",
"R  c #A74E39",
"E  c #B24C35",
"W  c #AC5239",
"Q  c #BC5335",
"!  c #A9622A",
"~  c #BA6C2D",
"^  c #A56532",
"/  c #BA633B",
"(  c #C85537",
")  c #CD5839",
"_  c #D35637",
"`  c #D95736",
"'  c #D75836",
"]  c #D95836",
"[  c #D85938",
"{  c #CE792F",
"}  c #CD6939",
"|  c #DB6E36",
" . c #CC7730",
".. c #CB7B36",
"X. c #E16637",
"o. c #E36C37",
"O. c #E97639",
"+. c #ED7C38",
"@. c #894941",
"#. c #975444",
"$. c #A35642",
"%. c #A67245",
"&. c #A77345",
"*. c #BF7C42",
"=. c #85746D",
"-. c #D28936",
";. c #EA8637",
":. c #E88439",
">. c #EA8B3A",
",. c #F08137",
"<. c #F78F37",
"1. c #F98E37",
"2. c #F38638",
"3. c #F78F39",
"4. c #F98E39",
"5. c #FA9036",
"6. c #F69837",
"7. c #F79338",
"8. c #FB9139",
"9. c #F6A836",
"0. c #F6A539",
"q. c #F8A939",
"w. c #F7B938",
"e. c #F6C336",
"r. c #F6CF35",
"t. c #F6C23A",
"y. c #F5D035",
"u. c #F6D13B",
"i. c #F5BA50",
"p. c #F6D140",
"a. c #F7D26C",
"s. c #F7E07B",
"d. c #6D6D80",
"f. c #706E82",
"g. c #7B7A81",
"h. c #77788A",
"j. c #7C8085",
"k. c #838384",
"l. c #85858A",
"z. c #898789",
"x. c #8A8A8B",
"c. c #898897",
"v. c #82839A",
"b. c #8B8B9D",
"n. c #928E9A",
"m. c #9B9C9D",
"M. c #918CA4",
"N. c #8E91A9",
"B. c #9591A6",
"V. c #9C9DA1",
"C. c #9392AA",
"Z. c #9B99AE",
"A. c #9B9AB1",
"S. c #9E9EBD",
"D. c #A19FA1",
"F. c #A09DB5",
"G. c #9FA0BF",
"H. c #A3A3A3",
"J. c #AAAAAB",
"K. c #A2A1BE",
"L. c #ACA6B9",
"P. c #B1A8BD",
"I. c #B3B3B4",
"U. c #FAE5A9",
"Y. c #A09FC0",
"T. c #9FA1C0",
"R. c #A2A2C2",
"E. c #AEACC4",
"W. c #B5ABC1",
"Q. c #B1ADCC",
"!. c #BAB7C7",
"~. c #BCBCCA",
"^. c #C3BACE",
"/. c #C5BAD6",
"(. c #C6BBD9",
"). c #CBBFDB",
"_. c #CAC5D2",
"`. c #C8C6D4",
"'. c #D7D7D8",
"]. c #FCF2CE",
"[. c #FCF3D0",
"{. c #D4C6E3",
"}. c #D8C7E6",
"|. c #D5C9E5",
" X c #D9C8E5",
".X c #D8CBE9",
"XX c #DAD9E2",
"oX c #E5DEEF",
"OX c #DFE1E1",
"+X c #E4E4E4",
"@X c #E5E5EA",
"#X c #ECECEC",
"$X c #F2EEF4",
"%X c #F6F5F6",
"&X c #F7F8F8",
"*X c #FFFFFF",
/* pixels */
"*X*X*X*X*X*X*X*X*X*X*X*X*X*X*X*X*X*X*X*X*Xk                                         g *X*X*X*X*X*X*X*X*X*X*X*X*X*X*X*X*X*X*X*X*X",
"*X*X*X*X*X*X*X*X*X*X*X*X*X*X*X*X*X*X*X*X*Xg                                         k *X*X*X*X*X*X*X*X*X*X*X*X*X*X*X*X*X*X*X*X*X",
"*X*X*X*X*X*X*X*X*X*X*X*X*X*X*X*X*X*X*X*X*Xg                                         k *X*X*X*X*X*X*X*X*X*X*X*X*X*X*X*X*X*X*X*X*X",
"*X*X*X*X*X*X*X*X*X*X*X*X*X&XH.k.k.k.k.k.k.c 6 6 6 6 6 6 6 6 6 6 6 6 6 6 6 6 6 6 6 6 c k.k.k.k.k.k.H.&X*X*X*X*X*X*X*X*X*X*X*X*X*X",
"*X*X*X*X*X*X*X*X*X*X*X*X*X&X>             Y 8.8.5.5.8.8.8.8.4.8.8.8.5.4.5.8.8.8.8.8.Y             > %X*X*X*X*X*X*X*X*X*X*X*X*X*X",
"*X*X*X*X*X*X*X*X*X*X*X*X*X&X0     .       Y 8.4.4.4.4.4.4.3.4.4.4.4.4.4.4.4.4.4.1.8.Y             0 &X*X*X*X*X*X*X*X*X*X*X*X*X*X",
"*X*X*X*X*X*X*X*X*X*X%X+X#X+X7 O O O O O O ! 1.4.4.4.4.4.4.4.4.4.4.4.4.4.4.4.4.4.4.8.! O O O O O o 7 OX#X+X%X*X*X*X*X*X*X*X*X*X*X",
"*X*X*X*X*X*X*X*X*X*XI.& $ * ^ { { { { { { ;.1.<.3.4.3.4.3.4.3.4.3.4.3.4.3.4.3.3.4.4.>.{ { { Q U U G * & & I.*X*X*X*X*X*X*X*X*X*X",
"*X*X*X*X*X*X*X*X*X*XD.    . ~ 5.7.1.1.1.5.5.<.<.<.<.<.<.<.<.<.<.3.<.<.<.<.<.<.<.3.<.1.5.1.4.X.] ] I       D.*X*X*X*X*X*X*X*X*X*X",
"*X*X*X*X*X*X*X*X*X*XH.      ~ 5.<.<.<.<.<.<.<.<.<.<.<.<.<.<.<.<.3.<.<.<.<.<.<.<.<.<.<.7.<.<.X.' ` I       H.*X*X*X*X*X*X*X*X*X*X",
"*X*X*X*X*X*X&XJ.m.D.=.1 1 5 -.9.q.9.9.9.9.6.<.<.<.<.7.<.<.<.3.3.<.<.<.<.<.<.<.3.<.<.<.<.<.<.O.o.O.( < < < =.D.m.J.&X*X*X*X*X*X*X",
"*X*X*X*X*X*X#X&     1 7.<.5.e.y.y.y.y.y.r.9.<.<.3.3.3.3.3.3.5.3.3.3.3.3.3.3.3.3.3.3.3.3.3.3.7.1.5.2.' ' ' <     = #X*X*X*X*X*X*X",
"*X*X*X*X*X*X#X&     1 3.<.5.e.y.y.y.y.y.r.0.<.<.3.3.3.3.3.3.3.3.3.3.3.3.3.3.3.3.3.3.3.3.3.3.4.4.1.,.] ] ' <     & +X*X*X*X*X*X*X",
"*X*X*X&X%X%X+X=   . 1 7.5.5.t.y.p.u.u.p.u.0.<.7.7.3.3.3.3.3.3.3.3.3.3.3.3.3.3.3.3.3.3.3.3.3.4.4.1.,.] ] ` <   . = oX%X%X%X*X*X*X",
"*X*X*XH.> 4 q ^ ~ ~ -.e.t.t.U.[.].].].].[.a.e.e.w.7.3.3.3.3.3.3.3.3.3.3.3.3.3.3.3.3.3.3.3.3.4.4.5.,.] ] ` ( I I G 7 9 4 D.*X*X*X",
"*X*X*Xz.    O { 8.8.q.y.y.p.[.*X*X*X*X*X*Xs.y.y.e.7.3.3.3.3.3.3.3.3.3.3.7.3.4.3.3.3.3.3.3.3.7.4.5.2.] ] ] ] ] ] U o     l.*X*X*X",
"*X*X*Xz.    O { 8.3.0.r.r.p.].*X*X*X*X*X*Xs.r.r.e.7.7.3.3.3.3.3.3.3.3.3.3.3.3.3.3.3.3.3.3.3.4.4.5.+.] ] ] ] ] ] U +     x.*X*X*X",
"*X*X*Xz.    O  .8.3.q.r.u.p.].*X*X*X*X*X*Xs.r.r.e.7.7.3.3.3.3.3.3.7.3.3.3.3.3.3.3.3.3.3.3.3.3.4.1.;.] ] ] ] ' ] U +     z.*X*X*X",
"*X*X*Xz.    O  .8.3.0.r.r.p.[.*X*X*X*X*X&Xs.r.r.t.6.3.3.3.3.3.3.3.3.3.3.3.3.3.3.3.3.7.3.3.3.3.4.5.2.] ] ] ] ] ] U +     z.*X*X*X",
"*X*X*Xz.    O  .8.4.0.r.r.p.[.*X*X*X*X*X*Xs.r.r.t.7.3.3.3.3.3.3.3.3.3.3.3.3.3.3.3.3.3.3.3.3.4.4.1.2.] ] ] ] ] ] U +     z.*X*X*X",
"*X*X*Xz.    O  .4.3.0.r.r.p.].*X*X*X*X*X&Xs.r.r.t.7.3.3.3.3.3.3.3.3.3.3.3.3.3.3.3.3.3.3.3.3.3.4.1.,.] ] ] ] ' ] U +     z.*X&X*X",
"t g g c ! ! ! ;.3.3.6.0.0.q.a.s.s.s.s.s.s.i.9.9.0.7.3.3.3.3.3.3.3.3.3.3.3.3.3.3.3.3.3.3.3.3.4.4.1.,.] ] ] ] ' ' _ F F F l h g g ",
"      5 8.8.8.5.4.4.3.4.4.4.t.y.r.r.y.y.r.0.1.1.3.3.3.3.3.3.3.3.4.3.3.3.4.7.3.3.3.3.3.3.7.3.3.3.5.,.] ] ] ] ] ] ` [ ` X.2       ",
"      6 8.1.1.4.4.4.4.4.4.8.t.u.y.r.y.y.r.0.<.1.3.3.3.3.3.3.7.3.3.3.3.3.3.3.3.3.3.3.3.3.3.3.4.5.1.,.] ] ] ] ] ' ` ` ] [ 2       ",
"      5 8.1.1.1.4.4.4.4.4.4.q.t.t.t.t.t.p.6.4.3.3.7.3.3.3.3.3.3.3.3.3.3.3.3.3.3.3.3.3.3.3.3.4.,.;.+.] ] ] ' ] ' ] [ ] [ 2       ",
"      5 1.1.1.1.4.4.4.4.4.4.8.8.7.7.8.7.3.3.2.3.3.3.3.3.2.4.3.3.3.3.3.3.3.3.3.3.4.4.3.3.3.4.X.] ] ] ] ' ' ` [ ] ` ] ] [ 2       ",
"      5 1.1.1.4.4.4.4.4.4.4.4.4.4.4.4.4.4.4.4.4.4.3.3.3.4.4.4.4.4.3.4.3.3.4.4.3.4.4.4.4.4.2.X.` ] ] ] ` ] ] ' ` ] ` ' ] 2     . ",
"      5 1.1.1.4.4.4.4.4.4.4.4.4.4.4.4.4.4.4.4.4.4.4.4.4.4.4.4.4.4.4.4.4.4.4.4.4.4.4.4.4.4.4.X.] ] ] ' ] ` ' ] ' ] [ ] [ 2       ",
"      5 8.1.1.4.4.4.4.4.4.4.4.4.4.4.4.4.4.4.4.4.4.4.4.4.4.4.4.4.4.4.4.4.4.4.4.4.4.4.4.4.1.1.X.` ] ] ] ] ] ] ' ` ` ` [ [ 2       ",
"      6 1.1.1.4.4.4.4.4.4.4.4.4.4.4.4.4.4.4.4.4.4.4.4.4.4.4.4.4.4.4.4.4.4.4.4.4.4.4.4.4.1.<.X.` ] ] ] ] ' ` ] [ [ ` [ [ 2     . ",
"      6 8.1.1.4.4.4.4.4.4.4.4.4.4.4.4.4.4.4.4.4.4.4.4.4.4.4.4.4.4.4.4.4.4.4.4.4.1.1.1.1.1.1.X.] ] ] ] ] [ ] ` [ ` ` [ [ 2       ",
"      3 2.;.;.4.4.4.4.4.4.4.4.4.4.4.4.4.4.4.4.4.4.4.4.4.4.4.4.4.4.4.4.4.4.4.4.4.1.1.1.2.2.,.X.] ] ] ] ] ] ` ] ] ` _ ) [ 2       ",
"      , R P W :.8.4.4.4.4.4.4.4.4.4.4.4.4.4.4.3.4.4.4.4.4.4.4.4.4.4.4.4.4.4.4.4.4.5.+.X.` X.` ` ` ] ] ] ` ' ` ] ) T P T ,       ",
"      , J J T :.4.4.4.4.4.4.4.4.4.4.4.4.4.4.4.5.4.4.4.4.4.4.4.4.4.4.4.4.4.4.4.4.4.4.+.` ` ` ` ` ` ] ] ] ` [ ' ` ) P K L ,       ",
"      , J J R :.8.4.5.8.4.4.4.4.4.4.4.4.5.4.6.7.4.4.4.4.4.4.4.4.4.4.4.4.8.4.4.4.4.5.+.] ` ` ` ` ] ] ] ] [ ` ` ` _ P L L ,       ",
"      * l l l / } } | 4.4.4.4.1.8.:.&.&.%.&.&.&.%.%.%.%.-.4.4.4.4.4.4.+.O.O.O.O.O.O.o.] ` ` ` ` ` ] ] ] [ ( Q Q W l l l *       ",
"      % i i d @.L K / 4.<.<.<.<.8...f d r r r r p p r i &.1.4.4.4.4.4.O.[ [ [ [ ] [ ] ' ` ] ` [ ] ] ] ] ] W K J H t r d $   .   ",
"      % d d f @.P L Q <.<.1.1.7.1.*.t r r r r r p p r s &.4.4.4.4.4.4.O.[ [ ` ` _ ] ] ` ] ` [ _ ` ] ] ] ] E K K H t r t $       ",
"      % d d d @.K K / >.>.>.>.>.>.-.g f f j j j j f f f %.>.>.>.4.4.3.O.' ` ` [ ' ] _ _ _ _ ) ) ( ( _ _ ) R K K H t r p &     . ",
"      % d d d e h e g x x x x k k C j.c.c.~.OXOX'.b.c.c.C x x c } [ X.] ` ' ` ` ` [ ( T T T l z z z z z z y a e e p t p $       ",
"      % d d d p p i p i i u p p i n N.N.N.XX*X*X#XA.N.B.C d i h ( [ ` ` ` ] ] ] ] [ ( L K K e p i p i p i p p p i p p p %       ",
"      $ d d p p i i p p p d p p p n N.N.N.XX*X*X#XZ.N.N.V d d e ( [ [ ` ] ] ] ` ` ` ( L L L z p p p p p p p p p p d d d %       ",
"k k m w - - : j v v v p p p p p i N !.~.~.@X*X*X$X~.!.~.j.i s f #.$.$.$.$.$.$.$.$.$.#.l l l a p p p p p p v v v j : - - w b b k ",
"*X*X*Xz.    X m g.g.M p p p p p i g.&X*X*X*X*X*X*X*X*X*XV.i d p p p p p p p p p p p p p d d p p p p p d p n g.g.m X     z.*X*X*X",
"*X*X*Xz.    X m g.g.M p p p p p s j.&X*X*X*X*X*X*X*X*X*Xm.i p p p p p p p p p p p p p p p p d p p p p p d M g.g.m X     z.*X*X*X",
"*X*X*Xz.    X m g.g.V h f f f d d j.&X&X&X*X*X*X*X*X&X*Xm.r p p p p p p p p p p p p p p p p d d f p f f f N g.g.m X     z.*X*X*X",
"*X*X*Xz.    # B.~.!._.`.'.`.l.N N j.P.P.E.+X*X*X$XE.P.E.g.i p p p p p p p p p p p p p p p d m C C g.E.P.W.A.C.A.h.X     z.*X*X*X",
"*X*X*Xz.    # W.|.{.@X*X*X*XV.g.g.j.M.N.N.XX*X*X#XA.N.N.V i i p d d p d d r d r p p i d s d N g.D b.{.|.|.Q.T.R.v.X     z.*X*X*X",
"*X*X*Xl.    @ P..X}.oX*X*X*Xm.A S j.C.C.C.XX*X*X#XZ.C.C.C r p r i i i i i i i p i i i i s s M S S n.{.{.|.Q.R.T.v.@     z.*X*X*X",
"*X*X*XJ.q w t c.B.B.I.$X$X$XI.V.V.m.n.b.b.^.OX'._.B.b.b.h.C V S Z S V V Z Z Z d.Z Z Z d.Z Z c.b.n.D./.(.(.N.f.h.d.i q q J.*X*X*X",
"*X*X*X*X&X&X+X; .   h }.|.|.$X&X*X'.g.D D g.g.g.g.g.g.g.F.{.{.{.{.`.{.{.{.`.{.).{.{.{.).{.`.{.{.{.(.Y.Y.T.0     - +X&X&X&X*X*X*X",
"*X*X*X*X*X*X#X&     u }.|..X$X*X*XXXg.D D D D D g.g.g.g.L.{.{.{.{.}.|.{.{.{.{.|.{.{.{.|.|.|.{.{.|.(.Y.S.G.8     & #X*X*X*X*X*X*X",
"*X*X*X*X*X*X#X;     a |.{.{.$X*X*X'.h.g.g.D g.D S g.g.D L.{.}.{.|.|.{.{.}.{.{.{.{.{.{.{.{.{.{.{.{.(.S.S.S.8     & #X*X*X*X*X*X*X",
"*X*X*X*X*X*X&XI.H.J.j.w w u F.`.~.~.W.W.W.W.W.W.W.W.W.W./.{.}. X{.{.{.|.{.{.{.{.{.{.(.Q.Q.Q.Q.Q.Q.C.8 8 8 h.J.H.I.&X*X*X*X*X*X*X",
"*X*X*X*X*X*X*X*X*X*XH.    . h.Y.S.E.}. X X X}.}.|.}.}.}.}.{.}.).}.{.}.{.}.{.{.{.{.|.~.T.S.S.T.T.T.h..     H.*X*X*X*X*X*X*X*X*X*X",
"*X*X*X*X*X*X*X*X*X*XV.    . h.Y.Y.W.}. X X}.}.}.|.}.}.{.}.}.}.{.{.{.{.}.{.{.}.}.}..X(.T.T.T.T.R.R.h..     D.*X*X*X*X*X*X*X*X*X*X",
"*X*X*X*X*X*X*X*X*X*XI.; ; ; f.v.v.M.L.L.L./.).).).).).).).).).).).).).).).).).).).).W.v.v.h.h.v.v.d.; ; ; I.*X*X*X*X*X*X*X*X*X*X",
"*X*X*X*X*X*X*X*X*X*X&X#X$X+Xq X @ @ + @ + d.R.K.K.K.K.K.K.K.K.K.Y.Y.K.K.K.K.K.K.K.R.d.@ @ # @ @ . q @X#X#X%X*X*X*X*X*X*X*X*X*X*X",
"*X*X*X*X*X*X*X*X*X*X*X*X*X%X9           . B Y.S.K.K.S.K.S.S.S.S.S.S.S.S.S.F.K.K.S.R.B             q %X*X*X*X*X*X*X*X*X*X*X*X*X*X",
"*X*X*X*X*X*X*X*X*X*X*X*X*X%X9             B R.Y.K.K.K.K.K.K.K.K.K.K.K.K.S.K.K.K.R.R.B             8 %X*X*X*X*X*X*X*X*X*X*X*X*X*X",
"*X*X*X*X*X*X*X*X*X*X*X*X*X&XJ.x.x.x.x.x.n.b u u u u u u u u u u u u u u u u u u u u b x.x.x.x.x.z.J.&X*X*X*X*X*X*X*X*X*X*X*X*X*X",
"*X*X*X*X*X*X*X*X*X*X*X*X*X*X*X*X*X*X*X*X*Xk                                         k *X*X*X*X*X*X*X*X*X*X*X*X*X*X*X*X*X*X*X*X*X",
"*X*X*X*X*X*X*X*X*X*X*X*X*X*X*X*X*X*X*X*X*Xh             .     .     .     .         h *X*X*X*X*X*X*X*X*X*X*X*X*X*X*X*X*X*X*X*X*X",
"*X*X*X*X*X*X*X*X*X*X*X*X*X*X*X*X*X*X*X*X*Xk                                         k *X*X*X*X*X*X*X*X*X*X*X*X*X*X*X*X*X*X*X*X*X"
};
