/* XPM */
static char *result[] = {
/* columns rows colors chars-per-pixel */
"64 64 256 2 ",
"   c #030201",
".  c #0C0101",
"X  c #010A01",
"o  c #01010B",
"O  c #080709",
"+  c #130101",
"@  c #170607",
"#  c #1B0100",
"$  c #100D0E",
"%  c #040415",
"&  c #240102",
"*  c #30050D",
"=  c #372E11",
"-  c #22172A",
";  c #3A2929",
":  c #3A372A",
">  c #382B35",
",  c #2C3334",
"<  c #3A3334",
"1  c #393737",
"2  c #4E1A13",
"3  c #4A2B08",
"4  c #562907",
"5  c #483606",
"6  c #583606",
"7  c #492918",
"8  c #582919",
"9  c #493619",
"0  c #573519",
"q  c #643011",
"w  c #4B1D29",
"e  c #681E22",
"r  c #472928",
"t  c #4B2B2C",
"y  c #552A28",
"u  c #47352A",
"i  c #573528",
"p  c #462A36",
"a  c #4B2C33",
"s  c #562B36",
"d  c #473537",
"f  c #563537",
"g  c #652727",
"h  c #792D2F",
"j  c #653329",
"k  c #652B35",
"l  c #673837",
"z  c #773638",
"x  c #384615",
"c  c #324530",
"v  c #394637",
"b  c #4D4510",
"n  c #795112",
"m  c #474328",
"M  c #46433A",
"N  c #584832",
"B  c #794B28",
"V  c #79552A",
"C  c #684638",
"Z  c #774838",
"A  c #695335",
"S  c #795537",
"D  c #72622B",
"F  c #173D51",
"G  c #343347",
"H  c #383945",
"J  c #482B44",
"K  c #483845",
"L  c #4F334F",
"P  c #553945",
"I  c #693945",
"U  c #71374C",
"Y  c #5A3B63",
"T  c #394545",
"R  c #334A4E",
"E  c #395E64",
"W  c #3A6B6F",
"Q  c #474545",
"!  c #5A4446",
"~  c #514F53",
"^  c #684847",
"/  c #774847",
"(  c #785546",
")  c #6E5152",
"_  c #685659",
"`  c #5D6259",
"'  c #54596C",
"]  c #6E586A",
"[  c #4F696F",
"{  c #6E6472",
"}  c #811E31",
"|  c #893436",
" . c #B13934",
".. c #8B500E",
"X. c #88531A",
"o. c #965F17",
"O. c #874A28",
"+. c #954D2F",
"@. c #855428",
"#. c #864B37",
"$. c #875735",
"%. c #A9483B",
"&. c #B14E36",
"*. c #B7493B",
"=. c #AA533C",
"-. c #C84B37",
";. c #8D374A",
":. c #AA3A4C",
">. c #BD3662",
",. c #864748",
"<. c #984749",
"1. c #875646",
"2. c #9A564A",
"3. c #894C58",
"4. c #984856",
"5. c #895658",
"6. c #995657",
"7. c #A94A47",
"8. c #B44C44",
"9. c #BA4D43",
"0. c #B34D4B",
"q. c #B9484A",
"w. c #A95348",
"e. c #B65348",
"r. c #A74956",
"t. c #B64A53",
"y. c #A75657",
"u. c #B65656",
"i. c #916255",
"p. c #AC614C",
"a. c #965963",
"s. c #91556E",
"d. c #AE4D64",
"f. c #A65A64",
"g. c #906569",
"h. c #B06B6B",
"j. c #C7534E",
"k. c #EB5C54",
"l. c #D06F59",
"z. c #DA6B5A",
"x. c #DC765C",
"c. c #E76856",
"v. c #E46C5C",
"b. c #EC6D5D",
"n. c #F66B5A",
"m. c #F26B5D",
"M. c #E67356",
"N. c #ED7254",
"B. c #E4725D",
"V. c #EA725C",
"C. c #CD6C6C",
"Z. c #DA6B66",
"A. c #CA766B",
"S. c #DA7667",
"D. c #DC736C",
"F. c #C87976",
"G. c #D87874",
"H. c #E76B67",
"J. c #EB6D63",
"K. c #F46A65",
"L. c #E47263",
"P. c #EA7263",
"I. c #E3736B",
"U. c #E9786A",
"Y. c #F47467",
"T. c #E67573",
"R. c #F27274",
"E. c #BA9A02",
"W. c #B39115",
"Q. c #B4A611",
"!. c #B3912F",
"~. c #A99C30",
"^. c #B79738",
"/. c #C79903",
"(. c #C69716",
"). c #CB9210",
"_. c #C9A30C",
"`. c #C8942F",
"'. c #C9A42F",
"]. c #B2964B",
"[. c #B29961",
"{. c #C89749",
"}. c #C6A14C",
"|. c #D08B73",
" X c #C89A79",
".X c #D69A79",
"XX c #EB8877",
"oX c #D7A56C",
"OX c #CBA578",
"+X c #D6A478",
"@X c #E4A477",
"#X c #396A84",
"$X c #4B6989",
"%X c #586386",
"&X c #AA7685",
"*X c #D47E83",
"=X c #968B99",
"-X c #B89389",
";X c #BBA68F",
":X c #A898A5",
">X c #B4ACB0",
",X c #B7A9B8",
"<X c #C89B89",
"1X c #D4968E",
"2X c #C9A588",
"3X c #D7A787",
"4X c #C8A797",
"5X c #D4AC94",
"6X c #E5A994",
"7X c #DC98A0",
"8X c #C8A9B8",
"9X c #D0ADB2",
"0X c #EFB1B2",
"qX c #B0C0B8",
"wX c #F7C9A9",
"eX c #ECD8AC",
"rX c #F0D2AB",
"tX c #EACBB8",
"yX c #FBC9BA",
"uX c #E9D3BA",
"iX c #F9D6B7",
"pX c #B9B4C7",
"aX c #B4B4D0",
"sX c #B5BBE3",
"dX c #CDB4CD",
"fX c #C4B8CA",
"gX c #E7AFC2",
"hX c #B5C2E3",
"jX c #CDC7D0",
"kX c #EECFCD",
"lX c #FCCCC5",
"zX c #E8D6C7",
"xX c #FAD5C6",
"cX c #FBD9D5",
"vX c #FBEED8",
"bX c #D3D4EB",
"nX c #FDDCE5",
"mX c #E9DAF1",
"MX c #DCEDF7",
"NX c #EAE9E9",
"BX c #FCE7E7",
"VX c #EAF8EB",
"CX c #F9F8E9",
"ZX c #FEFDEC",
"AX c #EBE9F8",
"SX c #FAEBF8",
"DX c #EBF9F6",
"FX c #EDFEFE",
"GX c #F4F5F4",
"HX c #FCF4F4",
"JX c #F4FDF5",
"KX c #FDFDF4",
"LX c #F5F4FC",
"PX c #FEF5FD",
"IX c #F5FEFD",
"UX c #FFFFFF",
/* pixels */
"UXUXUXUXUXUXUXUXUXUXUXUXUXUXUXUXUXUXUXUXUXUXUXUXUXUXUXUXUXUXUXIXUXUXUXUXKXUXUXUXUXUXUXUXUXUXKXUXUXUXUXUXUXUXUXUXUXUXUXUXUXUXUXUX",
"UXUXUXUXUXUXUXUXUXUXUXUXUXUXUXUXUXUXUXUXUXUXUXUXUXIXUXIXUXIXUXUXIXUXUXKXUXUXUXKXUXUXKXUXUXUXUXUXUXUXUXUXUXUXUXUXUXUXUXUXUXUXUXUX",
"UXUXUXUXUXUXUXUXUXUXUXUXUXUXUXUXUXUXUXUXUXUXUXUXUXUXUXUXIXUXIXUXUXUXUXUXUXUXUXUXUXUXUXUXUXUXUXUXUXUXUXUXUXUXUXUXUXUXUXUXUXUXUXUX",
"UXUXUXUXUXUXUXUXUXUXUXUXUXUXUXUXUXUXUXUXUXUXUXUXUXUXUXUXUXUXUXUXUXUXUXIXUXUXUXUXKXUXUXUXUXUXUXUXUXUXUXUXUXUXUXUXUXUXUXUXUXUXUXUX",
"UXUXUXUXUXUXUXUXUXUXUXUXUXUXUXUXUXUXUXUXUXUXUXUXUXUXUXUXUXIXUXUXUXUXUXUXUXUXUXUXUXUXUXUXUXUXUXUXUXUXUXUXUXUXUXUXUXUXUXUXUXUXUXUX",
"UXUXUXUXUXUXUXUXUXUXUXUXUXUXUXUXUXUXUXUXUXUXUXUXUXUXUXUXUXUXUXUXUXUXUXUXUXUXUXPXUXUXUXUXUXUXUXUXUXUXUXUXUXUXUXUXUXUXUXUXUXUXUXUX",
"UXUXUXUXUXUXUXUXUXUXUXUXUXUXUXUXUXUXUXUXUXUXUXUXUXUXUXUXUXUXHXUXUXUXUXUXUXUXUXUXUXUXUXPXUXUXUXUXUXUXUXUXUXUXUXUXUXUXUXUXUXUXUXUX",
"UXUXUXUXUXUXUXUXUXUXUXUXUXUXUXUXUXUXUXUXUXUXUXUXLXUXUXUXKXUXUXUXUXPXUXUXUXUXUXUXUXUXUXUXUXUXUXUXUXUXUXUXUXUXUXUXUXUXUXUXUXUXUXUX",
"UXUXUXUXUXUXUXUXUXUXUXUXUXUXUXUXUXUXUXUXUXUXUXUXUXUXGXPXUXHXUXPXUXUXPXUXUXUXUXUXUXUXUXUXUXUXUXUXUXUXUXUXUXUXUXUXUXUXUXUXUXUXUXUX",
"UXUXUXUXUXUXUXUXUXUXUXUXUXUXUXUXUXUXUXUXUXUXUXUXUXIXKXUXUXUXUXHXUXUXUXUXUXPXUXUXUXUXUXUXUXUXUXUXUXUXUXUXUXUXUXUXUXUXUXUXUXUXUXUX",
"UXUXUXUXUXUXUXUXUXUXUXUXUXUXUXUXUXUXUXUXUXUXUXUXHXUXUXKXGXHXLXUXPXUXUXUXPXUXPXUXUXUXUXUXUXUXUXUXUXUXUXUXUXUXUXUXUXUXUXUXUXUXUXUX",
"UXUXUXUXUXUXUXUXUXUXUXUXUXUXUXUXUXUXUXUXUXUXUXUXUXUXGXUXUXUXPXUXUXUXPXUXUXUXUXUXPXUXUXUXUXUXUXUXUXUXUXUXUXUXUXUXUXUXUXUXUXUXUXUX",
"UXUXUXUXUXUXUXUXUXUXUXUXUXUXUXUXUXUXUXUXUXUXUXUXUXAXQ < < > > < < < < < > < < < UXUXUXUXUXUXUXUXUXUXUXUXUXUXUXUXUXUXUXUXUXUXUXUX",
"UXUXUXUXUXUXUXUXUXUXUXUXUXUXUXUXUXUXUXUXUXUXKXUXUXKX; r i r i y t t t s y t t t PXUXPXUXUXUXUXUXUXUXUXUXUXUXUXUXUXUXUXUXUXUXUXUX",
"UXUXUXUXUXUXUXUXUXUXUXUXUXUXUXUXHXUXUXUXUXUXZXKXd a 5.2.|.G.D.D.A.A.G.D.D.D.F.|.y y r < PXPXUXLXUXUXUXUXUXUXUXUXUXUXUXUXUXUXUXUX",
"UXUXUXUXUXUXUXUXUXUXUXUXUXUXUXUXUXKXGXIXAXUXHXCXw y w.%.z.b.m.J.S.B.m.m.m.K.I.A.e y y f SXUXUXUXUXUXUXUXUXUXUXUXUXUXUXUXUXUXUXUX",
"UXUXUXUXUXUXUXUXUXUXUXUXUXUXUXUXUXGXUXIXIXUXp s g.6.|.H.Y.b.c.z.S.B.J.m.m.J.L.S.A.<X5.3.s ; UXUXUXUXUXUXUXUXUXUXUXUXUXUXUXUXUXUX",
"UXUXUXUXUXUXUXUXUXUXUXUXUXUXUXUXUXUXGXDXUXUXJ s 1.w.D.Z.U.V.M.U.L.L.J.m.m.V.L.S.C.A.f.f.s p UXUXUXUXUXUXUXUXUXUXUXUXUXUXUXUXUXUX",
"UXUXUXUXUXUXUXUXUXUXUXUXUXUXUXUXPXUXUXUXUXPXG s G.H.R.R.U.v.M.z.B.L.J.m.b.V.B.x.S.G.G.F.e p PXIXUXUXUXUXUXUXUXUXUXUXUXUXUXUXUXUX",
"UXUXUXUXUXUXUXUXUXUXUXUXUXUXUXUXUXUXPXKXKXUXG s D.K.H.H.J.L.M.M.L.L.J.m.V.c.V.B.v.S.T.*Xe s UXUXUXUXUXUXUXUXUXUXUXUXUXUXUXUXUXUX",
"UXUXUXUXUXUXUXUXUXUXUXUXUXUXUXUXIXUXUXPXK 1 >XdXT.K.J.I.U.V.M.M.J.H.J.J.V.N.M.M.V.c.R.Z.d.5.> > UXUXUXUXUXUXUXUXUXUXUXUXUXUXUXUX",
"UXUXUXUXUXUXUXUXUXUXUXUXUXUXUXUXUXLXUXPX> K ,X8XF.T.Z.I.B.V.M.B.P.J.J.v.V.V.M.M.N.n.K.T.r.a.d H UXUXUXUXUXUXUXUXUXUXUXUXUXUXUXUX",
"UXUXUXUXUXUXUXUXUXUXUXUXUXUXUXUXUXIXG G ' ] g.6.nXlX|.P.c.P.V.V.J.H.P.P.L.V.M.M.n.n.K.K.r.6.p H UXUXUXUXUXUXUXUXUXUXUXUXUXUXUXUX",
"UXUXUXUXUXUXUXUXUXUXUXUXUXUXUXUXUXIXH G { ~ g.5.cXBXA.B.c.N.c.b.J.L.I.H.I.L.B.M.c.n.k.K.u.f.a > UXUXUXUXUXUXUXUXUXUXUXUXUXUXUXUX",
"UXUXUXUXUXUXUXUXUXUXUXUXUXUXUXUX1 > AXAXMXPX6.i.BXBX2.&.V.P.K.R.H.L.I.I.S.L.S.V.n.n.j.j.7.f.p d UXUXUXUXUXUXUXUXUXUXUXUXUXUXUXUX",
"UXUXUXUXUXUXUXUXUXUXUXUXUXUXUXUX> H AXSXAXmX5.5.nXnXw.=.B.J.z.z.L.L.I.U.I.D.L.S.v.b.-.*.7.6.r d UXUXUXUXUXUXUXUXUXUXUXUXUXUXUXUX",
"UXUXUXUXUXUXUXUXUXUXUXUXUXUXUXUXH H AXmXmXSX>X9Xa.f.%.%.e.e.9.j.*.9.9.9.0.0.8.8.*.j.*.*.u.a.y d UXUXUXUXUXUXUXUXUXUXUXUXUXUXUXUX",
"UXUXUXUXUXUXUXUXUXUXUXUXUXUXUXUX1 G AXPXSXPX8X9Xy.r.u.u.w.&.%.*.=.=.e.q.t.0.0.0.&.*.*.9.w.6.y p UXUXUXUXUXUXUXUXUXUXUXUXUXUXUXUX",
"UXUXUXUXUXUXUXUXUXUXUXUXUXUXUXUXG K pX:XmXnXY U u.q.q.q.e.e.w.p.=.*.e.0.t.t.u.w.e.w.e.=.7.6.s a UXUXUXUXUXUXUXUXUXUXUXUXUXUXUXUX",
"UXUXUXUXUXUXUXUXUXUXUXUXUXUXUXUXG 1 pXpXAXSXY U r.j.t.t.u.<.w.w.=.=.e.0.t.t.w.e.w.=.e.u.6.6.s r UXUXUXUXUXUXUXUXUXUXUXUXUXUXUXUX",
"UXUXUXUXUXUXUXUXUXUXUXUXUXUXUXUXIXIXp > fX,XfX8Xk } :.d.2.y.u.0.e.w.7.e.0.u.8.7.8.u.7.y.s s t u UXUXUXUXUXUXUXUXUXUXUXUXUXUXUXUX",
"UXUXUXUXUXUXUXUXUXUXUXUXUXUXUXUXIXUXK J ,XfX>XdXI ;.6.f.6.5.r.r.2.2.f.f.4.y.y.u.y.6.f.a.w y r d KXUXUXUXUXUXUXUXUXUXUXUXUXUXUXUX",
"UXUXUXUXUXUXUXUXUXUXUXUXUXUXUXUXUXKXPXPXG > L > J P a r u i y y s p a a G p p w s t s a ( 1.0 9 UXUXUXUXUXUXUXUXUXUXUXUXUXUXUXUX",
"UXUXUXUXUXUXUXUXUXUXUXUXUXUXUXUXGXUXUXUXd K 1 L Q p Q d ; a u f a f a a K > K ! i r t r 1.#.0 9 KXUXUXUXUXUXUXUXUXUXUXUXUXUXUXUX",
"UXUXUXUXUXUXUXUXUXUXUXUXUXUXUXUXUXUXUXHXP ^ I ~ O $ =X=X^ I t 7 ,.#.8 8 V @.B B @.@.2.$.3 9 vXCXKXUXUXUXUXUXUXUXUXUXUXUXUXUXUXUX",
"UXUXUXUXUXUXUXUXUXUXUXUXUXUXUXUXPXUXIXKX] ) U ^ O o :X:XU 3.y 8 #.$.4 q ..X.@.@.@.V n V 9 u ZXvXUXUXUXUXUXUXUXUXUXUXUXUXUXUXUXUX",
"UXUXUXUXUXUXUXUXUXUXUXUXUXUXUXUXUXUXKXZXj Z 1X7X+ O mXnX1X1Xj 4 <X6X XOX0 4 V S C 5.9 9 + . CXUXUXUXUXUXUXUXUXUXUXUXUXUXUXUXUXUX",
"UXUXUXUXUXUXUXUXUXUXUXUXUXUXUXUXUXUXCXZXC Z 6X<X+ . nXcX7X1X4 q 2X3X X3X8 7 S V ( ( 9 9     IXFXUXUXUXUXUXUXUXUXUXUXUXUXUXUXUXUX",
"UXUXUXUXUXUXUXUXUXUXUXUXUXUXUXUXUXHXKXvX4X<XyXiXzXzXzXxXrXiXoXOX2X<X+X+Xq q X.+.+.O.y 7 KXKXIXFXUXUXUXUXUXUXUXUXUXUXUXUXUXUXUXUX",
"UXUXUXUXUXUXUXUXUXUXUXUXUXUXUXUXPXUXKXZX2X2XiXrXtXzXzXuXiXiX[.+XOX+X3X+Xq q O.$.+.B y f KXUXIXFXIXUXUXUXUXUXUXUXUXUXUXUXUXUXUXUX",
"UXUXUXUXUXUXUXUXUXUXUXUXUXUXUXUXUXPXHXZXCXvXS C xXlXiXyXOXOXoXoXoXoX8 j q @.+ . . . UXPXUXUXIXKXUXUXUXUXUXUXUXUXUXUXUXUXUXUXUXUX",
"UXUXUXUXUXUXUXUXUXUXUXUXUXUXUXUXUXUXKXHXZXZXN A yXyXyX0X6X+X.XoX@X}.4 7 ( S @ X X + UXPXUXUXKXKXUXUXUXUXUXUXUXUXUXUXUXUXUXUXUXUX",
"UXUXUXUXUXUXUXUXUXUXUXUXUXUXUXUXDXUXUXKXKXKXZXHXU ;.<.| | z 3X6X4 6 5 0 ; u ].~.5 3 CXHXPXPXKXZXUXUXUXUXUXUXUXUXUXUXUXUXUXUXUXUX",
"UXUXUXUXUXUXUXUXUXUXUXUXUXUXUXUXUXUXKXUXIXGXKXHX,.z h z ,./ 7X2X6 6 4 3 9 0 ~.W.b b vXCXPXPXKXKXUXUXUXUXUXUXUXUXUXUXUXUXUXUXUXUX",
"UXUXUXUXUXUXUXUXUXUXUXUXUXUXUXUXUXHXUXDXIXIXDXPXPXSX3.I 9X>XqX4X].`.o...`.(./._./.W.3 i PXUXIXIXUXUXUXUXUXUXUXUXUXUXUXUXUXUXUXUX",
"UXUXUXUXUXUXUXUXUXUXUXUXUXUXUXUXKXUXUXIXFXFXUXUXPXSXI I 8X8XqX>X].`.....`./././.E.'.5 t UXUXIXIXUXUXUXUXUXUXUXUXUXUXUXUXUXUXUXUX",
"UXUXUXUXUXUXUXUXUXUXUXUXUXUXUXUXPXKXUXUXIXUXUXUXJ d 3.3.+ o M m 0 0 # & `.E./.E...n @ @ KXUXUXKXUXUXUXUXUXUXUXUXUXUXUXUXUXUXUXUX",
"UXUXUXUXUXUXUXUXUXUXUXUXUXUXUXUXPXUXIXUXIXUXUXPX! a 3.5..   m u : v X # ].!.Q._.n n @ O PXUXNXKXIXUXUXUXUXUXUXUXUXUXUXUXUXUXUXUX",
"UXUXUXUXUXUXUXUXUXUXUXUXUXUXUXUXUXUXIXUXIXUXUXUXv , @ + zXuXuXzXT T   + O.X.....`.^.# + PXLXIXJXUXUXUXUXUXUXUXUXUXUXUXUXUXUXUXUX",
"UXUXUXUXUXUXUXUXUXUXUXUXUXUXUXUXIXIXIXUXUXUXIXIXT v X . xXcX0XxXH ~   . 1.O.+...`.^.# . UXIXDXJXIXUXUXUXUXUXUXUXUXUXUXUXUXUXUXUX",
"UXUXUXUXUXUXUXUXUXUXUXUXUXUXUXUXUXUXUXUXIXUXIXIXQ :   + <X1X6X5Xu , K P # # }.].n D @ . UXPXUXUXUXUXUXUXUXUXUXUXUXUXUXUXUXUXUXUX",
"UXUXUXUXUXUXUXUXUXUXUXUXUXUXUXUXUXUXUXUXUXIXIXUX1 d   . 9X4X<X-XT ~ H H @ + ].].A ( O X UXUXKXKXUXUXUXUXUXUXUXUXUXUXUXUXUXUXUXUX",
"UXUXUXUXUXUXUXUXUXUXUXUXUXUXUXUXIXUXUXUXUXUXUXUXKXUXv : . . X X E $X#X$X% X X X X   UXPXGXKXKXKXUXUXUXUXUXUXUXUXUXUXUXUXUXUXUXUX",
"UXUXUXUXUXUXUXUXUXUXUXUXUXUXUXUXUXIXUXUXUXUXUXUXUXIXc c + + .   [ [ %X%X% O X X   X UXUXUXUXHXUXUXUXUXUXUXUXUXUXUXUXUXUXUXUXUXUX",
"UXUXUXUXUXUXUXUXUXUXUXUXUXUXUXUXIXUXUXUXUXUXIXIXLXKXX X 3.:.t. .<.2.k U $ % PXCXCXvXCXZXUXPXUXPXUXUXUXUXUXUXUXUXUXUXUXUXUXUXUXUX",
"UXUXUXUXUXUXUXUXUXUXUXUXUXUXUXUXUXUXUXPXUXUXIXIXUXDXX   ,.t.:.:.q.| h h * @ PXUXZXZXZXZXUXUXUXUXUXUXUXUXUXUXUXUXUXUXUXUXUXUXUXUX",
"UXUXUXUXUXUXUXUXUXUXUXUXUXUXUXUXIXUXUXUXPXUXUXUXKXUXDXKX+ # & # + . + $ PXPXPXPXPXUXKXKXKXIXIXIXUXUXUXUXUXUXUXUXUXUXUXUXUXUXUXUX",
"UXUXUXUXUXUXUXUXUXUXUXUXUXUXUXUXUXUXPXUXUXUXUXUXUXKXUXKX  +         % % LXPXUXPXPXPXKXUXUXIXFXFXUXUXUXUXUXUXUXUXUXUXUXUXUXUXUXUX",
"UXUXUXUXUXUXUXUXUXUXUXUXUXUXUXUXPXPXPXUXUXUXUXUXUXSXPXPXHXUXJXCXKXKXKXZXCXZXKXUXUXUXPXUXUXKXKXKXUXUXUXUXUXUXUXUXUXUXUXUXUXUXUXUX",
"UXUXUXUXUXUXUXUXUXUXUXUXUXUXUXUXPXUXUXUXIXIXUXUXUXSXPXPXPXGXUXUXKXUXCXZXCXVXVXDXUXUXUXPXUXUXZXKXIXUXUXUXUXUXUXUXUXUXUXUXUXUXUXUX",
"UXUXUXUXUXUXUXUXUXUXUXUXUXUXUXUXUXUXUXIXIXIXIXUXFXUXSXPXUXIXNXLXPXPXUXIXIXVXIXIXUXUXPXPXKXKXKXKXUXUXUXUXUXUXUXUXUXUXUXUXUXUXUXUX",
"UXUXUXUXUXUXUXUXUXUXUXUXUXUXUXUXUXUXUXIXIXUXUXIXIXIXUXPXIXIXIXUXUXPXUXPXUXIXFXUXUXUXUXUXUXPXKXUXUXUXUXUXUXUXUXUXUXUXUXUXUXUXUXUX",
"UXUXUXUXUXUXUXUXUXUXUXUXUXUXUXUXUXKXUXUXIXUXUXUXIXIXUXUXIXUXUXUXUXUXUXUXUXIXIXUXUXUXUXUXUXUXUXUXUXUXUXUXUXUXUXUXUXUXUXUXUXUXUXUX",
"UXUXUXUXUXUXUXUXUXUXUXUXUXUXUXUXUXUXUXUXKXUXUXUXUXUXUXUXUXKXUXUXUXIXUXIXUXUXUXIXUXUXUXUXUXUXUXUXUXUXUXUXUXUXUXUXUXUXUXUXUXUXUXUX",
"UXUXUXUXUXUXUXUXUXUXUXUXUXUXUXUXUXUXKXUXUXUXKXUXUXUXKXUXIXUXUXIXUXIXUXUXUXIXUXUXUXUXUXUXUXUXUXUXUXUXUXUXUXUXUXUXUXUXUXUXUXUXUXUX",
"UXUXUXUXUXUXUXUXUXUXUXUXUXUXUXUXUXUXUXUXUXUXUXUXUXKXUXUXUXUXUXUXIXUXIXUXUXUXUXUXUXUXUXUXUXUXUXUXUXUXUXUXUXUXUXUXUXUXUXUXUXUXUXUX",
"UXUXUXUXUXUXUXUXUXUXUXUXUXUXUXUXUXKXUXUXUXUXUXUXUXUXUXKXUXUXUXIXUXUXIXUXUXUXUXUXUXUXUXUXUXUXUXUXUXUXUXUXUXUXUXUXUXUXUXUXUXUXUXUX",
"UXUXUXUXUXUXUXUXUXUXUXUXUXUXUXUXUXUXUXUXUXUXUXUXUXUXUXUXUXUXUXUXUXUXUXUXUXUXUXUXUXUXUXUXUXUXUXUXUXUXUXUXUXUXUXUXUXUXUXUXUXUXUXUX",
"UXUXUXUXUXUXUXUXUXUXUXUXUXUXUXUXUXUXUXUXUXUXUXUXUXUXUXUXUXUXUXUXUXIXUXUXUXUXUXUXUXUXUXUXUXUXUXUXUXUXUXUXUXUXUXUXUXUXUXUXUXUXUXUX",
"UXUXUXUXUXUXUXUXUXUXUXUXUXUXUXUXUXUXUXUXUXUXUXUXUXUXUXUXUXUXUXUXUXUXUXUXUXUXUXUXUXUXUXUXUXUXUXUXUXUXUXUXUXUXUXUXUXUXUXUXUXUXUXUX",
"UXUXUXUXUXUXUXUXUXUXUXUXUXUXUXUXUXUXUXUXUXUXUXUXUXUXUXUXUXUXUXUXUXLXUXKXUXUXUXUXUXUXUXUXUXUXUXUXUXUXUXUXUXUXUXUXUXUXUXUXUXUXUXUX",
"UXUXUXUXUXUXUXUXUXUXUXUXUXUXUXUXUXUXUXUXUXUXUXUXUXUXUXUXUXUXUXUXUXUXPXUXUXUXUXKXUXUXUXUXUXUXUXUXUXUXUXUXUXUXUXUXUXUXUXUXUXUXUXUX",
"UXUXUXUXUXUXUXUXUXUXUXUXUXUXUXUXUXUXUXUXUXUXPXUXUXPXUXUXPXUXUXPXKXUXPXKXPXGXUXUXUXUXUXUXUXUXUXUXUXUXUXUXUXUXUXUXUXUXUXUXUXUXUXUX",
"UXUXUXUXUXUXUXUXUXUXUXUXUXUXUXUXUXUXUXUXUXUXUXUXUXUXUXUXUXUXUXUXLXUXUXUXUXHXUXUXUXUXUXUXUXUXUXUXUXUXUXUXUXUXUXUXUXUXUXUXUXUXUXUX",
"UXUXUXUXUXUXUXUXUXUXUXUXUXUXUXUXUXUXUXUXUXUXUXUXUXPXUXPXUXPXPXUXUXHXHXGXKXUXUXLXUXUXUXUXUXUXUXUXUXUXUXUXUXUXUXUXUXUXUXUXUXUXUXUX",
"UXUXUXUXUXUXUXUXUXUXUXUXUXUXUXUXUXUXUXUXUXUXUXPXUXUXUXUXUXUXUXUXUXPXUXUXUXSXUXUXUXUXUXUXUXUXUXUXUXUXUXUXUXUXUXUXUXUXUXUXUXUXUXUX",
"UXUXUXUXUXUXUXUXUXUXUXUXUXUXUXUXUXUXUXUXUXUXUXUX< < < < > < < < < > : > , Q NXUXUXUXUXUXUXUXUXUXUXUXUXUXUXUXUXUXUXUXUXUXUXUXUXUX",
"UXUXUXUXUXUXUXUXUXUXUXUXUXUXUXUXUXUXUXUXUXPXKXPXt a t s y t t i y f r f r r UXUXUXUXUXUXUXUXUXUXUXUXUXUXUXUXUXUXUXUXUXUXUXUXUXUX",
"UXUXUXUXUXUXUXUXUXUXUXUXUXUXUXUXGXUXPXPXp r y g |.F.D.D.S.D.A.A.D.D.D.A.2.i.a d KXZXUXUXUXUXUXKXUXUXUXUXUXUXUXUXUXUXUXUXUXUXUXUX",
"UXUXUXUXUXUXUXUXUXUXUXUXUXUXUXUXUXUXPXPXf y y 8 A.D.K.K.K.V.S.L.P.b.J.B.w.w.r r BXKXUXAXIXGXKXUXUXUXUXUXUXUXUXUXUXUXUXUXUXUXUXUX",
"UXUXUXUXUXUXUXUXUXUXUXUXUXUXUXUXUXUXp s 5.5.<XA.A.L.b.m.K.b.L.B.v.c.v.Y.Z.G.i.g.s p UXIXIXUXGXUXUXUXUXUXUXUXUXUXUXUXUXUXUXUXUXUX",
"UXUXUXUXUXUXUXUXUXUXUXUXUXUXUXUXUXUXa w a.f.C.C.S.L.b.m.m.b.L.S.U.B.b.U.z.Z.w.4.s P PXUXDXGXKXUXUXUXUXUXUXUXUXUXUXUXUXUXUXUXUXUX",
"UXUXUXUXUXUXUXUXUXUXUXUXUXUXUXUXLXUXt k F.F.G.I.B.B.b.b.b.J.H.B.x.M.B.Y.T.R.H.G.s G PXUXUXUXUXLXUXUXUXUXUXUXUXUXUXUXUXUXUXUXUXUX",
"UXUXUXUXUXUXUXUXUXUXUXUXUXUXUXUXUXUXs e *XI.L.B.B.B.N.b.m.J.J.L.M.M.L.H.H.H.K.T.J H UXUXHXUXUXUXUXUXUXUXUXUXUXUXUXUXUXUXUXUXUXUX",
"UXUXUXUXUXUXUXUXUXUXUXUXUXUXUXUX, p a.y.Z.R.c.V.M.M.N.V.b.J.J.L.x.M.V.L.I.H.K.T.9X,XH d PXUXUXIXUXUXUXUXUXUXUXUXUXUXUXUXUXUXUXUX",
"UXUXUXUXUXUXUXUXUXUXUXUXUXUXUXUXH d a.r.R.K.n.N.M.M.M.B.J.J.J.P.M.M.M.v.U.H.T.F.8X,XK > PXUXGXUXUXUXUXUXUXUXUXUXUXUXUXUXUXUXUXUX",
"UXUXUXUXUXUXUXUXUXUXUXUXUXUXUXUX1 a a.0.R.K.n.n.M.M.B.J.P.J.J.P.V.V.Y.c.U.G.lXnX5.g.] ' H H UXUXUXUXUXUXUXUXUXUXUXUXUXUXUXUXUXUX",
"UXUXUXUXUXUXUXUXUXUXUXUXUXUXUXUX< p f.u.H.k.n.c.B.B.L.L.I.H.I.P.v.c.c.V.z.A.vXBX5.a.~ [ G G UXPXUXUXUXUXUXUXUXUXUXUXUXUXUXUXUXUX",
"UXUXUXUXUXUXUXUXUXUXUXUXUXUXUXUXK r y.7.j.k.n.J.B.S.S.L.I.H.L.P.Y.P.P.V.&.2.BXBX6.5.UXmXAXAX, < UXUXUXUXUXUXUXUXUXUXUXUXUXUXUXUX",
"UXUXUXUXUXUXUXUXUXUXUXUXUXUXUXUXd r a.8. .-.k.z.B.S.I.D.I.I.I.P.H.z.B.B.=.p.cXnXa.i.mXLXAXAXK , UXUXUXUXUXUXUXUXUXUXUXUXUXUXUXUX",
"UXUXUXUXUXUXUXUXUXUXUXUXUXUXUXUXd r f.u.*.*.j.*.8.0.e.0.q.9.9.*.j.9.9.8.%.%.f.a.9X>XSXmXAXmXH H UXUXUXUXUXUXUXUXUXUXUXUXUXUXUXUX",
"UXUXUXUXUXUXUXUXUXUXUXUXUXUXUXUXp s 6.r.e.*.&.&.0.e.t.q.0.9.=.=.=.%.8.8.e.u.u.r.9X8XPXSXLXmXH H UXUXUXUXUXUXUXUXUXUXUXUXUXUXUXUX",
"UXUXUXUXUXUXUXUXUXUXUXUXUXUXUXUXp y 2.2.e.=.w.e.w.0.0.t.0.9.=.=.p.w.e.u.t.>.q.t.U L AXmX>X,XK G UXUXUXUXUXUXUXUXUXUXUXUXUXUXUXUX",
"UXUXUXUXUXUXUXUXUXUXUXUXUXUXUXUXu s 6.y.u.e.7.w.e.r.t.t.0.e.=.=.=.w.<.u.t.t.j.7.U Y SXAXpXpX1 G UXUXUXUXUXUXUXUXUXUXUXUXUXUXUXUX",
"UXUXUXUXUXUXUXUXUXUXUXUXUXUXUXUXu r f k y.7.u.7.8.8.u.0.0.w.w.e.0.u.y.2.f.0.} h 8XaXpXfX> J IXIXUXUXUXUXUXUXUXUXUXUXUXUXUXUXUXUX",
"UXUXUXUXUXUXUXUXUXUXUXUXUXUXUXKXd u y w a.f.6.y.y.y.y.6.f.y.2.2.0.4.3.6.a.6.;.I dX,XpX,XJ p UXIXUXUXUXUXUXUXUXUXUXUXUXUXUXUXUXUX",
"UXUXUXUXUXUXUXUXUXUXUXUXUXUXUXUXu 4 1./ s s t s r p G J p s t f y y u t r a s P > ~ > > PXPXPXUXUXUXUXUXUXUXUXUXUXUXUXUXUXUXUXUX",
"UXUXUXUXUXUXUXUXUXUXUXUXUXUXUXKX9 j V 1.7 r r t ! d p J p a s a f t d p d K J Q J p K J UXUXUXHXUXUXUXUXUXUXUXUXUXUXUXUXUXUXUXUX",
"UXUXUXUXUXUXUXUXUXUXUXUXUXUXUXKXZXvX9 3 $.2.@.V Z B O.V 8 8 ,.Z 7 t ^ ) =X&X$ o ^ P ^ ! GXUXUXUXUXUXUXUXUXUXUXUXUXUXUXUXUXUXUXUX",
"UXUXUXUXUXUXUXUXUXUXUXUXUXUXUXUXvXZX9 9 S n B $.@.@.X...q 4 +.$.0 y ,.U :X:Xo O ) / ) ( KXIXUXPXUXUXUXUXUXUXUXUXUXUXUXUXUXUXUXUX",
"UXUXUXUXUXUXUXUXUXUXUXUXUXUXUXUXUXVX. + 9 9 5.S S V 3 j  X X5X1X4 g 1X1XmXmX$ . 7X1Xl f ZXIXUXUXUXUXUXUXUXUXUXUXUXUXUXUXUXUXUXUX",
"UXUXUXUXUXUXUXUXUXUXUXUXUXUXUXIXIXIX  . 9 9 A ( V $.0 5 3X.X2X2Xq 4 1X7XBXcX. . <X7XZ C ZXZXUXUXUXUXUXUXUXUXUXUXUXUXUXUXUXUXUXUX",
"UXUXUXUXUXUXUXUXUXUXUXUXUXUXUXUXFXFXKXKX7 i O.+.X.O.q q oX+X<X2XOXOXiXrXzXzXuXzXtXyXOX4XvXKXLXUXUXUXUXUXUXUXUXUXUXUXUXUXUXUXUXUX",
"UXUXUXUXUXUXUXUXUXUXUXUXUXUXUXUXFXIXUXKXf i B +.+.O.q 4 .X.X+XOX+X}.iXiXuXuXcXtXiXiX2X2XZXKXUXPXUXUXUXUXUXUXUXUXUXUXUXUXUXUXUXUX",
"UXUXUXUXUXUXUXUXUXUXUXUXUXUXUXUXUXHXUXPXPXPX+ . @ # S B q 4 oXoXoXoXOXOXiXlXyXxXC S vXZXZXHXUXUXUXUXUXUXUXUXUXUXUXUXUXUXUXUXUXUX",
"UXUXUXUXUXUXUXUXUXUXUXUXUXUXUXKXKXKXUXUXPXPX. @   @ A ( 8 4 oXoXoX+X.X6X0XyXyXyXC N CXZXCXHXUXUXUXUXUXUXUXUXUXUXUXUXUXUXUXUXUXUX",
"UXUXUXUXUXUXUXUXUXUXUXUXUXUXUXUXZXKXUXPXKXZX= 5 ].].m u 0 5 5 4 3X1Xz z | ;.| ,.CXZXKXZXUXKXUXGXUXUXUXUXUXUXUXUXUXUXUXUXUXUXUXUX",
"UXUXUXUXUXUXUXUXUXUXUXUXUXUXUXUXKXZXPXPXZXvX6 b W.W.b q 6 4 6 6 2X0X/ ;.;.| z U HXUXGXIXIXPXUXUXUXUXUXUXUXUXUXUXUXUXUXUXUXUXUXUX",
"UXUXUXUXUXUXUXUXUXUXUXUXUXUXUXUXIXIXUXPXr 5 Q.E._._.o.{...o.`.].5X,X>X9XI / SXPXUXDXIXIXDXUXKXKXUXUXUXUXUXUXUXUXUXUXUXUXUXUXUXUX",
"UXUXUXUXUXUXUXUXUXUXUXUXUXUXUXUXIXIXUXUXr 6 '.E.E./.).`.....`.].qX,X,X8XI I PXPXUXIXFXFXIXUXUXUXUXUXUXUXUXUXUXUXUXUXUXUXUXUXUXUX",
"UXUXUXUXUXUXUXUXUXUXUXUXUXUXUXUXHXUXUXLX@ + n o.Q.E.E.`.@ + b m c m   + 3.3.J d PXPXUXIXIXUXKXPXUXUXUXUXUXUXUXUXUXUXUXUXUXUXUXUX",
"UXUXUXUXUXUXUXUXUXUXUXUXUXUXUXUXKXNXUXPX. & n n _._.!.].# @ : v u N . . 5.3.d ! UXUXUXUXUXUXUXPXUXUXUXUXUXUXUXUXUXUXUXUXUXUXUXUX",
"UXUXUXUXUXUXUXUXUXUXUXUXUXUXUXUXJXIXLXPX@ @ `.(.....o.B + X T T zXuXuXzX+ # , v UXUXIXIXIXIXIXUXUXUXUXUXUXUXUXUXUXUXUXUXUXUXUXUX",
"UXUXUXUXUXUXUXUXUXUXUXUXUXUXUXIXJXDXIXUX. # ^.`...X.O.1.. o Q 1 zX0XcXcX. X v T IXUXIXUXUXIXIXIXUXUXUXUXUXUXUXUXUXUXUXUXUXUXUXUX",
"UXUXUXUXUXUXUXUXUXUXUXUXUXUXUXUXIXUXPXUX. + D D ^.}.# # f K 1 u 5X7X1X-X. . 1 Q IXIXUXIXUXUXUXUXUXUXUXUXUXUXUXUXUXUXUXUXUXUXUXUX",
"UXUXUXUXUXUXUXUXUXUXUXUXUXUXUXUXUXKXKXUX.   ( N ].].+ $ H H R Q -X3X5X5X.   M < UXIXIXUXUXUXUXUXUXUXUXUXUXUXUXUXUXUXUXUXUXUXUXUX",
"UXUXUXUXUXUXUXUXUXUXUXUXUXUXUXUXKXKXKXHXUXPX  O X X X % $X$X$XE X X . X : v KXPXUXUXUXUXUXUXUXUXUXUXUXUXUXUXUXUXUXUXUXUXUXUXUXUX",
"UXUXUXUXUXUXUXUXUXUXUXUXUXUXUXUXUXGXUXUXUXUXX X X X % % %X%X[ [   . # O c c KXUXUXUXUXUXUXUXIXIXUXUXUXUXUXUXUXUXUXUXUXUXUXUXUXUX",
"UXUXUXUXUXUXUXUXUXUXUXUXUXUXUXUXUXPXPXUXZXCXvXZXVXUX% * U k 4.<. .t.<.5.X X UXKXIXIXUXUXUXUXUXIXUXUXUXUXUXUXUXUXUXUXUXUXUXUXUXUX",
"UXUXUXUXUXUXUXUXUXUXUXUXUXUXUXUXUXUXUXUXZXCXZXZXUXPX$ & k | | 0.:.:.t.;.X X VXUXIXIXUXUXPXUXUXUXUXUXUXUXUXUXUXUXUXUXUXUXUXUXUXUX",
"UXUXUXUXUXUXUXUXUXUXUXUXUXUXUXUXIXIXUXIXKXKXUXPXPXPXPXPX$ + + + # & & + KXVXUXIXUXUXUXPXUXUXUXUXUXUXUXUXUXUXUXUXUXUXUXUXUXUXUXUX",
"UXUXUXUXUXUXUXUXUXUXUXUXUXUXUXUXIXFXJXUXUXKXPXPXPXPXPXLX% o   X .   .   UXUXHXUXUXUXUXPXUXUXUXUXUXUXUXUXUXUXUXUXUXUXUXUXUXUXUXUX",
"UXUXUXUXUXUXUXUXUXUXUXUXUXUXUXUXIXKXUXUXUXPXPXUXUXJXCXCXKXKXKXKXCXJXKXHXPXPXSXUXUXUXUXUXUXUXLXPXUXUXUXUXUXUXUXUXUXUXUXUXUXUXUXUX",
"UXUXUXUXUXUXUXUXUXUXUXUXUXUXUXUXKXZXKXUXPXUXUXUXJXVXCXCXHXCXKXUXUXIXGXKXPXPXHXUXUXUXUXIXUXUXPXPXUXUXUXUXUXUXUXUXUXUXUXUXUXUXUXUX",
"UXUXUXUXUXUXUXUXUXUXUXUXUXUXUXUXUXKXKXUXUXPXUXUXIXIXDXIXUXUXPXPXSXAXIXUXPXSXUXFXIXUXIXIXIXUXUXUXUXUXUXUXUXUXUXUXUXUXUXUXUXUXUXUX",
"UXUXUXUXUXUXUXUXUXUXUXUXUXUXUXUXKXKXKXKXKXUXUXUXIXIXIXUXGXUXPXUXUXIXIXIXPXPXIXIXIXIXIXIXIXUXUXUXUXUXUXUXUXUXUXUXUXUXUXUXUXUXUXUX",
"UXUXUXUXUXUXUXUXUXUXUXUXUXUXUXUXKXUXUXUXUXUXUXUXUXIXUXIXIXUXUXUXUXUXUXIXUXUXIXUXUXUXIXUXUXUXUXUXUXUXUXUXUXUXUXUXUXUXUXUXUXUXUXUX",
"UXUXUXUXUXUXUXUXUXUXUXUXUXUXUXUXUXUXUXKXKXUXUXUXUXUXUXUXUXUXUXIXUXIXIXUXUXUXUXUXUXUXUXUXUXUXUXUXUXUXUXUXUXUXUXUXUXUXUXUXUXUXUXUX",
"UXUXUXUXUXUXUXUXUXUXUXUXUXUXUXUXUXUXKXUXUXUXUXUXKXUXKXUXUXUXUXUXUXUXUXIXIXUXIXUXUXUXUXUXUXUXUXUXUXUXUXUXUXUXUXUXUXUXUXUXUXUXUXUX",
"UXUXUXUXUXUXUXUXUXUXUXUXUXUXUXUXUXUXUXUXUXUXKXUXUXUXUXUXKXIXUXIXIXUXUXUXUXUXUXUXUXUXUXUXUXUXUXUXUXUXUXUXUXUXUXUXUXUXUXUXUXUXUXUX",
"UXUXUXUXUXUXUXUXUXUXUXUXUXUXUXUXUXUXUXUXUXUXUXUXUXUXUXUXKXUXUXUXUXUXIXUXUXUXUXUXUXUXUXUXUXUXUXUXUXUXUXUXUXUXUXUXUXUXUXUXUXUXUXUX",
"UXUXUXUXUXUXUXUXUXUXUXUXUXUXUXUXUXUXUXUXUXUXUXUXUXUXUXUXUXUXUXUXUXUXUXUXUXUXIXUXUXUXUXUXUXUXUXUXUXUXUXUXUXUXUXUXUXUXUXUXUXUXUXUX",
"UXUXUXUXUXUXUXUXUXUXUXUXUXUXUXUXUXUXUXUXUXUXUXUXUXUXUXUXUXUXUXUXUXIXUXUXUXUXUXUXUXUXUXUXUXUXUXUXUXUXUXUXUXUXUXUXUXUXUXUXUXUXUXUX",
"UXUXUXUXUXUXUXUXUXUXUXUXUXUXUXUXUXUXUXKXUXUXUXUXUXUXUXUXUXUXUXUXUXUXUXUXUXUXUXUXUXUXUXUXUXUXUXUXUXUXUXUXUXUXUXUXUXUXUXUXUXUXUXUX",
"UXUXUXUXUXUXUXUXUXUXUXUXUXUXUXUXUXUXUXUXUXUXUXUXUXUXPXUXUXUXUXUXUXGXUXUXUXUXUXUXUXUXUXUXUXUXUXUXUXUXUXUXUXUXUXUXUXUXUXUXUXUXUXUX",
"UXUXUXUXUXUXUXUXUXUXUXUXUXUXUXUXUXUXUXUXUXUXUXUXUXUXUXUXUXUXUXUXUXUXKXUXUXUXUXKXUXUXUXUXUXUXUXUXUXUXUXUXUXUXUXUXUXUXUXUXUXUXUXUX",
"UXUXUXUXUXUXUXUXUXUXUXUXUXUXUXUXUXUXUXUXUXUXUXUXUXUXUXUXUXUXUXPXPXUXHXUXHXGXUXUXUXUXUXUXUXUXUXUXUXUXUXUXUXUXUXUXUXUXUXUXUXUXUXUX",
"UXUXUXUXUXUXUXUXUXUXUXUXUXUXUXUXUXUXPXUXUXUXUXPXUXUXUXUXUXPXUXUXHXUXUXUXUXPXUXUXUXUXUXUXUXUXUXUXUXUXUXUXUXUXUXUXUXUXUXUXUXUXUXUX",
"UXUXUXUXUXUXUXUXUXUXUXUXUXUXUXUXUXUXUXUXUXUXUXUXPXPXUXUXUXPXUXUXUXLXHXHXUXUXUXKXUXUXUXUXUXUXUXUXUXUXUXUXUXUXUXUXUXUXUXUXUXUXUXUX",
"UXUXUXUXUXUXUXUXUXUXUXUXUXUXUXUXUXUXUXUXUXUXUXUXUXUXUXPXUXUXUXPXUXHXUXUXUXAXUXPXUXUXUXUXUXUXUXUXUXUXUXUXUXUXUXUXUXUXUXUXUXUXUXUX",
"UXUXUXUXUXUXUXUXUXUXUXUXUXUXUXUXUXUXUXUXUXUXUXUX< < < > < < < < < > < < ; ~ VXUXUXUXUXUXUXUXUXUXUXUXUXUXUXUXUXUXUXUXUXUXUXUXUXUX",
"UXUXUXUXUXUXUXUXUXUXUXUXUXUXUXUXUXUXUXUXUXKXIXHXd a u a y y t t y f r y r r PXKXUXUXUXUXUXUXUXUXUXUXUXUXUXUXUXUXUXUXUXUXUXUXUXUX",
"UXUXUXUXKXUXUXUXUXUXUXUXUXUXUXIXFXUXPXUX: : u 9 [.&Xh.F.D.D.G.S.T.I.D.C.G.F.r u f ; UXUXFXFXLXUXUXUXUXUXUXUXUXUXUXUXUXUXUXUXUXUX",
"UXUXUXKXUXUXUXUXUXUXUXUXIXUXUXIXIXIXPXSXi y 8 4 |.D.T.U.K.K.v.V.c.K.R.H.T.A.e y 7 a PXUXIXFXUXUXUXUXUXUXUXUXUXUXUXUXUXUXUXUXUXUX",
"UXUXUXUXUXUXUXUXUXUXUXUXUXUXUXUXIXUXp k 4.4.G.D.I.H.K.K.K.K.B.B.x.J.J.J.D.G.A.F.a.g.t < IXIXUXLXUXUXUXUXUXUXUXUXUXUXUXUXUXUXUXUX",
"KXUXUXUXUXUXUXUXUXUXUXUXUXUXIXUXUXUXa y u.j.H.Z.K.K.K.K.K.V.V.x.l.S.b.J.J.I.G.G.w.6.t ; UXUXPXUXUXUXUXUXUXUXUXUXUXUXUXUXUXUXUXUX",
"KXUXUXUXUXUXUXUXUXUXUXUXUXUXUXUXIXUXr g C.R.H.U.L.L.m.J.x.x.x.x.l.l.N.Y.P.v.L.z.Z.1Xe t KXSXUXGXUXUXUXUXUXUXUXUXUXUXUXUXUXUXUXUX",
"UXUXUXUXUXUXUXUXUXUXUXUXUXUXUXUXUXUXt e *XR.H.Z.S.B.P.B.x.x.M.M.|.x.V.n.V.v.Y.R.R.C.e r SXUXUXUXUXUXUXUXUXUXUXUXUXUXUXUXUXUXUXUX",
"UXUXUXUXUXUXUXUXUXUXUXUXUXUXUXUX> r 5.y.H.R.v.L.x.S.L.B.B.B.b.V.x.x.Y.N.V.M.c.c.c.I.w.6.f d PXIXUXUXUXUXUXUXUXUXUXUXUXUXUXUXUXUX",
"UXUXUXUXUXUXUXUXUXUXUXUXUXUXUXUXd a 6.r.R.K.b.V.x.B.B.V.V.V.m.J.B.N.n.k.V.N.c.V.J.R.w.6.t > UXUXUXUXUXUXUXUXUXUXUXUXUXUXUXUXUXUX",
"UXUXUXUXUXUXUXUXUXUXGXUXUXUXUXKX: r 6.u.H.K.Y.K.V.U.M.v.H.K.m.K.K.K.K.c.N.M.x.M.V.P.0.y.t < UXFXUXUXUXUXUXUXUXUXUXUXUXUXUXUXUXUX",
"UXUXUXUXUXUXUXUXUXUXUXUXLXUXUXUXQ u 6.u.I.K.K.k.b.V.L.P.K.K.c.c.K.n.m.b.V.B.M.|.z.Z.q.r.i 1 UXUXUXUXUXUXUXUXUXUXUXUXUXUXUXUXUXUX",
"UXUXUXUXUXUXUXUXUXGXUXUXUXUXUXHX; t f.t.q.9.J.P.L.v.S.Z.K.K.R.R.K.K.K.L.v.x.l.l.&.j.j.r.f : GXUXUXUXUXUXUXUXUXUXUXUXUXUXUXUXUXUX",
"UXUXUXUXUXUXUXUXUXKXUXGXKXUXUXUXK s f.t.e.9.S.J.L.S.I.L.K.H.I.H.K.H.H.U.z.x.A.{.e.0.7.3.a 1 UXUXUXUXUXUXUXUXUXUXUXUXUXUXUXUXUXUX",
"UXUXUXUXUXUXUXUXGXUXUXUXUXHXPXKXw s d.r.t.*.j.*.9.9.Z.T.R.R.T.D.S.XXZ.S.9.9.e.w.8.0.y.h.d ; PXPXUXUXUXUXUXUXUXUXUXUXUXUXUXUXUXUX",
"IXUXUXIXUXUXUXUXUXUXGXGXUXUXGXKXw I f.r.t.7.e.e.9.e.D.T.G.C.F.|.[.h.G.D.e.9.8.8.8.y.1.5.r d PXLXUXUXUXUXUXUXUXUXUXUXUXUXUXUXUXUX",
"IXUXUXUXUXUXUXUXUXUXUXUXUXNXM : G > a y w.0.w.=.e.8.u.w.k i m m u j w.e.*.:.j.t.u.r.j f u ; ^ ; UXUXUXUXUXUXUXUXUXUXUXUXUXUXUXUX",
"UXUXUXUXUXUXUXUXUXGXUXKXUXUX< 1 p < d a 6.w.=.e.w.w.y.6.u : v c x u 5.u.q.q.j.9.0.6.i r r u ; K UXUXUXUXUXUXUXUXUXUXUXUXUXUXUXUX",
"UXUXUXUXUXUXUXUXUXUXUXUXUXUX    2X<XL L 1.p.&.&.e.+.C : c c v c m m K f 2.e.-.-.w.i.r r 5X;XX o UXUXUXUXUXUXUXUXUXUXUXUXUXUXUXUX",
"UXUXUXUXUXUXUXUXUXUXUXUXKXUX  . OX1XJ J i.$.e.8.0.+.l d v m i u 0 u J L <.e.*.9.6.i.y 0 <X;X. o UXUXUXUXUXUXUXUXUXUXUXUXUXUXUXUX",
"UXUXUXUXUXUXUXUXGXUXUXUXUXUX  @ OX3Xs J K J w h f.u.r.y.y.f.u.8.w.y.s.4.f.6.k s J > i 8 .X5X+ . UXUXUXUXUXUXUXUXUXUXUXUXUXUXUXUX",
"UXUXUXUXUXUXUXUXUXUXGXUXUXGX$   2X3Xw J p t s r a.6.6.6.d.d.d.t.r.u.d.&Xa.3.p p p P 7 0 2X X# . UXUXUXUXUXUXUXUXUXUXUXUXUXUXUXUX",
"UXUXUXUXUXUXUXUXGXUXUXUXUXUXGXHX+ # k s 1.S b 0 u p u d a p J s y y J L a f 7 0 ( Z 3 9 . + HXKXUXUXUXUXUXUXUXUXUXUXUXUXUXUXUXUX",
"UXUXUXUXUXUXUXUXUXUXKXUXUXGXUXCX. + y r V V 3 6 u u u u u p p p u t a d 7 y 3 0 S S 9 c X   UXKXUXUXUXUXUXUXUXUXUXUXUXUXUXUXUXUX",
"UXUXUXUXUXUXUXUXUXUXUXUXUXKXUXIXZXCXX O u u 1.Z Z #.V V S ( ( Z ( A $.$.@.O.O.S 7 f     UXUXZXJXKXUXUXUXUXUXUXUXUXUXUXUXUXUXUXUX",
"UXUXUXUXUXUXUXUXUXUXKXUXUXUXHXUXJXJXX X v d ^ 1.#.O.@.X.@.@.@.O.S B @.....O.+.S u <     UXKXKXKXUXUXUXUXUXUXUXUXUXUXUXUXUXUXUXUX",
"UXUXUXUXUXUXUXUXUXUXUXUXUXUXUXUXUXUXKXKX  . r 8 V $...X.+.O.+.+.O.@.X.X.@.O.0 9   X JXIXUXHXUXPXUXUXUXUXUXUXUXUXUXUXUXUXUXUXUXUX",
"UXUXUXUXUXUXUXUXUXUXUXUXUXUXUXUXPXUXPXUX  . ! u $.$.B $.X.=.O.+.@.O.X.$.S i.7 9 X X IXIXUXUXPXPXUXUXUXUXUXUXUXUXUXUXUXUXUXUXUXUX",
"UXUXUXUXUXUXUXUXUXUXUXUXUXUXUXUXUXIXIXLXQ P   .   . r 7 n X.+...X.V 7 9 . . .   ; Q LXIXIXJXUXUXUXUXUXUXUXUXUXUXUXUXUXUXUXUXUXUX",
"UXUXUXUXUXUXUXUXUXUXUXUXUXUXUXUXIXIXUXUXQ < O   . X i i S n ..+.n $.i r +     $ M K UXUXUXIXHXGXUXUXUXUXUXUXUXUXUXUXUXUXUXUXUXUX",
"UXUXUXUXUXUXUXUXUXUXUXUXUXUXUXUXUXUX  X 1 M u N ].!.4 y 7 0 8 8 h 2 k h p.'.5 ; d Q % % PXUXUXUXUXUXUXUXUXUXUXUXUXUXUXUXUXUXUXUX",
"UXUXUXUXUXUXUXUXUXUXUXUXUXUXUXUXKXKXX X M M r 0 W.'.6 i 0 5 3 6 q h k 8 W.Q.0 C 1 G % O PXPXLXIXUXUXUXUXUXUXUXUXUXUXUXUXUXUXUXUX",
"UXUXUXUXUXUXUXUXUXUXUXUXUXUXUXUX    G R c u l h '.W.+ . ~.W.'.W.).^.. + W.W.B g M c T 1 @ . UXJXUXUXUXUXUXUXUXUXUXUXUXUXUXUXUXUX",
"UXUXUXUXUXUXUXUXUXUXUXUXUXUXUXUX. . 1 T v M z h `.^.# X ~.Q././.E.Q.. . ^.`.| U M c c u + . KXKXUXUXUXUXUXUXUXUXUXUXUXUXUXUXUXUX",
"UXUXUXUXIXUXUXUXUXUXPXHXUXPX^ ! zXzX<X4X. + d.;.& # ].W.Q.Q.E./.E._.'.].& & :.d.. X 1X6XtXcXC ^ UXUXUXUXUXUXUXUXUXUXUXUXUXUXUXUX",
"UXUXUXUXUXUXUXUXUXUXUXPXHXPX! ) uXyX3X<X. + :.d.@ @ `.`.Q.E./.E.E.E.W.^.+ # :.:.+ o 1X6XtXuX/ Z KXUXUXUXUXUXUXUXUXUXUXUXUXUXUXUX",
"UXUXUXUXUXUXUXUXUXIXUXUXHXPX! ^ kXlXwXxX  + z h q 4 @..._./._._./._...X.6 3 h h . O kX0XxXxXZ l KXUXUXUXUXUXUXUXUXUXUXUXUXUXUXUX",
"UXUXUXUXUXIXUXIXLXGXUXKXKXPX_ ! kXlXyXlX  . j l 4 6 ....)._.).-.).W...@.3 0 z I . o cXlXtXyXz / UXUXUXUXUXUXUXUXUXUXUXUXUXUXUXUX",
"UXUXUXUXUXUXUXUXUXUXKXGXPXKXHXHXC Z z I H H ] { u 5 !.`.....o...o.o.p.(.4 0 _ { c c f Z | ,.HXPXUXUXUXUXUXUXUXUXUXUXUXUXUXUXUXUX",
"UXUXUXUXUXUXIXUXIXUXUXUXUXHXUXPX^ C / ] Q R ' ' x b ~.`.......o...X.^.}.5 1 [ [ c T C S Z l PXUXUXUXUXUXUXUXUXUXUXUXUXUXUXUXUXUX",
"UXUXUXUXUXUXIXUXUXIXJXUXUXUXUXGXIXUXPXSX% % R R [ E   & -.'.(.E.).!.+ X W [ F c X X KXCXCXZXHXUXUXUXUXUXUXUXUXUXUXUXUXUXUXUXUXUX",
"UXUXUXUXUXUXUXIXUXUXUXUXLXUXUXUXFXFXPXPX+ o Q , [ { % . }.W.~.'.`.}.X O [ [ Q d . . DXIXUXDXKXJXUXUXUXUXUXUXUXUXUXUXUXUXUXUXUXUX",
"UXUXUXUXUXUXUXUXIXUXUXUXUXUXUXIXIXDXKXZX+ & <.:.:.3.f M K < N m u m < N / 6.4.4.& + UXSXUXUXCXKXUXUXUXUXUXUXUXUXUXUXUXUXUXUXUXUX",
"UXUXUXUXUXUXUXUXIXUXIXUXIXUXUXUXZXKXKXZX. # 4.t.t.<.f 1 G L K 1 1 , m i <.:.d.4.& - SXUXPXPXHXUXUXUXUXUXUXUXUXUXUXUXUXUXUXUXUXUX",
"UXUXUXUXUXUXUXUXUXUXUXIXUXUXUXIXZXCXPXUXIXIX  . . + UXIXUXUXIXIXIXKXZXZX@ & * % IXMXUXKXZXKXUXUXUXUXUXUXUXUXUXUXUXUXUXUXUXUXUXUX",
"UXUXUXIXUXUXUXUXUXUXUXUXUXUXUXUXZXHXUXUXFXFXX   O o IXDXHXZXZXZXKXZXZXKX% % % % FXFXZXZXZXKXUXIXUXUXUXUXUXUXUXUXUXUXUXUXUXUXUXUX",
"UXUXUXKXUXUXUXUXUXUXUXUXUXUXUXUXUXKXBXUXFXFXIXKXUXHXUXUXUXUXVXVXUXPXUXUXUXJXUXIXVXDXVXZXKXLXUXUXUXUXUXUXUXUXUXUXUXUXUXUXUXUXUXUX",
"UXUXUXUXKXUXUXUXUXUXUXUXUXUXUXIXIXUXUXPXIXIXHXZXCXUXLXUXUXLXJXJXGXUXLXIXLXKXGXKXJXVXCXZXUXPXIXIXUXUXUXUXUXUXUXUXUXUXUXUXUXUXUXUX",
"UXUXUXKXUXUXUXUXUXUXUXUXUXUXUXIXFXDXPXPXUXZXZXCXKXGXUXPXPXUXKXKXUXPXIXIXIXHXKXCXKXKXUXUXHXLXUXIXUXUXUXUXUXUXUXUXUXUXUXUXUXUXUXUX",
"KXUXUXUXUXUXUXUXUXUXUXUXUXUXUXUXFXIXUXPXKXZXvXZXCXIXAXUXPXUXHXUXPXUXFXFXIXUXKXZXZXKXSXUXPXUXJXDXUXUXUXUXUXUXUXUXUXUXUXUXUXUXUXUX"
};
