/* XPM */
static char *result[] = {
/* columns rows colors chars-per-pixel */
"64 64 235 2 ",
"   c #0C0C0C",
".  c #110502",
"X  c #130F0D",
"o  c #180A00",
"O  c #0F100D",
"+  c #12100E",
"@  c #171205",
"#  c #191515",
"$  c #1D1D1C",
"%  c #181616",
"&  c #251700",
"*  c #311E00",
"=  c #221D1C",
"-  c #38290A",
";  c #3D2B11",
":  c #2C2A2A",
">  c #232323",
",  c #33302F",
"<  c #4B3917",
"1  c #453309",
"2  c #523E2E",
"3  c #514618",
"4  c #604E12",
"5  c #544F3D",
"6  c #5B5131",
"7  c #574F2B",
"8  c #6A5C2F",
"9  c #685D37",
"0  c #765230",
"q  c #6B6337",
"w  c #776836",
"e  c #7B743A",
"r  c #6E602A",
"t  c #685D42",
"y  c #7A5B47",
"u  c #7D5B57",
"i  c #7A6948",
"p  c #7D7248",
"a  c #727257",
"s  c #7E5B62",
"d  c #87773B",
"f  c #927E35",
"g  c #BD6C3B",
"h  c #AF793A",
"j  c #B27A3B",
"k  c #A15B47",
"l  c #836A44",
"z  c #857B44",
"x  c #8B7D44",
"c  c #857749",
"v  c #927B48",
"b  c #876856",
"n  c #8E7554",
"m  c #B87B51",
"M  c #8B656D",
"N  c #D56D47",
"B  c #C67948",
"V  c #ED7C59",
"C  c #7F816A",
"Z  c #91873C",
"A  c #A49039",
"S  c #9B8B4D",
"D  c #958749",
"F  c #999446",
"G  c #968A5B",
"H  c #988755",
"J  c #999358",
"K  c #8B8847",
"L  c #A7954A",
"P  c #A48D59",
"I  c #AB945C",
"U  c #A59B5C",
"Y  c #AB9C5A",
"T  c #A69555",
"R  c #B29C5D",
"E  c #B79459",
"W  c #B38849",
"Q  c #A9A058",
"!  c #B2A45D",
"~  c #B8A959",
"^  c #B4A14F",
"/  c #998C64",
"(  c #9D9666",
")  c #A28568",
"_  c #A49663",
"`  c #AC9C62",
"'  c #AA9A6B",
"]  c #B69D68",
"[  c #A59D7B",
"{  c #AD8E7C",
"}  c #AEA364",
"|  c #ABA368",
" . c #BCAC64",
".. c #BCAC6C",
"X. c #B5A669",
"o. c #BCB367",
"O. c #B8AB73",
"+. c #B9B376",
"@. c #CD8451",
"#. c #D28A5A",
"$. c #C79C56",
"%. c #D7985E",
"&. c #CA864F",
"*. c #E8855E",
"=. c #C1AD5E",
"-. c #C8AF5A",
";. c #C9B95D",
":. c #D3A05F",
">. c #D39762",
",. c #F48865",
"<. c #E5986B",
"1. c #C4AB68",
"2. c #D6A667",
"3. c #CBB665",
"4. c #CCBA65",
"5. c #C3B36D",
"6. c #CCB56B",
"7. c #CDBB6B",
"8. c #C5B567",
"9. c #D1BC65",
"0. c #D1BD6B",
"q. c #D3B667",
"w. c #C3AA76",
"e. c #C5B974",
"r. c #CCBB73",
"t. c #C7B677",
"y. c #D3BC7A",
"u. c #D2B876",
"i. c #D1AC74",
"p. c #E5B473",
"a. c #F3BB7C",
"s. c #DACE5E",
"d. c #D5C26C",
"f. c #DAC56D",
"g. c #D8CB67",
"h. c #CBC27D",
"j. c #CEC377",
"k. c #DAC574",
"l. c #DECB74",
"z. c #D5C37C",
"x. c #DBC67A",
"c. c #D5CA7C",
"v. c #DDCC7A",
"b. c #D5C775",
"n. c #DED27B",
"m. c #DFD479",
"M. c #D6C869",
"N. c #E3CE75",
"B. c #E3CD7C",
"V. c #EACE7C",
"C. c #E8C57A",
"Z. c #E4D276",
"A. c #E9D276",
"S. c #EADC76",
"D. c #E5D27B",
"F. c #EAD37C",
"G. c #ECDC7C",
"H. c #E4DB79",
"J. c #F2DE7E",
"K. c #E9C277",
"L. c #EEE27D",
"P. c #EDE377",
"I. c #F1E674",
"U. c #F3E37D",
"Y. c #A49D84",
"T. c #AEA887",
"R. c #BBB18C",
"E. c #C5B985",
"W. c #D3B784",
"Q. c #C6BA99",
"!. c #F1BB80",
"~. c #C7C287",
"^. c #D3C484",
"/. c #DBCC83",
"(. c #D6CB88",
"). c #DDD48C",
"_. c #DBD385",
"`. c #CFC598",
"'. c #D2C894",
"]. c #E2CC82",
"[. c #E7CC87",
"{. c #E4D483",
"}. c #EBD583",
"|. c #E6DB85",
" X c #ECDC83",
".X c #E3D38B",
"XX c #EBD48B",
"oX c #E4DC8B",
"OX c #ECDC8A",
"+X c #F2DD85",
"@X c #F2DD8C",
"#X c #FDDE8C",
"$X c #F6D884",
"%X c #ECDC93",
"&X c #E6D995",
"*X c #F4DD93",
"=X c #F4DB98",
"-X c #F6C586",
";X c #ECE284",
":X c #EDE18B",
">X c #E7E18A",
",X c #F4E383",
"<X c #F9E485",
"1X c #F5EA85",
"2X c #FAE886",
"3X c #F4E48A",
"4X c #FAE48A",
"5X c #F5EA8B",
"6X c #F9E98A",
"7X c #EEE293",
"8X c #ECE49A",
"9X c #EFE992",
"0X c #F3E494",
"qX c #FBE493",
"wX c #F9E993",
"eX c #F3E49C",
"rX c #F5EA9B",
"tX c #FBEA99",
"yX c #FDF198",
"uX c #D8D5B5",
"iX c #EBDEA6",
"pX c #ECE2A9",
"aX c #F3E4A5",
"sX c #F5E6AC",
"dX c #F8E9A6",
"fX c #EDE5B2",
"gX c #FBECB3",
"hX c #FCEDBB",
"jX c #F5E7B5",
"kX c #FEF2BB",
"lX c #FEF2B3",
"zX c #FBEEC7",
"xX c #FCF5CB",
"cX c #F3EBC9",
"vX c None",
/* pixels */
"vXvXvXvXvXvXvXvXvXvXvXvXvXvXvXvXvXvXvXvXvXvXvXvXvXvXvXvXvXvXvXvXvXvXvXvXvXvXvXvXvXvXvXvXvXvXvXvXvXvXvXvXvXvXvXvXvXvXvXvXvXvXvXvX",
"vXvXvXvXvXvXvXvXvXvXvXvXvXvXvXvXvXvXvXvXvXvXvXvXvXvXvXvXvXvXvXvXvXvXvXvXvXvXvXvXvXvXvXvXvXvXvXvXvXvXvXvXvXvXvXvXvXvXvXvXvXvXvXvX",
"vXvXvXvXvXvXvXvXvXvXvXvXvX> vXvXvXvXvXvXvXvXvXvXvXvXvXvXvXvXvXvXvXvXvXvXvXvXvXvXvXvXvXvXvXvXvXvXvXvXvXvXvXvXvXvXvXvXvXvXvXvXvXvX",
"vXvXvXvXvXvXvXvXvXvXvXvXvX> vXvXvXvXvXvXvXvXvXvXvXvXvXvXvXvXvXvXvXvXvXvXvXvXvXvXvXvXvXvXvXvXvXvXvXvXvXvXvXvXvXvXvXvXvXvXvXvXvXvX",
"vXvXvXvXvXvXvXvXvXvXvXvX: > % vXvXvXvXvXvXvXvXvXvXvXvXvXvXvXvXvXvXvXvXvXvXvXvXvXvXvXvXvXvXvXvXvXvXvXvXvXvXvXvXvXvXvXvXvXvXvXvXvX",
"vXvXvXvXvXvXvXvXvXvXvX$ % O   vXvXvXvXvXvXvXvXvXvXvXvXvXvXvXvXvXvXvXvXvXvXvXvXvXvXvXvXvXvXvXvXvXvXvXvXvXvXvXvXvXvXvXvXvXvXvXvXvX",
"vXvXvXvXvXvXvXvXvXvXvX$     % vXvXvXvXvXvXvXvXvXvXvXvXvXvXvXvXvXvXvXvXvXvXvXvXvXvXvXvXvXvXvXvXvXvXvXvXvXvXvXvXvXvXvXvXvXvXvXvXvX",
"vXvXvXvXvXvXvXvXvXvX# @ . 5 a vXvXvXvXvXvXvXvXvXvXvXvXvXvXvXvXvXvXvXvXvXvXvXvXvXvXvXvXvXvXvXvXvXvXvXvXvXvXvXvXvXvXvXvXvXvXvXvXvX",
"vXvXvXvXvXvXvXvXvXvXo * P iX+.vXvXvXvXvXvXvXvXvXvXvXvXvXvXvXvXvXvXvXvXvXvXvXvXvXvXvXvXvXvXvXvXvXvXvXvXvXvXvXvXvXvXvXvXvX/ vXvXvX",
"vXvXvXvXvXvXvXvXvXvX1 ` =X@Xo.vXvXvXvXvXvXvXvXvXvXvXvXvXvXvXvXvXvXvXvXvXvXvXvXvXvXvXvXvXvXvXvXvXvXvXvXvXvXvXvXvXvXvXvXuXuXvXvXvX",
"vXvXvXvXvXvXvXvXvX; X.tX5X:X~ vXvXvXvXvXvXvXvXvXvXvXvXvXvXvXvXvXvXvXvXvXvXvXvXvXvXvXvXvXvX$ > $ vXvXvXvXvXvXvXvXvXY.uXxXxXY.vXvX",
"vXvXvXvXvXvXvXvXvX_ %X XG.1X! vXvXvXvXvXvXvXvXvXvXvXvXvXvXvXvXvXvXvXvXvXvXvXY.5 X O O X % : , : vXvXvXvXvXvXvXvXR.cXxXxXxX`.vXvX",
"vXvXvXvXvXvXvXvXvX(.0X2X,X,XZ vXvXvXvXvXvXvXvXvXvXvXvXvXvXvXvXvXvXvXvX| ~.8XfXt @ O + + = , : vXvXvXvXvXvXvXvX`.zXzXhXkXzXiXvXvX",
"vXvXvXvXvXvXvXvXvX_.3X2X;X:XD vXvXvXvXvXvXvXvXvXvXvXvXvXvXvXvXvX} 5._.>X>X8X`.- @ + + + = = vXvXvXvXvXvXvXvX~.fXhXhXgXlXsXiXvXvX",
"vXvXvXvXvXvXvXvXvXoX5X3XyX.XvXvXvXvXvXvXvXvXvXvXvXvXvXvXvXvXJ ~.7X>X;X_.5X8XG @ X X X X # vXvXvXvXvXvXvXvX^.rXdXjXgXsXdX=XaX' vX",
"vXvXvXvXvXvXvXvXvX>X5X1X0X^.vXvXvXvXvXvXvXvXvXvXvXvXvXvX( y.oX:X;XL.L.L.>X(.3 . X X X vXvXvXvXvXvXvXvXvXh.9X5X3XrXaXrXrXXXeX..vX",
"vXvXvXvXvXvXvXvXK 9X;X;X7X5.vX/ T.T.[ ( vXvXvXvXvXvXvX..%X>X XL.L.U.1X1XeX' .   % % vXvXvXvXvXvXvXvXvX/.:XU.I.I.5X:X1X1X:X0Xr.vX",
"vXvXvXvXvXvXvXvXvXoX>X0Xz.).&XfXjXjXpXpX%X(.h.o.vXZ c.eX|.;XP.G.G.J.2XtXiX< . # vXvXvXvXvXvXvXvXvXvXj.wX;XI.I.I.;X1XU.U.,X3X/.vX",
"vXvXvXvXvXvXvXvXvX/.aXaXsXhXkXlXhXjX8XoXyXyX:X0Xc..XOX7X:X;X X,X4X3XOX&Xz @ vXvXvXvXvXvXvXvXvXvXvXz.0XOX,XU.I.I.1X,XL.I.1X3X.XvX",
"vXvXvXvXvXvXvXvXvX^.sXjXjXhXkXlXkXaX(.5.Q |.;X:XrXeXXXb.:XOXOX@X.Xu.` H vXvXvXvXvXvXvXvXvXvXvXvX^.XX7X3X;XU.U.U.,X;XU.L.1X3XXXS ",
"vXvXvXvXvXvXvXvXR.aXkXkXhXgXdXaXsXW.R.Q.- H XX,X;X XOX{.7.v.b. .P vXvXvXvXvXvXvXvXvXvXvXvXvXvX1.XXXX X X;X,XU.L.;X;XG.P.H.|.eXR ",
"vXvXvXvXvXvXvXT.pXgXsXkXgXdXrX%X=Xl ; 2 . w 5X1X1X|.F.n.7.Z vXvXvXvXvXvXvXvXvXvXvXvXvXvXvXvXy.|. X X XG. X X XG.G.G.S.P. X3X*XY ",
"vXvXvXvXvXvXa T.`.sXaXrXrXrX3X7X0XD * 1 < T ,XP.L.L.G.Z.n.Y vXvXvXvXvXvXvXvXvXvXvXvXvXvXvXX.D.N.D.Z.F.F.F.}. X XG.G.P.S.G.}.].D ",
"vXvXvXvXvXvX7 q J eXrX|.5X3X0X5XrX=XS z R dXF.f.A.D.F.Z.|..XvXvXvXvXvXvXvXvXvXvXvXvXvXvXO.z.D.G.N.Z.Z.B.F.F.F.}.H.G.G.L.|.8.vXvX",
"vXvXvXvXvX' ; & Y  X+Xg.$X#X@XXXl.wX7X8XaXu.:.%.j $.N.N.|.XXT vXvXvXvXvXvXvXvXvXvXvXvXJ _.m.D.B.D.V.V.V.V.F.}.N.m.;XH.c.S vXvXvX",
"vXvXvXvXvXW.w e XX3X@X$X=X-Xy.R v.6X;X0X*X$.%.<.&.W q.F.H.|.u.vXvXvXvXvXvXvXvXvXvXvXJ (.n.m.D.D.V.V.F.F.#X}.F.F.|.(.X.vXvXvXvXvX",
"vXvXvXvXvXi.=X*XC.q.I l b b b l /.3X XqXp.&.*.,.B j -.$XD.n.].I vXvXvXvXvXvXvXvXvXvX~.8Xn.m.D.D.A.A.F.Z.N.F. X}.e.K vXvXvXvXvXvX",
"vXvXvXvX0 E C.$X@X*XW.l u M M b ].1X X#X2.B V ,.B j q.S.Z.B.XXt.vXvXvXvXvXvXvXvXvXvX~.).n.m.D.D.Z.A.D.D.B.@X].R vXvXvXvXvXvXvXvX",
"vXvXvXvXvX:.$.U.6X@X=X) y u M 0  .U.F.V.p.g N V g j p.G.m.l.].(.vXvXvXvXvXvXvXvXvXvX( ).{.Z.B.V.F.N.H..X.Xw.x vXvXvXvXvXvXvXvXvX",
"vXvXvXvXvXm W K.2X+XaXW.l u M n 1.L.D.B.-X&.N N B %.$Xk.m.v.].[.} vXvXvXvXvXvXvXvXvXvXo.n.Z.N.B.l.c.&X^.U vXvXvXvXvXvXvXvXvXvXvX",
"vXvXvXvXvXk m 2.#X XqX=X) 0 Y.M  .U.m.Z.XXi.#.#.%.a.#Xl.l.v.].].e.vXvXvXvXvXvXvXvXvXvXT b.l.N.k.).).O.vXvXvXvXvXvXvXvXvXvXvXvXvX",
"vXvXvXvXvXvXk I [.}.B.XXy.v Y.w.=.G.m.m.Z.C.-X-X!.a.$XN.m.v.B./.c.U vXvXvXvXvXvXvXvXvXvX~ b.y.z.e.G vXvXvXvXvXvXvXvXvXvXvXvXvXvX",
"vXvXvXvXvXvXvXH ].x.B.].[.u.R E f.G.A.N.F.V.V.V.[.[.D.l.d.7.C.z.n. .vXvXvXvXvXvXvXvXvXvXe 1.y.w.v vXvXvXvXvXvXvXvXvXvXvXvXvXvXvX",
"vXvXvXvXvXvXvXvX..k.|.C.XXN.B.}.N.F.N.N.A.A.A.A.}.B.4.A ~ 7.}.@X:X|.Q vXvXvXvXvXvXvXvXvXvX] u.w.vXvXvXvXvXvXvXvXvXvXvXvXvXvXvXvX",
"vXvXvXvXvXvXvXvXvXL 0.}.G.V.A.}.F.V.A.N.A.A.A.Z.V.6.~ q.3.~ x.*XOX9Xe.vXvXvXvXvXvXvXvXvXvXP i.u.H vXvXvXvXvXvXvXvXvXvXvXvXvXvXvX",
"vXvXvXvXvXvXvXL -.4.;.D.F.F.A.A.A.Z.N.N.A.A.A.F.l.L 4.d.f.k.=.@X}.wX/.w vXvXvXvXvXvXvXvXH ' ] w./ vXvXvXvXvXvXvXvXvXvXvXvXvXvXvX",
"vXvXvXvX_ t.=X*X5X4X2X2XJ.J.A.A.A.A.A.A.A.A.A.F.3.=.q.7.7.k.7.@X@XtX7X..3 vXvXvXvXvXvXG X.w.] ] ' 6 vXvXvXvXvXvXvXvXvXvXvXvXvXvX",
"vXn +.(.*X5XtXqX2X2X1X2X<XU.J.A.A.A.A.A.A.A.A.G.k.1.k.~ ^ 0.f.}.@X0XeX).+.vXvXvXvXq J X.X.w.1.P i vXvXvXvXvXvXvXvXvXvXvXvXvXvXvX",
"/ E.t..X<X<X4X4X2XU.U.U.U.<X<XU.J.G.A.A.A.A.A.D.B.4.}.v.8.l.B.XXB.3X0X%XaX+.vXvXe Q X.X.O.] I vXvXvXvXvXvXvXvXvXvXvXvXvXvXvXvXvX",
"/ (.Q b.A.J.J.U.U.U.U.U.U.<XU.<X<X+XJ.J.A.A.A.F.F.7.b. XB.l.D.F.k.G.3X0X9X).F vXvXJ } } P w vXvXvXvXvXvXvXvXvXvXvXvXvXvXvXvXvXvX",
"' ^.^.|.6X,XL.P.U.U.U.U.2X<X4X#X,X<X,X+X+X+X+XU.G.wX9.N.Z.Z.Z.Z.N.F.+X X3X5Xb.vXvXvXJ e.D vXvXvXvXvXvXvXvXvXvXvXvXvXvXvXvXvXvXvX",
"vX( t.(..X5Xm.L.5X5X3X XG.#X#X#X4X<X4X<X1X<X<X,X1X3XG.G.Z.Z.Z.D.G.+X X,X,X1XP.F vXvXvXF } G vXvXvXvXvXvXvXvXvXvXvXvXvXvXvXvXvXvX",
"vXvXvXvXvXvXA Q o.j.c.7.q.#X$X#X4X2X,X1X1X4X3X<X4X,X1X,X;XG. XJ.G.,X1X,X1X1X;Xd.1 vXvXvXd z 9 vXvXvXvXvXvXvXvXvXvXvXvXvXvXvXvXvX",
"vXvXvXvXvXvXvXvXvXvXvXvXf @X}.$X,X,X,X4X,X,X3X,X,X5X,X2X,X1X,X,X,X,X,X,X,X1X;Xb.K vXvXvXw e l 6 vXvXvXvXvXvXvXvXvXvXvXvXvXvXvXvX",
"vXvXvXvXvXvXvXvXvXvXvXvXvXb.6X@X3X,X3X<X4X4X1X,X,X;X,X,X,X,X,X<X,X,X<XU.<XU.,XOXW.D < 8 c p c q vXvXvXvXvXvXvXvXvXvXvXvXvXvXvXvX",
"vXvXvXvXvXvXvXvXvXvXvXvXvX .5X1X<X<X2X4X2X,X4X3X,X,X,X X,X,X,X,X,X,XU.$XU.+XU.+XoXX.d l i i 6 vXvXvXvXvXvXvXvXvXvXvXvXvXvXvXvXvX",
"vXvXvXvXvXvXvXvXvXvXvXvXvXQ G.1X2X<X2X,X4X,X,X,X,X,XU.+X,X,X<X,X,X,XU.U.U.J.U.U.g.;.d q 2 vXvXvXvXvXvXvXvXvXvXvXvXvXvXvXvXvXvXvX",
"vXvXvXvXvXvXvXvXvXvXvXvXvXZ ;X1X,X4X4X,X,X3X,X,XU.,X,X,X,X,XU.,XU.U.<XU.,XU.U.U.s.g.F q vXvXvXvXvXvXvXvXvXvXvXvXvXvXvXvXvXvXvXvX",
"vXvXvXvXvXvXvXvXvXvXvXvXvXvXH.5X,X4X@X4X,X,X,X,XJ.$XU.U.U.U.<X<XU.<X<XU.J.U.,X2Xg.4.! w t vXvXvXvXvXvXvXvXvXvXvXvXvXvXvXvXvXvXvX",
"vXvXvXvXvXvXvXvXvXvXvXvXvXvX>X5X3X<X<X,X3X,X,X,X,XU.,XU.<XU.J.U.U.U.U.U.,X,XU.P.g.3.! 8 9 vXvXvXvXvXvXvXvXvXvXvXvXvXvXvXvXvXvXvX",
"vXvXvXvXvXvXvXvXvXvXvXvXvXvXoX5X<X3X4X3X$X,X,X,X,XU.U.U.U.,X,X,X<X$X,X,X<XJ.F.Z.M.8.} vXvXvXvXvXvXvXvXvXvXvXvXvXvXvXvXvXvXvXvXvX",
"vXvXvXvXvXvXvXvXvXvXvXvXvXvX~.yX3X3X,X,X1X+X3X+X+X,X,X,X,X,X,X,X,X<X,X<X4X$XZ.l.;.8.} vXvXvXvXvXvXvXvXvXvXvXvXvXvXvXvXvXvXvXvXvX",
"vXvXvXvXvXvXvXvXvXvXvXvXvXvXO.rX6X4X4X4X4X4X4X4XJ.+X XG.+X+X+X@X$X+X@X+XV.k.q.q.;.e.} vXvXvXvXvXvXvXvXvXvXvXvXvXvXvXvXvXvXvXvXvX",
"vXvXvXvXvXvXvXvXvXvXvXvXvXvXG oX@X2X<X+X3X+XF.Z.f.d.d.9.d.k.x.l.N.l.k.k.0.6.6.3.7.r.' vXvXvXvXvXvXvXvXvXvXvXvXvXvXvXvXvXvXvXvXvX",
"vXvXvXvXvXvXvXvXvXvXvXvXvXvXvXe.XX,X$XJ.A.l.d.9.3.3.0.d.0.0.7.6.q.6.q.6.6.q.6.6.8.t.c vXvXvXvXvXvXvXvXvXvXvXvXvXvXvXvXvXvXvXvXvX",
"vXvXvXvXvXvXvXvXvXvXvXvXvXvXvXvX! d.k.f.9.9.q.q.~ Y S x v S Y  .r.u.r.6.6.6.6.6.5.` vXvXvXvXvXvXvXvXvXvXvXvXvXvXvXvXvXvXvXvXvXvX",
"vXvXvXvXvXvXvXvXvXvXvXvXvXvXvXvXvXH ..X.5.6.=.L e vXvXvXvXvXvXvXz U X.e.e.e.7.o.Y p vXvXvXvXvXvXvXvXvXvXvXvXvXvXvXvXvXvXvXvXvXvX",
"vXvXvXvXvXvXvXvXvXvXvXvXvXvXvXvXvXvXvXz H P d 4 vXvXvXvXvXvXvXvXvXvXvXvXz x x U | J vXvXvXvXvXvXvXvXvXvXvXvXvXvXvXvXvXvXvXvXvXvX",
"vXvXvXvXvXvXvXvXvXvXvXvXvXvXvXvXvXvXvXvXc ] P vXvXvXvXvXvXvXvXvXvXvXvXvXvXvXp ' Q F vXvXvXvXvXvXvXvXvXvXvXvXvXvXvXvXvXvXvXvXvXvX",
"vXvXvXvXvXvXvXvXvXvXvXvXvXvXvXvXvXvXvXvXi ' I r vXvXvXvXvXvXvXvXvXvXvXvXvXvXvX/ X.F vXvXvXvXvXvXvXvXvXvXvXvXvXvXvXvXvXvXvXvXvXvX",
"vXvXvXvXvXvXvXvXvXvXvXvXvXvXvXvXvXvXvXvXvXc U vXvXvXvXvXvXvXvXvXvXvXvXvXvXvXvXp +.| vXvXvXvXvXvXvXvXvXvXvXvXvXvXvXvXvXvXvXvXvXvX",
"vXvXvXvXvXvXvXvXvXvXvXvXvXvXvXvXvXvXvXvXvXvXvXvXvXvXvXvXvXvXvXvXvXvXvXvXvXvXvXvXvXn vXvXvXvXvXvXvXvXvXvXvXvXvXvXvXvXvXvXvXvXvXvX",
"vXvXvXvXvXvXvXvXvXvXvXvXvXvXvXvXvXvXvXvXvXvXvXvXvXvXvXvXvXvXvXvXvXvXvXvXvXvXvXvXvXvXvXvXvXvXvXvXvXvXvXvXvXvXvXvXvXvXvXvXvXvXvXvX",
"vXvXvXvXvXvXvXvXvXvXvXvXvXvXvXvXvXvXvXvXvXvXvXvXvXvXvXvXvXvXvXvXvXvXvXvXvXvXvXvXvXvXvXvXvXvXvXvXvXvXvXvXvXvXvXvXvXvXvXvXvXvXvXvX"
};
